src/assets/luts/人像配方/奶油像.cube
#Generated by PennL1 - 闲鱼号：LOOK胶片感 公众号：胶片感
TITLE 佳能直出
LUT_3D_SIZE 33
0.0627451 0.06666667 0.08627451
0.059803925 0.063725494 0.083333336
0.058823533 0.05294118 0.064705886
0.06764706 0.042156864 0.04509804
0.09411765 0.039215688 0.039215688
0.1264706 0.042156864 0.042156864
0.15882353 0.04117647 0.04117647
0.19215687 0.038235296 0.04117647
0.22745098 0.03529412 0.047058824
0.26568627 0.03529412 0.047058824
0.3019608 0.033333335 0.047058824
0.34019607 0.032352943 0.046078432
0.3843137 0.03529412 0.043137256
0.41666666 0.032352943 0.046078432
0.44509804 0.033333335 0.047058824
0.47352943 0.03627451 0.047058824
0.5058824 0.039215688 0.047058824
0.5470588 0.039215688 0.05
0.582353 0.037254903 0.052941177
0.61372554 0.034313727 0.052941177
0.6431373 0.03137255 0.047058824
0.6784314 0.037254903 0.052941177
0.7058824 0.03529412 0.05490196
0.7313726 0.032352943 0.055882353
0.7607843 0.03529412 0.058823533
0.79019606 0.038235296 0.06764706
0.8156863 0.039215688 0.068627454
0.8401961 0.039215688 0.06568628
0.8666667 0.039215688 0.0627451
0.8784314 0.042156864 0.05392157
0.8745098 0.04117647 0.058823533
0.8656863 0.039215688 0.068627454
0.86274505 0.039215688 0.07450981
0.056862745 0.06666667 0.08627451
0.058333337 0.063725494 0.08112745
0.058823533 0.05294118 0.0632353
0.066176474 0.042892158 0.044362746
0.0882353 0.042156864 0.03627451
0.125 0.042892158 0.037009805
0.15882353 0.04117647 0.038235296
0.19362745 0.03897059 0.040441178
0.23333335 0.038235296 0.04411765
0.27156863 0.036029413 0.041911766
0.30784315 0.034803923 0.04264706
0.34460783 0.034558825 0.042401962
0.3843137 0.03529412 0.037254903
0.4210784 0.032352943 0.042401962
0.452451 0.031862747 0.04264706
0.48308825 0.033333335 0.041911766
0.5176471 0.03627451 0.04411765
0.5588235 0.03406863 0.044852942
0.5926471 0.03284314 0.04411765
0.6247549 0.03137255 0.04411765
0.66078436 0.028431373 0.047058824
0.69166666 0.02990196 0.048529413
0.7176471 0.029411765 0.04901961
0.7438726 0.029411765 0.050735295
0.7754903 0.032352943 0.055882353
0.8026961 0.03529412 0.0625
0.8303922 0.034803923 0.061274514
0.8563726 0.03406863 0.05759804
0.8784314 0.03627451 0.056862745
0.8901961 0.037009805 0.048039217
0.8862745 0.03529412 0.05294118
0.8767157 0.03259804 0.061274514
0.8715687 0.030392157 0.0627451
0.04509804 0.068627454 0.068627454
0.04803922 0.06421569 0.06421569
0.050000004 0.055882357 0.046078432
0.05931373 0.049509805 0.027941177
0.08431373 0.050980397 0.023529412
0.12107844 0.049509805 0.025000002
0.15882353 0.048039217 0.027450982
0.19852942 0.04656863 0.029411767
0.24117649 0.04509804 0.029411767
0.28529412 0.040686276 0.027941179
0.3245098 0.038235296 0.028431375
0.36127448 0.03627451 0.027450982
0.3980392 0.033333335 0.021568628
0.4377451 0.027450982 0.027450982
0.4735294 0.024509806 0.029411767
0.50931376 0.023039218 0.029901963
0.54901963 0.021568628 0.03137255
0.5901961 0.017156864 0.03137255
0.6245098 0.01764706 0.030392159
0.6573529 0.018627452 0.030392159
0.69411767 0.015686274 0.033333335
0.725 0.014215686 0.031862747
0.7539216 0.015686274 0.032352943
0.78333336 0.01764706 0.03382353
0.81568635 0.01764706 0.03529412
0.84656864 0.019117648 0.04117647
0.877451 0.01764706 0.042156864
0.9044118 0.016666668 0.040686276
0.9235294 0.019607844 0.039215688
0.9338235 0.019607844 0.02892157
0.9245098 0.018627452 0.030392159
0.9088236 0.01764706 0.03529412
0.90000004 0.01764706 0.03529412
0.03529412 0.07941177 0.050980393
0.0375 0.075 0.047303922
0.040686276 0.06960785 0.028431373
0.053186275 0.066176474 0.010784314
0.083333336 0.06764706 0.010784314
0.12009805 0.06544118 0.012990197
0.16176471 0.064705886 0.015686275
0.20588236 0.06421569 0.017401962
0.25 0.0627451 0.016666668
0.2977941 0.056862745 0.015931373
0.34019607 0.052941177 0.015196079
0.37843135 0.04901961 0.013235295
0.41372547 0.043137256 0.00882353
0.45710784 0.03504902 0.013970589
0.4970588 0.029901963 0.01764706
0.53676474 0.0252451 0.019117648
0.5794118 0.018627452 0.01764706
0.62058824 0.012745098 0.01764706
0.65588236 0.013235295 0.018137256
0.6892157 0.014460785 0.018382354
0.72450984 0.010784315 0.01764706
0.75686276 0.007107843 0.015441177
0.7887255 0.0068627456 0.015686275
0.8210784 0.0073529417 0.01642157
0.85490197 0.005882353 0.015686275
0.8887255 0.004411765 0.02009804
0.922549 0.0019607844 0.023039216
0.9512255 0.0007352942 0.024019608
0.96960783 0.0029411768 0.02254902
0.97769606 0.0029411768 0.012254903
0.96274513 0.0034313728 0.010294118
0.94117653 0.004656863 0.012009804
0.92941177 0.0068627456 0.012745098
0.03529412 0.105882354 0.050980393
0.03529412 0.105882354 0.04509804
0.039215688 0.101960786 0.025490196
0.05392157 0.097058825 0.007843138
0.08627451 0.09411765 0.007843138
0.12745099 0.09411765 0.007843138
0.17058824 0.09411765 0.009803922
0.21470588 0.09509804 0.01372549
0.25882354 0.09803922 0.019607844
0.3 0.092156865 0.016666668
0.34313726 0.0882353 0.013725491
0.38431373 0.08431373 0.011764706
0.41960785 0.078431375 0.011764706
0.46960783 0.07254902 0.014705883
0.5117647 0.06666667 0.01764706
0.55 0.059803925 0.01764706
0.5882353 0.050980393 0.011764706
0.6294118 0.04509804 0.011764706
0.6647059 0.04117647 0.013725491
0.69803923 0.037254903 0.014705883
0.73333335 0.03137255 0.011764706
0.7656863 0.025490196 0.011764706
0.79607844 0.015686275 0.009803922
0.82843137 0.00882353 0.009803922
0.8666667 0.011764706 0.015686275
0.89607847 0.0058823535 0.015686275
0.9313725 0.0019607844 0.015686275
0.96372545 0.0 0.016666668
0.98431367 0.0 0.019607844
0.99019605 0.0 0.01372549
0.9745098 0.0019607844 0.011764706
0.9529412 0.003921569 0.012745098
0.94117653 0.003921569 0.015686275
0.03529412 0.14117648 0.050980393
0.03529412 0.14117648 0.04509804
0.03627451 0.14019608 0.026960785
0.049509805 0.1382353 0.01004902
0.08627451 0.13529412 0.007843138
0.12965687 0.1375 0.007843138
0.17500001 0.1382353 0.011274511
0.21838236 0.1384804 0.015196079
0.25588238 0.1392157 0.016666668
0.3036765 0.13774511 0.015931373
0.34607846 0.1367647 0.012254903
0.3872549 0.13504902 0.009558824
0.43137255 0.13137256 0.011764706
0.4747549 0.1254902 0.014705883
0.5147059 0.12107844 0.016176471
0.5536765 0.11568628 0.016176471
0.59411764 0.10686275 0.014705883
0.6330883 0.09877451 0.0125
0.6691177 0.09264706 0.012254902
0.70465684 0.085784316 0.013235294
0.74215686 0.0754902 0.014705883
0.77230394 0.06740196 0.0125
0.8034314 0.05686275 0.012745099
0.83504903 0.04705883 0.013480393
0.8666667 0.04117647 0.012745098
0.9004902 0.033088237 0.012745098
0.9343137 0.025490198 0.012745098
0.96372545 0.020588236 0.012990196
0.98431367 0.020588236 0.01372549
0.9857843 0.018382354 0.012254902
0.9715686 0.018137256 0.011764706
0.95367646 0.018627452 0.012009804
0.94411767 0.018627452 0.012745098
0.039215688 0.18039216 0.050980393
0.0377451 0.18039216 0.043627452
0.03627451 0.18039216 0.027450982
0.04754902 0.17990196 0.012745099
0.08431373 0.17843138 0.009803922
0.12843138 0.18137255 0.008333334
0.17450981 0.18333334 0.009803923
0.21862745 0.18382353 0.011764707
0.25686276 0.18235295 0.011764707
0.30392158 0.18088236 0.013235295
0.3480392 0.18333334 0.012745099
0.39117646 0.18578431 0.011274511
0.43529412 0.18431373 0.009803922
0.4764706 0.17990196 0.014215687
0.5156863 0.17647058 0.018627452
0.55588233 0.17303923 0.020588236
0.6 0.16862746 0.01764706
0.63823533 0.15980393 0.014705883
0.6745098 0.15294117 0.013725491
0.7107843 0.14558823 0.013725491
0.7490196 0.13529412 0.013725491
0.7799019 0.12794118 0.013725491
0.8117647 0.11862746 0.014705883
0.84362745 0.107843146 0.015196079
0.8745098 0.09607844 0.013725491
0.9083333 0.085784316 0.015196079
0.93921566 0.07549021 0.013725491
0.965196 0.066176474 0.011764706
0.98431367 0.058823533 0.011764706
0.98431367 0.05294118 0.010294118
0.96960783 0.049019612 0.009803922
0.952451 0.04705883 0.010294118
0.94509804 0.04705883 0.011764706
0.043137256 0.21960784 0.052941177
0.039460786 0.22034314 0.043382354
0.03529412 0.22058824 0.026960786
0.04387255 0.22107844 0.012745099
0.078431375 0.22254902 0.009803922
0.12254903 0.22401962 0.0075980397
0.16911764 0.22647059 0.0073529417
0.21519607 0.22745097 0.007843138
0.25784314 0.2245098 0.007843138
0.3026961 0.22230393 0.011519608
0.34901962 0.22647059 0.013235295
0.39362746 0.23137255 0.012254903
0.43333334 0.23137255 0.007843138
0.47671568 0.22916666 0.013725491
0.51617646 0.22696078 0.021078432
0.5568628 0.2257353 0.024754902
0.6039216 0.22647059 0.019607844
0.6428922 0.21911766 0.019607844
0.67941177 0.21323529 0.019607844
0.715196 0.20686275 0.019117648
0.7519608 0.19803922 0.01764706
0.7843137 0.19289216 0.019117648
0.81666666 0.18529412 0.019117648
0.84901965 0.17500001 0.018627452
0.8813726 0.16176471 0.018627452
0.9129902 0.15 0.02009804
0.9421569 0.13872549 0.01764706
0.96666664 0.12671569 0.014705882
0.98431367 0.1127451 0.014705882
0.98431367 0.10392157 0.011764706
0.96911764 0.097058825 0.01127451
0.9517157 0.09289216 0.012254902
0.94509804 0.092156865 0.01372549
0.043137256 0.25490198 0.058823533
0.037254903 0.25784314 0.047058824
0.029411767 0.25882354 0.025490196
0.034313727 0.26078433 0.0068627456
0.06666667 0.26666668 0.003921569
0.11078432 0.26372552 0.003921569
0.15882352 0.2647059 0.0058823535
0.20784312 0.26568627 0.007843138
0.25490198 0.2627451 0.007843138
0.3019608 0.2627451 0.013725491
0.34901962 0.2647059 0.011764707
0.39215687 0.26666668 0.007843138
0.42745098 0.26666668 0.007843138
0.47745097 0.26666668 0.013725491
0.5176471 0.26666668 0.019607844
0.5568628 0.2676471 0.02254902
0.6039216 0.27058825 0.019607844
0.6450981 0.2676471 0.028431375
0.68235296 0.2647059 0.03137255
0.7166667 0.25980395 0.032352943
0.7490196 0.2509804 0.03529412
0.78137255 0.24803922 0.032352943
0.81372553 0.24117649 0.029411767
0.8460785 0.23235296 0.02745098
0.8784314 0.22352941 0.02745098
0.9078431 0.21176471 0.024509804
0.93921566 0.20196079 0.023529412
0.96666664 0.19215687 0.023529412
0.98431367 0.18039216 0.023529412
0.98431367 0.17156863 0.020588236
0.9705882 0.16470589 0.021568628
0.95392156 0.15980393 0.02254902
0.94509804 0.15686275 0.019607844
0.046078432 0.29313725 0.058823533
0.04019608 0.29607844 0.05147059
0.027941179 0.3029412 0.028431373
0.027696079 0.30931374 0.0075980397
0.057843138 0.31078434 0.0068627456
0.101960786 0.30784315 0.0068627456
0.15 0.31029412 0.0058823535
0.1997549 0.3120098 0.004901961
0.24901961 0.30686277 0.004901961
0.29607844 0.30686277 0.010784313
0.34166667 0.30588236 0.010294118
0.3855392 0.30563727 0.0071078436
0.42745098 0.30784315 0.004901961
0.47083333 0.30784315 0.010784313
0.51176476 0.30931374 0.01372549
0.5539216 0.31176472 0.016666666
0.6009804 0.3147059 0.02254902
0.64215684 0.31617647 0.03137255
0.67941177 0.3147059 0.035784315
0.715196 0.31127453 0.040441178
0.7519608 0.30686277 0.05
0.7843137 0.30392158 0.047058824
0.8137255 0.29852942 0.045588236
0.84460783 0.2904412 0.04509804
0.8813726 0.27941176 0.04509804
0.91078436 0.26985294 0.044362746
0.9406863 0.26078433 0.04117647
0.96666664 0.25171572 0.0375
0.98431367 0.24215688 0.03529412
0.98431367 0.23553923 0.034558825
0.9720588 0.22794119 0.034803923
0.95686275 0.22156863 0.03504902
0.94803923 0.21862744 0.034313727
0.04901961 0.33137256 0.060784318
0.041666668 0.33578432 0.056372553
0.025490198 0.34509802 0.032352943
0.019607844 0.35343137 0.009313726
0.043137256 0.35490197 0.007843138
0.087254904 0.35196078 0.007843138
0.13725491 0.3539216 0.0058823535
0.18970588 0.35539216 0.004411765
0.24117649 0.3509804 0.0058823535
0.2882353 0.34950984 0.0073529407
0.33431375 0.3480392 0.007843138
0.37892157 0.34754902 0.0068627456
0.42156863 0.34901962 0.003921569
0.46568626 0.34901962 0.0068627447
0.50784314 0.3509804 0.00882353
0.55098045 0.3539216 0.01127451
0.59803927 0.35686272 0.015686275
0.63774514 0.35980392 0.024509806
0.6764706 0.35980392 0.03529412
0.71421564 0.35833335 0.047058824
0.7509804 0.35686275 0.058823533
0.78480387 0.352451 0.06176471
0.8156862 0.34901962 0.063725494
0.847549 0.34411764 0.06519608
0.8843137 0.33529413 0.06666667
0.9137255 0.32647058 0.06813726
0.94411767 0.31666666 0.064705886
0.96960783 0.30735296 0.05931373
0.98431367 0.3 0.054901965
0.9857843 0.29411766 0.056372553
0.9735294 0.28627452 0.055882357
0.95882356 0.27941176 0.05441177
0.9529412 0.2764706 0.05294118
0.048039217 0.36960787 0.064705886
0.040686276 0.3747549 0.061029416
0.023039216 0.38529408 0.03627451
0.012500001 0.39485294 0.011029412
0.02647059 0.3970588 0.0058823535
0.06985295 0.39485294 0.0066176476
0.12303922 0.39558825 0.0053921575
0.17941177 0.39632353 0.004411765
0.23235296 0.39411765 0.0058823535
0.28014708 0.3911765 0.0036764708
0.327451 0.39019608 0.0044117654
0.37254903 0.39019608 0.0051470594
0.4137255 0.39019608 0.0029411768
0.46078432 0.39019608 0.0029411768
0.5039216 0.39166665 0.0044117654
0.5470588 0.39387253 0.0058823535
0.59411764 0.3960784 0.0058823535
0.63235295 0.3990196 0.013970589
0.6730392 0.4 0.02892157
0.71299016 0.4002451 0.04534314
0.7490196 0.4009804 0.05784314
0.78578424 0.39656863 0.07034314
0.81911767 0.39460784 0.078431375
0.8517157 0.39264706 0.084068626
0.8862745 0.3882353 0.08921569
0.91568625 0.38014704 0.09289216
0.94705886 0.36960784 0.09166667
0.9727942 0.35955882 0.087500006
0.9852941 0.3529412 0.08235294
0.98823524 0.34852943 0.08529412
0.9754902 0.34117648 0.08431373
0.9602941 0.33431372 0.08161765
0.9558823 0.33137256 0.07941177
0.039215688 0.40784314 0.07058824
0.03627451 0.4107843 0.064705886
0.021568628 0.4235294 0.039215688
0.00882353 0.43529412 0.011764707
0.011764706 0.43529412 0.0
0.05294118 0.43529412 0.0029411768
0.10980393 0.43529412 0.003921569
0.17058824 0.43529412 0.0029411768
0.22352941 0.43529412 0.0
0.2735294 0.43235293 0.0
0.32156864 0.43137252 0.0
0.36666667 0.43137252 0.0
0.40784314 0.43137252 0.0
0.454902 0.43137252 0.0
0.49803925 0.43137252 0.0
0.5411765 0.43137252 0.0
0.5882353 0.43137252 0.0
0.6264706 0.4343137 0.0058823535
0.6686275 0.43529412 0.015686274
0.7107843 0.43627453 0.028431373
0.7490196 0.4392157 0.043137256
0.79019606 0.4392157 0.06666667
0.8235294 0.4372549 0.08431373
0.8539216 0.43529412 0.09803922
0.8862745 0.43529412 0.10980392
0.91568625 0.42941177 0.11568628
0.94705886 0.41960782 0.11960785
0.97352946 0.40882352 0.120588236
0.9882353 0.4 0.11764707
0.9911765 0.4 0.120588236
0.97843134 0.39411765 0.11960785
0.9617647 0.3872549 0.11764707
0.9529412 0.3843137 0.11764707
0.04509804 0.44313726 0.07941177
0.042156864 0.44607842 0.06911765
0.023039216 0.4617647 0.039215688
0.005882353 0.4764706 0.010294118
0.00882353 0.4764706 0.0029411768
0.04117647 0.4742647 0.0014705883
0.09362746 0.475 0.0024509805
0.15441176 0.4764706 0.0029411768
0.21176471 0.4764706 0.0
0.26838237 0.4757353 0.0022058827
0.32009804 0.4740196 0.0029411768
0.36666667 0.47254902 0.0029411768
0.40784314 0.47254902 0.0029411768
0.4504902 0.47254902 0.0051470594
0.4906863 0.46960783 0.0044117654
0.532353 0.46740195 0.0029411768
0.5794118 0.46960783 0.0029411768
0.62205887 0.47254902 0.004411765
0.66127455 0.4735294 0.0068627447
0.70049024 0.47377452 0.012254903
0.7431373 0.4745098 0.02254902
0.779902 0.4745098 0.04387255
0.81323534 0.4754902 0.062254906
0.84656864 0.4772059 0.08039216
0.8833333 0.47941178 0.10098039
0.91053915 0.47132352 0.12009805
0.9411765 0.46372548 0.13284314
0.96838236 0.45735294 0.14117648
0.9852941 0.4529412 0.14705883
0.98823524 0.4507353 0.15220588
0.9769608 0.44411767 0.1504902
0.9610294 0.43651962 0.14632353
0.95 0.43137255 0.14411765
0.050980393 0.4764706 0.08627451
0.04509804 0.48088238 0.07450981
0.024509804 0.4990196 0.042156864
0.0058823535 0.5151961 0.011274511
0.0058823535 0.5137255 0.003921569
0.032352943 0.51225495 0.0024509805
0.07941177 0.51274514 0.0039215693
0.1382353 0.5137255 0.0049019614
0.19999999 0.5137255 0.0019607844
0.26029414 0.5151961 0.0063725486
0.3127451 0.51274514 0.0058823535
0.35882354 0.50980395 0.0034313728
0.4 0.50980395 0.0019607844
0.44117647 0.50980395 0.0049019614
0.48235294 0.5088235 0.0058823535
0.52500004 0.50735295 0.0049019614
0.57058823 0.5058824 0.0019607844
0.6147059 0.50735295 0.0034313728
0.6539216 0.50784314 0.0049019614
0.6926471 0.5083333 0.0068627456
0.7352941 0.50980395 0.009803922
0.77205884 0.5112745 0.024509806
0.8068628 0.51176476 0.040196083
0.8421569 0.51225495 0.06029412
0.8803922 0.5137255 0.0882353
0.9083333 0.50784314 0.11470589
0.94019604 0.5029412 0.13627452
0.96813726 0.49901962 0.15392157
0.98431367 0.49607846 0.16862746
0.98725486 0.49460787 0.17892158
0.9745098 0.4882353 0.17745098
0.9578431 0.48137257 0.17205882
0.9490196 0.4784314 0.17058824
0.055882353 0.5107843 0.08921569
0.047058824 0.5166667 0.07671569
0.025980392 0.53627455 0.043627452
0.0066176476 0.5536765 0.012009805
0.0029411768 0.5529412 0.003921569
0.024264708 0.5522059 0.003921569
0.065196075 0.552451 0.0049019614
0.12083333 0.552451 0.0053921575
0.1862745 0.55098045 0.003921569
0.24950981 0.552451 0.009068627
0.3034314 0.5495098 0.0068627456
0.35024512 0.54632354 0.0024509807
0.39215687 0.5470588 0.0009803922
0.43333334 0.5470588 0.003921569
0.4754902 0.54852945 0.0053921575
0.5186275 0.54803926 0.0044117654
0.5627451 0.5421569 0.0
0.6061275 0.5421569 0.0029411768
0.64607847 0.5416667 0.0049019614
0.68529415 0.5419118 0.0053921575
0.7264706 0.5441177 0.003921569
0.7647059 0.54779416 0.010539217
0.8014706 0.5470589 0.022058826
0.83799016 0.54509807 0.040686276
0.8754902 0.54509807 0.068627454
0.90563726 0.5421569 0.098039225
0.93921566 0.53970593 0.12794119
0.96838236 0.5372549 0.15637255
0.9852941 0.53431374 0.18137255
0.98823524 0.53357846 0.19975491
0.97303915 0.5284314 0.2009804
0.95490193 0.5235294 0.19607843
0.9490196 0.5235294 0.19607843
0.058823533 0.54901963 0.08627451
0.05 0.55490196 0.07156863
0.02745098 0.57450986 0.039215688
0.0058823535 0.59411764 0.009803922
0.0 0.6 0.003921569
0.014705883 0.59705883 0.003921569
0.049019612 0.59803927 0.0019607844
0.10098039 0.59803927 0.0009803922
0.16862746 0.5921569 0.003921569
0.23627453 0.5892157 0.0068627456
0.29607844 0.5862745 0.003921569
0.3480392 0.5852941 0.0009803922
0.39215687 0.5882353 0.003921569
0.43333334 0.5882353 0.0068627456
0.47254902 0.5882353 0.003921569
0.51274514 0.5862745 0.0
0.5568628 0.5803922 0.0
0.59803927 0.5803922 0.0029411768
0.63725495 0.57843137 0.0019607844
0.67647064 0.5764706 0.0009803922
0.7176471 0.5764706 0.003921569
0.7558823 0.582353 0.003921569
0.7941176 0.582353 0.011764707
0.83137256 0.5803922 0.024509804
0.8666667 0.5803922 0.039215688
0.8990196 0.577451 0.068627454
0.9333333 0.5764706 0.10588236
0.9647058 0.57549024 0.14607844
0.9882353 0.57254905 0.18431373
0.9911765 0.56960785 0.21372549
0.9745098 0.5666667 0.22156863
0.95490193 0.5647059 0.21960784
0.9490196 0.5647059 0.21960784
0.06176471 0.58137256 0.08921569
0.052941177 0.58725494 0.07892157
0.031862747 0.609804 0.04509804
0.010294119 0.63161767 0.012009805
0.0 0.63529414 0.003921569
0.012500001 0.63235295 0.003921569
0.038725488 0.6333334 0.0019607844
0.084803924 0.63406867 0.0017156864
0.15686275 0.6303922 0.0068627456
0.2245098 0.62524515 0.005392157
0.28431374 0.6245098 0.003921569
0.3362745 0.625 0.0024509807
0.38039216 0.62352943 0.0009803921
0.42377454 0.62352943 0.003921569
0.46666667 0.62352943 0.0024509805
0.5090686 0.62303925 0.0007352942
0.55098045 0.6215687 0.0029411768
0.5921569 0.6215687 0.0036764708
0.629902 0.61813724 0.0019607844
0.6669118 0.6154412 0.0009803922
0.7058823 0.61764705 0.003921569
0.7463235 0.6191177 0.003921569
0.78382355 0.6176471 0.005882353
0.8210785 0.6156863 0.011274511
0.8607843 0.6156863 0.021568628
0.8931373 0.6127451 0.03995098
0.93039215 0.61029416 0.07058824
0.9647058 0.60784316 0.110049024
0.9882353 0.60490197 0.15490197
0.9911765 0.6041667 0.19975491
0.9730392 0.6034314 0.2142157
0.9512255 0.6029412 0.21446079
0.9431373 0.6029412 0.21666665
0.068627454 0.6117647 0.09411765
0.059803925 0.6176471 0.08382353
0.03529412 0.6421569 0.04901961
0.010784315 0.66519606 0.014705883
0.0019607844 0.6666667 0.0058823535
0.010784314 0.66519606 0.0073529417
0.029411765 0.6656863 0.0049019614
0.06960785 0.6656863 0.0029411768
0.14313726 0.6627451 0.0058823535
0.21225491 0.659804 0.0073529407
0.27549022 0.659804 0.0068627456
0.32990196 0.6602942 0.0049019614
0.37254903 0.65882355 0.0019607844
0.41813725 0.65882355 0.0019607844
0.46078432 0.6578431 0.0009803922
0.50196075 0.65686274 0.0009803922
0.5431373 0.65686274 0.003921569
0.58431375 0.65686274 0.0053921575
0.62254906 0.654902 0.0049019614
0.6598039 0.6529412 0.0034313728
0.6980392 0.6529412 0.0019607844
0.7406863 0.6514706 0.0049019614
0.777451 0.65000004 0.003921569
0.8127451 0.6490196 0.0034313728
0.8509804 0.6490196 0.007843138
0.8892157 0.64460784 0.016666668
0.927451 0.6411765 0.04117647
0.9612745 0.63823533 0.07745098
0.9862745 0.63529414 0.121568635
0.9892157 0.63529414 0.17009804
0.9715686 0.63431376 0.19313726
0.95000005 0.6338235 0.20196079
0.94117653 0.63529414 0.20784312
0.07450981 0.6431373 0.1
0.06568628 0.64901966 0.08676471
0.037254903 0.67352945 0.050490197
0.009803922 0.6965686 0.015441177
0.003921569 0.69803923 0.0058823535
0.008333333 0.6973039 0.008088236
0.021078434 0.6970588 0.0063725496
0.056127455 0.6963235 0.003921569
0.12745099 0.69411767 0.003921569
0.19803922 0.69411767 0.008333333
0.26519608 0.6936275 0.007843138
0.32303923 0.6931373 0.0053921575
0.3656863 0.6931373 0.003921569
0.4112745 0.6931373 0.0024509805
0.452451 0.69166666 0.0009803922
0.49264705 0.6901961 0.0007352942
0.5352942 0.6901961 0.0029411768
0.5764706 0.6901961 0.0058823535
0.6161765 0.6897059 0.0068627456
0.6546569 0.68823534 0.0053921575
0.6921569 0.68529415 0.0009803922
0.7348039 0.68308824 0.0046568634
0.77156866 0.6818628 0.0029411768
0.80588233 0.6811275 0.0
0.8411765 0.68039215 0.0
0.88455886 0.6752451 0.0022058827
0.92254907 0.67156863 0.018627452
0.95490193 0.6683824 0.04656863
0.9813725 0.6647059 0.083333336
0.98725486 0.6639706 0.12745099
0.9710784 0.6622549 0.15882353
0.95049024 0.66151965 0.17892158
0.9431373 0.6637255 0.18921569
0.07450981 0.6784314 0.105882354
0.06568628 0.6843138 0.0882353
0.037254903 0.7058824 0.04901961
0.009803922 0.72745097 0.011764707
0.003921569 0.73333335 0.0
0.003921569 0.7303921 0.0
0.013725491 0.7294117 0.0019607844
0.04509804 0.7294117 0.003921569
0.10980392 0.7294117 0.003921569
0.18039216 0.7294117 0.003921569
0.24901962 0.72745097 0.0019607844
0.30980393 0.7254902 0.0009803922
0.35686278 0.7254902 0.003921569
0.39803922 0.7254902 0.0068627456
0.43921566 0.7254902 0.003921569
0.48235294 0.7254902 0.0
0.5294118 0.7254902 0.0
0.57058823 0.7254902 0.0029411768
0.6117647 0.72352946 0.003921569
0.6509804 0.72058827 0.003921569
0.6862745 0.7176471 0.003921569
0.72450984 0.7176471 0.0009803921
0.76274514 0.7156863 0.0
0.8 0.7127452 0.0
0.8352942 0.70980394 0.0
0.87647057 0.70686275 0.0
0.9137255 0.70392156 0.003921569
0.9460784 0.7 0.015686275
0.972549 0.69411767 0.039215688
0.9872549 0.6911765 0.07450981
0.972549 0.6901961 0.111764714
0.9519608 0.6901961 0.14215687
0.9490196 0.6901961 0.15686275
0.08039216 0.70490205 0.105882354
0.07156863 0.7107844 0.09485294
0.041666668 0.73382354 0.053431373
0.012745099 0.75759804 0.013235295
0.0068627456 0.7656863 0.0058823535
0.0068627456 0.764951 0.0058823535
0.010784314 0.7632353 0.0063725496
0.03627451 0.7617647 0.0061274515
0.10098039 0.7617647 0.003921569
0.17156862 0.7617647 0.003921569
0.24166667 0.7598039 0.0034313728
0.3017157 0.75784314 0.0031862748
0.3421569 0.75784314 0.003921569
0.389951 0.75784314 0.004656863
0.43186274 0.75784314 0.003921569
0.4742647 0.75784314 0.0029411768
0.5235294 0.75784314 0.0029411768
0.5625 0.75784314 0.0036764708
0.60147065 0.7558824 0.003921569
0.64068633 0.7529412 0.003921569
0.68039215 0.75 0.003921569
0.7208333 0.75 0.0053921575
0.75686276 0.7495098 0.0044117654
0.79264706 0.74730396 0.0029411768
0.832353 0.74215686 0.0029411768
0.8691176 0.7370098 0.0007352941
0.904902 0.7318628 0.0024509805
0.9379902 0.7272059 0.008333333
0.9666667 0.72352946 0.01862745
0.98137254 0.7205882 0.038480394
0.96960783 0.7210784 0.0632353
0.95049024 0.72181374 0.08406863
0.9431373 0.71960783 0.092156865
0.08235294 0.7274511 0.11372549
