src/assets/luts/人像配方/奶油像.cube
#Generated by PennL1 - 闲鱼号：LOOK胶片感 公众号：胶片感
TITLE 佳能直出
LUT_3D_SIZE 9
0.0627451 0.06666667 0.08627451
0.09411765 0.039215688 0.039215688
0.22745098 0.03529412 0.047058824
0.3843137 0.03529412 0.043137256
0.5058824 0.039215688 0.047058824
0.6431373 0.03137255 0.047058824
0.7607843 0.03529412 0.058823533
0.8666667 0.039215688 0.0627451
0.86274505 0.039215688 0.07450981
0.03529412 0.105882354 0.050980393
0.08627451 0.09411765 0.007843138
0.25882354 0.09803922 0.019607844
0.41960785 0.078431375 0.011764706
0.5882353 0.050980393 0.011764706
0.73333335 0.03137255 0.011764706
0.8666667 0.011764706 0.015686275
0.98431367 0.0 0.019607844
0.94117653 0.003921569 0.015686275
0.043137256 0.25490198 0.058823533
0.06666667 0.26666668 0.003921569
0.25490198 0.2627451 0.007843138
0.42745098 0.26666668 0.007843138
0.6039216 0.27058825 0.019607844
0.7490196 0.2509804 0.03529412
0.8784314 0.22352941 0.02745098
0.98431367 0.18039216 0.023529412
0.94509804 0.15686275 0.019607844
0.039215688 0.40784314 0.07058824
0.011764706 0.43529412 0.0
0.22352941 0.43529412 0.0
0.40784314 0.43137252 0.0
0.5882353 0.43137252 0.0
0.7490196 0.4392157 0.043137256
0.8862745 0.43529412 0.10980392
0.9882353 0.4 0.11764707
0.9529412 0.3843137 0.11764707
0.058823533 0.54901963 0.08627451
0.0 0.6 0.003921569
0.16862746 0.5921569 0.003921569
0.39215687 0.5882353 0.003921569
0.5568628 0.5803922 0.0
0.7176471 0.5764706 0.003921569
0.8666667 0.5803922 0.039215688
0.9882353 0.57254905 0.18431373
0.9490196 0.5647059 0.21960784
0.07450981 0.6784314 0.105882354
0.003921569 0.73333335 0.0
0.10980392 0.7294117 0.003921569
0.35686278 0.7254902 0.003921569
0.5294118 0.7254902 0.0
0.6862745 0.7176471 0.003921569
0.8352942 0.70980394 0.0
0.972549 0.69411767 0.039215688
0.9490196 0.6901961 0.15686275
0.09019608 0.7803922 0.14117648
0.0 0.84705883 0.03529412
0.08627451 0.84705883 0.023529412
0.32941177 0.8352942 0.023529412
0.5058824 0.8352942 0.011764706
0.6627451 0.84313726 0.007843138
0.8078432 0.83137256 0.007843138
0.9529412 0.8156863 0.015686275
0.94509804 0.8078432 0.007843138
0.105882354 0.8784314 0.23137255
0.003921569 0.9529412 0.13333334
0.08627451 0.9568627 0.13333334
0.3254902 0.9529412 0.12941177
0.48235294 0.9529412 0.1254902
0.62352943 0.9490196 0.101960786
0.7647059 0.94509804 0.039215688
0.917647 0.93333334 0.007843138
0.9372549 0.9294118 0.007843138
0.10980392 0.90588236 0.2509804
0.011764705 0.9647059 0.16470589
0.11372549 0.9647059 0.16862746
0.3137255 0.9647059 0.16470589
0.4627451 0.9607843 0.16470589
0.6039216 0.9647059 0.16078432
0.74509805 0.9647059 0.14509805
0.89411765 0.9647059 0.078431375
0.92156863 0.9607843 0.03529412
0.09019608 0.043137256 0.09803922
0.09803922 0.039215688 0.11372549
0.23137255 0.03529412 0.13333334
0.36470586 0.03529412 0.13725491
0.5058824 0.03529412 0.14117648
0.64705884 0.03137255 0.13725491
0.7686274 0.03529412 0.14901961
0.8666667 0.03529412 0.15294118
0.89411765 0.03529412 0.15294118
0.07058824 0.08627451 0.09803922
0.09411765 0.09019608 0.10980392
0.2509804 0.09019608 0.11372549
0.41176468 0.06666667 0.11372549
0.5803922 0.043137256 0.105882354
0.7372549 0.019607844 0.105882354
0.86274505 0.003921569 0.105882354
0.972549 0.003921569 0.105882354
0.9882353 0.0 0.08235294
0.07058824 0.24705882 0.09411765
0.07450981 0.2627451 0.105882354
0.25490198 0.2627451 0.105882354
0.42352942 0.27058825 0.10980392
0.6 0.2627451 0.1254902
0.7529412 0.23921567 0.12156863
0.8784314 0.20784314 0.11372549
0.98039216 0.1764706 0.12156863
0.98431367 0.1254902 0.101960786
0.058823533 0.41960785 0.08627451
0.019607844 0.43137252 0.08235294
0.21960784 0.43529412 0.078431375
0.4039216 0.43137252 0.058823533
0.5882353 0.43137252 0.058823533
0.75686276 0.43529412 0.14509805
0.8862745 0.42745098 0.18431373
0.98431367 0.4039216 0.18431373
0.98039216 0.34901962 0.15686275
0.047058824 0.5803922 0.078431375
0.003921569 0.5921569 0.06666667
0.16078432 0.5921569 0.0627451
0.36862746 0.5921569 0.05490196
0.5529412 0.58431375 0.023529412
0.7176471 0.57254905 0.023529412
0.87058824 0.5764706 0.11764707
0.98431367 0.57254905 0.24705882
0.98431367 0.5372549 0.25882354
0.039215688 0.7254902 0.09411765
0.003921569 0.7294117 0.09019608
0.105882354 0.7294117 0.09019608
0.34117648 0.7254902 0.09019608
0.52156866 0.72156864 0.05490196
0.69411767 0.71372557 0.007843138
0.84313726 0.70196074 0.007843138
0.9686275 0.69803923 0.10980392
0.9882353 0.6745098 0.23137255
0.043137256 0.8352942 0.12941177
0.007843138 0.84313726 0.14509805
0.08627451 0.84705883 0.14901961
0.32156864 0.84313726 0.14117648
0.49803925 0.84313726 0.1254902
0.6627451 0.8352942 0.06666667
0.8078432 0.827451 0.023529412
0.94117653 0.8156863 0.015686275
0.98431367 0.7921569 0.047058824
0.039215688 0.94509804 0.1764706
0.007843138 0.9529412 0.19607843
0.101960786 0.9529412 0.2
0.30980393 0.9529412 0.19607843
0.47843134 0.9490196 0.1882353
0.6392157 0.94509804 0.17254902
0.77254903 0.94117653 0.11764707
0.9098039 0.9372549 0.058823533
0.9686275 0.9137255 0.03137255
0.043137256 0.9607843 0.1882353
0.0 0.9647059 0.21176471
0.11764707 0.9607843 0.20784314
0.30980393 0.9647059 0.21176471
0.4745098 0.9647059 0.21176471
0.627451 0.9607843 0.20784314
0.75686276 0.9647059 0.19607843
0.8862745 0.9607843 0.16078432
0.9686275 0.9529412 0.09411765
0.19607843 0.03137255 0.21176471
0.09411765 0.03529412 0.25882354
0.23529413 0.03137255 0.27450982
0.37254903 0.03529412 0.28235295
0.5254902 0.043137256 0.2901961
0.6431373 0.043137256 0.29411766
0.7647059 0.039215688 0.28627452
0.87058824 0.039215688 0.2784314
0.88235295 0.058823533 0.29803923
0.2 0.07450981 0.22745098
0.078431375 0.09411765 0.28235295
0.25882354 0.08627451 0.29411766
0.42352942 0.08235294 0.28627452
0.5764706 0.050980393 0.28235295
0.71372557 0.011764706 0.27058825
0.85490197 0.0 0.25882354
0.972549 0.0 0.2509804
0.9607843 0.023529412 0.25490198
0.19215685 0.20392157 0.23137255
0.050980393 0.26666668 0.28627452
0.25882354 0.25882354 0.2901961
0.42352942 0.25490198 0.28235295
0.57254905 0.23529413 0.28627452
0.72156864 0.20392157 0.27058825
0.86274505 0.1764706 0.25882354
0.972549 0.13725491 0.25490198
0.9686275 0.12941177 0.2627451
0.18039216 0.36470586 0.22352941
0.015686275 0.43137252 0.2901961
0.22352941 0.42745098 0.2784314
0.41568628 0.42352942 0.27058825
0.5803922 0.43137252 0.2784314
0.73333335 0.43529412 0.3137255
0.8745099 0.41176468 0.30980393
0.98039216 0.3843137 0.29411766
0.972549 0.3764706 0.29411766
0.1882353 0.5294118 0.23529413
0.0 0.5921569 0.28235295
0.16470589 0.5921569 0.28235295
0.3764706 0.58431375 0.27058825
0.5529412 0.58431375 0.24705882
0.71372557 0.5764706 0.25490198
0.87058824 0.5803922 0.33333334
0.9764706 0.5764706 0.38039216
0.98039216 0.5647059 0.39607844
0.19215685 0.67058825 0.23529413
0.007843138 0.7294117 0.3019608
0.12156863 0.72156864 0.29411766
0.3529412 0.72156864 0.2901961
0.5254902 0.72156864 0.2784314
0.6784314 0.71372557 0.24705882
0.84313726 0.70196074 0.23137255
0.972549 0.70196074 0.3254902
0.972549 0.70196074 0.39607844
0.18431373 0.7921569 0.24313726
0.003921569 0.84313726 0.3254902
0.11372549 0.84313726 0.32156864
0.3372549 0.8352942 0.3137255
0.49803925 0.8352942 0.3137255
0.654902 0.8392157 0.28627452
0.8039216 0.827451 0.23529413
0.9490196 0.8117647 0.20784314
0.9686275 0.8039216 0.2627451
0.1764706 0.90588236 0.2627451
0.007843138 0.9529412 0.3372549
0.14509805 0.9490196 0.34117648
0.32941177 0.9490196 0.33333334
0.49019608 0.9490196 0.32941177
0.6313726 0.94509804 0.32941177
0.77254903 0.94117653 0.29411766
0.9137255 0.9294118 0.24705882
0.9607843 0.9137255 0.23921567
0.17254902 0.9254902 0.26666668
0.003921569 0.9607843 0.34117648
0.15686275 0.9607843 0.34117648
0.32941177 0.9647059 0.33333334
0.47058827 0.9647059 0.3372549
0.6117647 0.9647059 0.34509805
0.7490196 0.9647059 0.32156864
0.8862745 0.9607843 0.29803923
0.9490196 0.94509804 0.28627452
0.058823533 0.047058824 0.4039216
0.023529412 0.039215688 0.43137252
0.20392157 0.039215688 0.4392157
0.3882353 0.03137255 0.44313726
0.5647059 0.03529412 0.44705883
0.7176471 0.03137255 0.43529412
0.8392157 0.03137255 0.42352942
0.9568627 0.03137255 0.39215687
0.98039216 0.03137255 0.36078432
0.058823533 0.078431375 0.4392157
0.019607844 0.09019608 0.48235294
0.22352941 0.08627451 0.4862745
0.40784314 0.07450981 0.48235294
0.5921569 0.058823533 0.48235294
0.7372549 0.047058824 0.46666667
0.8509804 0.015686275 0.45098042
0.9647059 0.0 0.42352942
0.98039216 0.0 0.3843137
0.05490196 0.23921567 0.4588235
0.015686275 0.25882354 0.49803925
0.21176471 0.25490198 0.49803925
0.40784314 0.2509804 0.49411765
0.58431375 0.2509804 0.48235294
0.73333335 0.23137255 0.47058827
0.8509804 0.19215685 0.45490196
0.9607843 0.12941177 0.42352942
0.98039216 0.06666667 0.3764706
0.03137255 0.40784314 0.4627451
0.003921569 0.42352942 0.49411765
0.18039216 0.42745098 0.4862745
0.39215687 0.41960785 0.49019608
0.5764706 0.40784314 0.4745098
0.71372557 0.3843137 0.46666667
0.8352942 0.36862746 0.44705883
0.9607843 0.34509805 0.43137252
0.9764706 0.3019608 0.39607844
0.019607844 0.5686275 0.45490196
0.003921569 0.58431375 0.48235294
0.11764707 0.5882353 0.48235294
0.36470586 0.58431375 0.47058827
0.5529412 0.5803922 0.4588235
0.7176471 0.5803922 0.47843134
0.84705883 0.5882353 0.52156866
0.9607843 0.5764706 0.50980395
0.972549 0.5294118 0.4745098
0.019607844 0.70196074 0.45490196
0.003921569 0.7176471 0.47843134
0.10980392 0.72156864 0.4745098
0.34509805 0.7176471 0.4745098
0.52156866 0.7176471 0.47058827
0.6784314 0.71372557 0.44705883
0.827451 0.7058824 0.43529412
0.9568627 0.71372557 0.5137255
0.98039216 0.70196074 0.5372549
0.03137255 0.81960785 0.4588235
0.003921569 0.8392157 0.4862745
0.13333334 0.8392157 0.49019608
0.33333334 0.8352942 0.4862745
0.5058824 0.83137256 0.48235294
0.654902 0.8392157 0.47843134
0.7960784 0.83137256 0.43529412
0.93333334 0.81960785 0.41176468
0.9764706 0.8 0.43529412
0.047058824 0.9254902 0.4745098
0.015686275 0.94509804 0.49019608
0.1882353 0.94509804 0.49411765
0.34901962 0.94117653 0.49019608
0.5137255 0.9372549 0.49803925
0.64705884 0.9372549 0.49411765
0.7764706 0.9372549 0.46666667
0.9098039 0.93333334 0.43137252
0.9764706 0.9137255 0.3843137
0.0627451 0.9568627 0.41176468
0.0627451 0.9764706 0.42352942
0.19607843 0.972549 0.42745098
0.3019608 0.972549 0.42352942
0.43529412 0.9647059 0.42352942
0.58431375 0.9686275 0.43137252
0.70980394 0.9686275 0.41568628
0.84313726 0.9686275 0.39607844
0.9372549 0.9568627 0.34901962
0.16078432 0.039215688 0.58431375
0.007843138 0.03529412 0.627451
0.16470589 0.03137255 0.6431373
0.36470586 0.03137255 0.6392157
0.5411765 0.03529412 0.6431373
0.70980394 0.023529412 0.6313726
0.86274505 0.02745098 0.60784316
0.972549 0.023529412 0.5882353
0.9607843 0.03529412 0.57254905
0.16470589 0.07450981 0.6313726
0.003921569 0.078431375 0.68235296
0.16078432 0.07058824 0.67058825
0.37254903 0.058823533 0.6745098
0.54901963 0.047058824 0.68235296
0.71372557 0.047058824 0.6627451
0.8666667 0.050980393 0.64705884
0.9764706 0.047058824 0.62352943
0.9647059 0.03529412 0.59607846
0.16078432 0.21568626 0.63529414
0.003921569 0.25490198 0.6862745
0.16078432 0.24705882 0.6862745
0.3764706 0.24313726 0.6862745
0.5529412 0.23921567 0.68235296
0.72156864 0.23529413 0.6666667
0.8666667 0.23921567 0.654902
0.972549 0.22352941 0.61960787
0.9764706 0.19607843 0.6117647
0.15294118 0.35686278 0.6117647
0.003921569 0.41568628 0.6784314
0.13725491 0.41176468 0.6784314
0.36078432 0.41568628 0.6784314
0.53333336 0.41176468 0.6745098
0.7058824 0.40784314 0.67058825
0.84313726 0.4 0.6392157
0.9568627 0.35686278 0.6117647
0.9764706 0.33333334 0.6
0.14509805 0.53333336 0.60784316
0.003921569 0.5764706 0.6666667
0.08627451 0.5764706 0.654902
0.3372549 0.5764706 0.65882355
0.5137255 0.5764706 0.6666667
0.6745098 0.5647059 0.64705884
0.8078432 0.5372549 0.61960787
0.94509804 0.5137255 0.6039216
0.9686275 0.5019608 0.5882353
0.14509805 0.6862745 0.61960787
0.003921569 0.7176471 0.65882355
0.101960786 0.7176471 0.6509804
0.3372549 0.71372557 0.65882355
0.5058824 0.7176471 0.6431373
0.6666667 0.70980394 0.6313726
0.8156863 0.70980394 0.6509804
0.9372549 0.7176471 0.68235296
0.9686275 0.71372557 0.6784314
0.14901961 0.8039216 0.6
0.003921569 0.8352942 0.6392157
0.14117648 0.83137256 0.6392157
0.34509805 0.827451 0.6431373
0.5058824 0.83137256 0.6509804
0.6431373 0.82352936 0.6392157
0.7921569 0.81960785 0.6156863
0.93333334 0.8156863 0.6117647
0.9647059 0.81960785 0.6313726
0.17254902 0.9098039 0.5764706
0.06666667 0.9372549 0.63529414
0.23921567 0.9372549 0.64705884
0.36862746 0.9372549 0.6431373
0.5137255 0.93333334 0.6509804
0.64705884 0.9294118 0.6431373
0.7882353 0.9294118 0.6313726
0.9137255 0.9254902 0.60784316
0.9529412 0.92156863 0.59607846
0.24313726 0.94117653 0.5176471
0.15294118 0.972549 0.5647059
0.24313726 0.9686275 0.5686275
0.34117648 0.9647059 0.5686275
0.44705883 0.9607843 0.5686275
0.5882353 0.9647059 0.5686275
0.7294117 0.9686275 0.5568628
0.85882354 0.9647059 0.5529412
0.89411765 0.9568627 0.5411765
0.02745098 0.10980392 0.6627451
0.0 0.101960786 0.7686274
0.09803922 0.101960786 0.7607843
0.32156864 0.09803922 0.7529412
0.4745098 0.09411765 0.7490196
0.64705884 0.09411765 0.7490196
0.8039216 0.09411765 0.7490196
0.94117653 0.09411765 0.7254902
0.9137255 0.09803922 0.7176471
0.03137255 0.11372549 0.71372557
0.011764706 0.09411765 0.827451
0.08627451 0.09019608 0.81960785
0.3372549 0.078431375 0.8156863
0.5176471 0.06666667 0.8156863
0.6862745 0.050980393 0.8156863
0.83137256 0.050980393 0.8078432
0.9686275 0.06666667 0.7882353
0.94117653 0.09019608 0.78431374
0.02745098 0.25882354 0.7294117
0.0 0.25490198 0.81960785
0.09019608 0.25490198 0.81960785
0.34117648 0.25490198 0.8156863
0.5176471 0.2509804 0.81960785
0.6862745 0.24705882 0.81960785
0.827451 0.24313726 0.8078432
0.972549 0.24705882 0.7882353
0.94509804 0.25882354 0.77254903
0.039215688 0.39607844 0.7529412
0.003921569 0.40784314 0.81960785
0.11764707 0.40784314 0.81960785
0.3529412 0.4039216 0.8117647
0.52156866 0.41176468 0.8156863
0.6745098 0.40784314 0.8117647
0.82352936 0.40784314 0.8039216
0.9686275 0.4039216 0.7803922
0.9490196 0.39607844 0.7764706
0.047058824 0.5294118 0.7607843
0.0 0.5568628 0.8078432
0.11372549 0.5568628 0.8156863
0.35686278 0.5568628 0.8039216
0.5176471 0.56078434 0.8
0.67058825 0.56078434 0.8
0.8117647 0.56078434 0.8
0.94117653 0.54509807 0.77254903
0.9372549 0.50980395 0.7647059
0.07058824 0.6784314 0.7647059
0.003921569 0.70980394 0.8
0.08235294 0.70196074 0.8
0.33333334 0.70196074 0.8
0.5058824 0.70196074 0.7921569
0.65882355 0.7058824 0.7960784
0.78431374 0.6901961 0.7764706
0.917647 0.67058825 0.7529412
0.9372549 0.64705884 0.74509805
0.078431375 0.7882353 0.7686274
0.0 0.84313726 0.7803922
0.08235294 0.8352942 0.7764706
0.32941177 0.83137256 0.77254903
0.5058824 0.827451 0.7803922
0.64705884 0.827451 0.7764706
0.7764706 0.82352936 0.7686274
0.917647 0.83137256 0.7764706
0.94509804 0.83137256 0.7960784
0.105882354 0.8862745 0.77254903
0.043137256 0.94509804 0.7647059
0.20784314 0.94117653 0.77254903
0.3843137 0.9372549 0.7686274
0.52156866 0.93333334 0.77254903
0.654902 0.93333334 0.7764706
0.7803922 0.9294118 0.7686274
0.90588236 0.9294118 0.7490196
0.93333334 0.92156863 0.74509805
0.2 0.917647 0.7372549
0.20392157 0.972549 0.7294117
0.29803923 0.972549 0.7372549
0.40784314 0.972549 0.73333335
0.5254902 0.98039216 0.74117655
0.6313726 0.9764706 0.7490196
0.7607843 0.972549 0.74509805
0.890196 0.9686275 0.73333335
0.9294118 0.9647059 0.7176471
0.08627451 0.105882354 0.8509804
0.0 0.105882354 0.85490197
0.09019608 0.10980392 0.85490197
0.29411766 0.11764707 0.85882354
0.44705883 0.11372549 0.85490197
0.62352943 0.10980392 0.8509804
0.77254903 0.101960786 0.8509804
0.9098039 0.101960786 0.84313726
0.94117653 0.09803922 0.8078432
0.09019608 0.09803922 0.9098039
0.003921569 0.09803922 0.92156863
0.07450981 0.105882354 0.92156863
0.3019608 0.10980392 0.917647
0.48235294 0.11764707 0.92156863
0.65882355 0.101960786 0.917647
0.8039216 0.08235294 0.9098039
0.94509804 0.06666667 0.9098039
0.9764706 0.06666667 0.8745099
0.08235294 0.24705882 0.8980392
0.007843138 0.2509804 0.92156863
0.09411765 0.25490198 0.92156863
0.3137255 0.2627451 0.92156863
0.49019608 0.26666668 0.92156863
0.654902 0.25882354 0.9098039
0.8078432 0.2509804 0.9137255
0.94509804 0.2509804 0.9137255
0.9764706 0.22352941 0.89411765
0.08235294 0.39215687 0.8980392
0.003921569 0.4 0.9254902
0.14901961 0.4 0.917647
0.34117648 0.40784314 0.917647
0.50980395 0.41176468 0.9137255
0.6666667 0.41176468 0.9137255
0.8 0.4039216 0.9098039
0.94509804 0.4 0.90588236
0.98039216 0.3764706 0.8980392
0.08235294 0.5294118 0.890196
0.019607844 0.5411765 0.90588236
0.19215685 0.54901963 0.9137255
0.36078432 0.5529412 0.9137255
0.5137255 0.54901963 0.90588236
0.6666667 0.54901963 0.90196085
0.8039216 0.54901963 0.90588236
0.9372549 0.5411765 0.90196085
0.98431367 0.52156866 0.890196
0.08235294 0.6745098 0.88235295
0.019607844 0.68235296 0.8980392
0.18039216 0.6901961 0.89411765
0.35686278 0.6901961 0.90196085
0.50980395 0.69411767 0.8980392
0.654902 0.69411767 0.89411765
0.7882353 0.69411767 0.890196
0.917647 0.6901961 0.890196
0.9764706 0.67058825 0.8745099
0.08235294 0.8156863 0.8745099
0.011764706 0.8156863 0.88235295
0.15686275 0.81960785 0.89411765
0.34509805 0.81960785 0.8862745
0.5019608 0.81960785 0.8862745
0.6509804 0.8156863 0.8784314
0.7803922 0.8156863 0.8784314
0.90196085 0.8078432 0.87058824
0.9647059 0.7882353 0.8666667
0.101960786 0.9294118 0.86274505
0.043137256 0.9372549 0.87058824
0.20784314 0.9372549 0.8862745
0.36862746 0.9372549 0.8784314
0.5176471 0.9372549 0.8745099
0.6627451 0.9254902 0.87058824
0.7921569 0.9254902 0.87058824
0.90196085 0.9254902 0.8745099
0.9647059 0.917647 0.86274505
0.19215685 0.972549 0.8509804
0.17254902 0.9882353 0.86274505
0.27450982 0.98039216 0.8666667
0.3882353 0.98039216 0.85882354
0.52156866 0.98039216 0.8666667
0.654902 0.98039216 0.85882354
0.78431374 0.9764706 0.86274505
0.890196 0.9686275 0.85882354
0.93333334 0.9607843 0.8392157
0.13725491 0.14509805 0.82352936
0.007843138 0.15686275 0.88235295
0.1254902 0.16470589 0.88235295
0.3019608 0.16078432 0.88235295
0.42745098 0.18039216 0.8745099
0.5686275 0.18039216 0.8784314
0.7254902 0.18431373 0.8784314
0.87058824 0.1764706 0.8784314
0.8980392 0.18431373 0.86274505
0.13333334 0.10980392 0.9098039
0.007843138 0.1254902 0.9960785
0.11372549 0.1254902 0.98431367
0.32941177 0.12941177 0.9882353
0.4745098 0.14117648 0.98431367
0.62352943 0.14901961 0.99215686
0.77254903 0.14901961 0.9882353
0.92156863 0.13333334 0.98039216
0.9568627 0.14117648 0.9647059
0.13333334 0.22352941 0.9137255
0.007843138 0.25882354 0.98431367
0.15294118 0.2627451 0.9882353
0.34117648 0.2627451 0.9882353
0.4862745 0.26666668 0.9882353
0.6313726 0.28235295 0.9882353
0.7686274 0.27450982 0.98431367
0.917647 0.27058825 0.98431367
0.9568627 0.27058825 0.9686275
0.13333334 0.34901962 0.9137255
0.047058824 0.4 0.98431367
0.21568626 0.4 0.9882353
0.36862746 0.39607844 0.98431367
0.5058824 0.40784314 0.98039216
0.6431373 0.41568628 0.9882353
0.7803922 0.41176468 0.98431367
0.917647 0.41176468 0.9764706
0.9607843 0.40784314 0.972549
0.20392157 0.49019608 0.9137255
0.14509805 0.5372549 0.98431367
0.26666668 0.5411765 0.98039216
0.39607844 0.54509807 0.98039216
0.52156866 0.5529412 0.9882353
0.654902 0.5529412 0.98039216
0.7803922 0.5529412 0.98039216
0.92156863 0.54509807 0.9764706
0.9529412 0.54509807 0.9686275
0.25882354 0.62352943 0.9137255
0.19607843 0.6784314 0.98039216
0.29411766 0.6745098 0.9764706
0.41568628 0.6745098 0.972549
0.5372549 0.6862745 0.972549
0.6627451 0.6862745 0.9764706
0.7921569 0.6901961 0.9764706
0.9098039 0.68235296 0.972549
0.9607843 0.6784314 0.9647059
0.27450982 0.75686276 0.9137255
0.21960784 0.8039216 0.972549
0.30588236 0.8039216 0.972549
0.42352942 0.8039216 0.9686275
0.5411765 0.8039216 0.9686275
0.6627451 0.8117647 0.9607843
0.78431374 0.8117647 0.9607843
0.90588236 0.8117647 0.9607843
0.9490196 0.8078432 0.9490196
0.30980393 0.8745099 0.9098039
0.23529413 0.9294118 0.9607843
0.3254902 0.92156863 0.9647059
0.43529412 0.92156863 0.9607843
0.5568628 0.9254902 0.9647059
0.6784314 0.9294118 0.9647059
0.7960784 0.9254902 0.9568627
0.917647 0.92156863 0.9568627
0.94509804 0.917647 0.94509804
0.32941177 0.93333334 0.9098039
0.27058825 0.98039216 0.9490196
0.33333334 0.98039216 0.9568627
0.43137252 0.9764706 0.9490196
0.5411765 0.9764706 0.9529412
0.6666667 0.9764706 0.9529412
0.7960784 0.972549 0.9529412
0.9098039 0.9686275 0.9529412
0.9294118 0.9529412 0.9372549
0.03529412 0.1882353 0.8352942
0.011764706 0.19607843 0.84705883
0.12156863 0.19607843 0.84313726
0.2627451 0.19607843 0.8392157
0.39215687 0.20392157 0.8392157
0.5137255 0.21176471 0.83137256
0.6627451 0.21960784 0.8352942
0.8039216 0.23137255 0.84313726
0.88235295 0.23529413 0.81960785
0.03137255 0.10980392 0.9764706
0.003921569 0.12156863 0.99215686
0.15686275 0.1254902 0.99215686
0.33333334 0.13725491 0.9960785
0.47843134 0.14509805 0.9882353
0.627451 0.15686275 0.9882353
0.7607843 0.16078432 1.0
0.90196085 0.17254902 0.9882353
0.98039216 0.16862746 0.98431367
0.03137255 0.24313726 0.98039216
0.023529412 0.25882354 0.9882353
0.1882353 0.26666668 0.99215686
0.34117648 0.2627451 0.99215686
0.48235294 0.2627451 0.9960785
0.62352943 0.2784314 0.99215686
0.75686276 0.28235295 0.99215686
0.89411765 0.28627452 0.9882353
0.972549 0.27450982 0.9882353
0.09803922 0.3764706 0.98039216
0.12941177 0.39215687 0.98431367
0.23921567 0.4 0.9882353
0.36862746 0.39607844 0.9882353
0.5019608 0.4 0.98431367
0.63529414 0.4039216 0.99215686
0.7647059 0.41176468 0.9960785
0.89411765 0.41568628 0.98431367
0.972549 0.40784314 0.99215686
0.20392157 0.5137255 0.9764706
0.22745098 0.53333336 0.9882353
0.3019608 0.53333336 0.9882353
0.41176468 0.53333336 0.9882353
0.53333336 0.5294118 0.9882353
0.654902 0.5411765 0.9960785
0.7764706 0.54901963 0.99215686
0.89411765 0.5568628 0.99215686
0.9647059 0.5411765 0.98039216
0.2509804 0.6392157 0.98431367
0.27058825 0.65882355 0.99215686
0.34117648 0.6627451 0.99215686
0.44313726 0.6745098 0.9882353
0.56078434 0.6745098 0.9882353
0.67058825 0.68235296 0.99215686
0.7882353 0.68235296 0.99215686
0.89411765 0.68235296 0.9882353
0.9568627 0.67058825 0.98431367
0.28627452 0.77254903 0.9764706
0.29803923 0.7921569 0.99215686
0.36078432 0.7921569 0.99215686
0.4588235 0.7960784 0.99215686
0.57254905 0.7960784 0.9882353
0.6862745 0.8078432 0.99215686
0.7960784 0.8078432 0.9882353
0.90196085 0.8117647 0.99215686
0.9490196 0.8039216 0.9764706
0.29803923 0.90588236 0.972549
0.3137255 0.92156863 0.99215686
0.37254903 0.92156863 0.9882353
0.46666667 0.92156863 0.9882353
0.58431375 0.9254902 0.99215686
0.69411767 0.9254902 0.98039216
0.8117647 0.9254902 0.9882353
0.917647 0.93333334 0.98431367
0.9490196 0.9254902 0.98039216
0.3372549 0.9568627 0.9686275
0.35686278 0.9686275 0.98039216
0.40784314 0.9686275 0.9764706
0.49803925 0.9686275 0.972549
0.6039216 0.972549 0.98039216
0.7254902 0.9647059 0.9764706
0.827451 0.9647059 0.972549
0.9254902 0.9647059 0.972549
0.93333334 0.9529412 0.9647059
