src/assets/luts/人像配方/奶油像.cube
#Generated by PennL1 - 闲鱼号：LOOK胶片感 公众号：胶片感
TITLE 佳能直出
LUT_3D_SIZE 5
0.0627451 0.06666667 0.08627451
0.22745098 0.03529412 0.047058824
0.5058824 0.039215688 0.047058824
0.7607843 0.03529412 0.058823533
0.86274505 0.039215688 0.07450981
0.043137256 0.25490198 0.058823533
0.25490198 0.2627451 0.007843138
0.6039216 0.27058825 0.019607844
0.8784314 0.22352941 0.02745098
0.94509804 0.15686275 0.019607844
0.058823533 0.54901963 0.08627451
0.16862746 0.5921569 0.003921569
0.5568628 0.5803922 0.0
0.8666667 0.5803922 0.039215688
0.9490196 0.5647059 0.21960784
0.09019608 0.7803922 0.14117648
0.08627451 0.84705883 0.023529412
0.5058824 0.8352942 0.011764706
0.8078432 0.83137256 0.007843138
0.94509804 0.8078432 0.007843138
0.10980392 0.90588236 0.2509804
0.11372549 0.9647059 0.16862746
0.4627451 0.9607843 0.16470589
0.74509805 0.9647059 0.14509805
0.92156863 0.9607843 0.03529412
0.19607843 0.03137255 0.21176471
0.23529413 0.03137255 0.27450982
0.5254902 0.043137256 0.2901961
0.7647059 0.039215688 0.28627452
0.88235295 0.058823533 0.29803923
0.19215685 0.20392157 0.23137255
0.25882354 0.25882354 0.2901961
0.57254905 0.23529413 0.28627452
0.86274505 0.1764706 0.25882354
0.9686275 0.12941177 0.2627451
0.1882353 0.5294118 0.23529413
0.16470589 0.5921569 0.28235295
0.5529412 0.58431375 0.24705882
0.87058824 0.5803922 0.33333334
0.98039216 0.5647059 0.39607844
0.18431373 0.7921569 0.24313726
0.11372549 0.84313726 0.32156864
0.49803925 0.8352942 0.3137255
0.8039216 0.827451 0.23529413
0.9686275 0.8039216 0.2627451
0.17254902 0.9254902 0.26666668
0.15686275 0.9607843 0.34117648
0.47058827 0.9647059 0.3372549
0.7490196 0.9647059 0.32156864
0.9490196 0.94509804 0.28627452
0.16078432 0.039215688 0.58431375
0.16470589 0.03137255 0.6431373
0.5411765 0.03529412 0.6431373
0.86274505 0.02745098 0.60784316
0.9607843 0.03529412 0.57254905
0.16078432 0.21568626 0.63529414
0.16078432 0.24705882 0.6862745
0.5529412 0.23921567 0.68235296
0.8666667 0.23921567 0.654902
0.9764706 0.19607843 0.6117647
0.14509805 0.53333336 0.60784316
0.08627451 0.5764706 0.654902
0.5137255 0.5764706 0.6666667
0.8078432 0.5372549 0.61960787
0.9686275 0.5019608 0.5882353
0.14901961 0.8039216 0.6
0.14117648 0.83137256 0.6392157
0.5058824 0.83137256 0.6509804
0.7921569 0.81960785 0.6156863
0.9647059 0.81960785 0.6313726
0.24313726 0.94117653 0.5176471
0.24313726 0.9686275 0.5686275
0.44705883 0.9607843 0.5686275
0.7294117 0.9686275 0.5568628
0.89411765 0.9568627 0.5411765
0.08627451 0.105882354 0.8509804
0.09019608 0.10980392 0.85490197
0.44705883 0.11372549 0.85490197
0.77254903 0.101960786 0.8509804
0.94117653 0.09803922 0.8078432
0.08235294 0.24705882 0.8980392
0.09411765 0.25490198 0.92156863
0.49019608 0.26666668 0.92156863
0.8078432 0.2509804 0.9137255
0.9764706 0.22352941 0.89411765
0.08235294 0.5294118 0.890196
0.19215685 0.54901963 0.9137255
0.5137255 0.54901963 0.90588236
0.8039216 0.54901963 0.90588236
0.98431367 0.52156866 0.890196
0.08235294 0.8156863 0.8745099
0.15686275 0.81960785 0.89411765
0.5019608 0.81960785 0.8862745
0.7803922 0.8156863 0.8784314
0.9647059 0.7882353 0.8666667
0.19215685 0.972549 0.8509804
0.27450982 0.98039216 0.8666667
0.52156866 0.98039216 0.8666667
0.78431374 0.9764706 0.86274505
0.93333334 0.9607843 0.8392157
0.03529412 0.1882353 0.8352942
0.12156863 0.19607843 0.84313726
0.39215687 0.20392157 0.8392157
0.6627451 0.21960784 0.8352942
0.88235295 0.23529413 0.81960785
0.03137255 0.24313726 0.98039216
0.1882353 0.26666668 0.99215686
0.48235294 0.2627451 0.9960785
0.75686276 0.28235295 0.99215686
0.972549 0.27450982 0.9882353
0.20392157 0.5137255 0.9764706
0.3019608 0.53333336 0.9882353
0.53333336 0.5294118 0.9882353
0.7764706 0.54901963 0.99215686
0.9647059 0.5411765 0.98039216
0.28627452 0.77254903 0.9764706
0.36078432 0.7921569 0.99215686
0.57254905 0.7960784 0.9882353
0.7960784 0.8078432 0.9882353
0.9490196 0.8039216 0.9764706
0.3372549 0.9568627 0.9686275
0.40784314 0.9686275 0.9764706
0.6039216 0.972549 0.98039216
0.827451 0.9647059 0.972549
0.93333334 0.9529412 0.9647059
