src/assets/luts/人像配方/氧气像.cube
#Generated by Picture Instruments - Look Converter
TITLE "A21-Í¨Í¸ÁÁ°×Ð¤Ïñ23-»ðÐÇÔ¤Éè"
LUT_3D_SIZE 5
DOMAIN_MIN 0.000000 0.000000 0.000000
DOMAIN_MAX 0.903226 0.903226 0.903226
0.0157 0.0235 0.0196
0.2588 0.0157 0.0078
0.5882 0.0510 0.0000
0.8980 0.0941 0.0078
0.9961 0.1922 0.1176
0.0000 0.2941 0.0275
0.2196 0.2980 0.0235
0.5922 0.3294 0.0039
0.8863 0.3333 0.0510
0.9961 0.3569 0.1490
0.0000 0.6000 0.1765
0.0000 0.6000 0.1882
0.5333 0.6000 0.1765
0.8627 0.6039 0.1843
0.9961 0.6000 0.2314
0.0000 0.8353 0.3373
0.0000 0.8314 0.3529
0.3373 0.8275 0.3725
0.7725 0.8235 0.3686
0.9961 0.8118 0.4000
0.0941 0.9843 0.5686
0.1843 0.9804 0.5804
0.4431 0.9804 0.6078
0.7020 0.9804 0.6118
0.9294 0.9725 0.6196
0.0000 0.0471 0.2588
0.2471 0.0000 0.2824
0.5882 0.0000 0.2980
0.8902 0.0431 0.3059
0.9961 0.2392 0.3373
0.0000 0.2863 0.2863
0.2471 0.2941 0.2980
0.5882 0.3098 0.3059
0.8784 0.3294 0.3216
0.9961 0.3765 0.3490
0.0000 0.5922 0.3804
0.0824 0.5922 0.3569
0.5412 0.5961 0.3569
0.8549 0.6039 0.3608
0.9961 0.6039 0.3882
0.0000 0.8275 0.4745
0.0000 0.8275 0.4588
0.3922 0.8235 0.4706
0.7765 0.8196 0.4706
0.9922 0.8118 0.4941
0.3059 0.9804 0.6314
0.3412 0.9804 0.6275
0.4941 0.9765 0.6471
0.7137 0.9765 0.6549
0.9294 0.9725 0.6627
0.0000 0.0118 0.5490
0.1373 0.0000 0.5569
0.5412 0.0000 0.5765
0.8627 0.0000 0.5804
0.9961 0.1686 0.5686
0.0000 0.2745 0.5686
0.1373 0.2627 0.5804
0.5569 0.2549 0.5922
0.8588 0.2824 0.5882
0.9961 0.3608 0.5804
0.0000 0.5804 0.5961
0.2196 0.5804 0.5922
0.5765 0.5843 0.6000
0.8392 0.5922 0.6078
0.9961 0.6196 0.6196
0.3137 0.8157 0.6471
0.4392 0.8157 0.6627
0.5608 0.8118 0.6549
0.7922 0.8118 0.6549
0.9804 0.8196 0.6627
0.5490 0.9725 0.7529
0.5608 0.9725 0.7490
0.6000 0.9725 0.7333
0.7451 0.9765 0.7490
0.9373 0.9725 0.7529
0.0000 0.0000 0.7961
0.0000 0.0000 0.8000
0.4510 0.0000 0.8078
0.8000 0.0000 0.8196
0.9961 0.0039 0.8078
0.0000 0.2118 0.8118
0.0000 0.2118 0.8196
0.4706 0.2000 0.8235
0.8118 0.1961 0.8275
0.9961 0.2784 0.8118
0.0000 0.5647 0.8157
0.2431 0.5647 0.8157
0.5294 0.5608 0.8196
0.8118 0.5569 0.8235
0.9961 0.5804 0.8157
0.2353 0.8078 0.8196
0.3765 0.8078 0.8196
0.6039 0.8039 0.8157
0.8118 0.8078 0.8196
0.9804 0.8157 0.8235
0.5098 0.9765 0.8353
0.5686 0.9725 0.8392
0.6980 0.9686 0.8549
0.8039 0.9647 0.8549
0.9490 0.9686 0.8627
0.0000 0.0863 0.9686
0.0000 0.0275 0.9725
0.2588 0.0000 0.9725
0.6902 0.0000 0.9804
0.9725 0.0000 0.9882
0.0000 0.0980 0.9765
0.0000 0.0627 0.9843
0.3098 0.0431 0.9843
0.7020 0.0235 0.9882
0.9765 0.0471 0.9882
0.0000 0.5098 0.9765
0.0392 0.4902 0.9804
0.4235 0.4824 0.9804
0.7294 0.4824 0.9804
0.9686 0.4902 0.9804
0.2549 0.7686 0.9765
0.3843 0.7725 0.9765
0.5922 0.7843 0.9765
0.7804 0.7765 0.9765
0.9608 0.7804 0.9765
0.4275 0.9647 0.9765
0.4941 0.9608 0.9725
0.6471 0.9647 0.9725
0.8157 0.9608 0.9725
0.9647 0.9647 0.9765
