src/assets/luts/人像配方/清透像.cube
#Generated by Pennl1
#闲鱼号：LOOK胶片感
#公众号：胶片感
TITLE 佳能G7X II
LUT_3D_SIZE 5
0.007843138 0.011764706 0.011764706
0.24803922 0.00882353 0.009803922
0.55098045 0.060784318 0.015686275
0.7931373 0.19411764 0.032352943
0.9568627 0.3137255 0.12156863
0.007843138 0.2509804 0.021568628
0.25808823 0.2735294 0.019607844
0.5500001 0.29068628 0.043137256
0.79509807 0.35637257 0.12843138
0.9607843 0.42745095 0.2019608
0.007843138 0.4882353 0.09411765
0.12696078 0.5191177 0.10735294
0.5176471 0.5441177 0.1382353
0.7735294 0.5647059 0.24460784
0.94509804 0.6 0.32352942
0.08529412 0.71372557 0.2784314
0.19191176 0.7254902 0.29411766
0.445098 0.7406863 0.28137255
0.7316176 0.7433824 0.32377452
0.917647 0.75784314 0.3911765
0.25490198 0.90196085 0.42352942
0.31176472 0.8950981 0.42450982
0.45882356 0.90588236 0.44117647
0.7205882 0.9137255 0.46372554
0.9137255 0.9294118 0.5372549
0.003921569 0.011764706 0.16960785
0.2252451 0.011764706 0.26691177
0.50784314 0.012745099 0.2617647
0.7720588 0.14803922 0.28063726
0.9617647 0.3137255 0.32352942
0.003921569 0.2002451 0.21568626
0.18903185 0.23106617 0.2656863
0.5154412 0.24742648 0.2754902
0.7708946 0.32506126 0.30735296
0.9529412 0.41029412 0.3482843
0.007843138 0.46372554 0.2009804
0.15649511 0.4935049 0.29828432
0.50147057 0.5227941 0.32671568
0.7504902 0.56102943 0.38161764
0.93529415 0.60294116 0.43235296
0.12352941 0.7012255 0.360049
0.22052696 0.71427697 0.3911765
0.43039215 0.7335784 0.4060049
0.7308211 0.741054 0.4213848
0.9137255 0.7595588 0.46642154
0.2794118 0.8990196 0.48137254
0.33578432 0.8980392 0.48137254
0.5 0.90833336 0.51274514
0.73382354 0.92328435 0.53308827
0.9166666 0.93235296 0.59019613
0.0 0.0 0.42745098
0.04411765 0.010294117 0.4617647
0.48137257 0.08431373 0.5617647
0.7465687 0.19362745 0.58431375
0.93529415 0.26078433 0.5392157
0.0 0.11617648 0.445098
0.059803925 0.16764706 0.46973038
0.45686275 0.25392157 0.5411765
0.73615193 0.31911764 0.5729167
0.92352945 0.36862746 0.5401961
0.0 0.44705883 0.4754902
0.06764706 0.4754902 0.5041667
0.4647059 0.5004902 0.54509807
0.730147 0.5343138 0.57524514
0.9245098 0.6019608 0.6068628
0.103431374 0.677451 0.41715685
0.21691176 0.6856618 0.46862745
0.49975494 0.71862745 0.57965684
0.73651963 0.74999994 0.623652
0.9191177 0.7764707 0.6455883
0.3019608 0.89411753 0.5666667
0.36225492 0.89705884 0.5818628
0.57156867 0.91568625 0.6450981
0.7509804 0.9343137 0.6745098
0.9274511 0.9392157 0.7078432
0.0 0.024509804 0.67156863
0.013725491 0.038235296 0.6960784
0.31617647 0.121568635 0.72892153
0.6786765 0.26127452 0.7612745
0.8980392 0.33823532 0.7794118
0.0 0.14828432 0.6732843
0.031862747 0.19583334 0.7004901
0.3438726 0.23872548 0.7180147
0.67990196 0.35686278 0.7571691
0.8931372 0.40686274 0.7752452
0.024019606 0.43529412 0.704902
0.11789216 0.4546568 0.7153186
0.42475492 0.50686276 0.7281863
0.6964462 0.5534314 0.76176476
0.89950985 0.5735294 0.77794117
0.04656863 0.69460785 0.70906866
0.1569853 0.70404404 0.72181374
0.4339461 0.7156863 0.7360294
0.7425858 0.75557595 0.7909314
0.92254907 0.76691175 0.78651965
0.08431373 0.8696078 0.5803922
0.1990196 0.88186276 0.60808825
0.49068627 0.8955883 0.68480396
0.7926471 0.94117653 0.81715685
0.94509804 0.95392156 0.84607846
0.003921569 0.13725491 0.9098039
0.019607844 0.17352942 0.9205883
0.25098038 0.21176471 0.91960776
0.61764705 0.3362745 0.9254902
0.84313726 0.4392157 0.9294118
0.007843138 0.2509804 0.92156863
0.047058824 0.28259805 0.9183823
0.30784315 0.32107845 0.920098
0.6301471 0.4090686 0.9252451
0.8509804 0.4960785 0.9294118
0.060784318 0.45882356 0.9294118
0.12794119 0.4857843 0.9274511
0.3539216 0.52254903 0.9294118
0.67058825 0.5647059 0.93039215
0.87058824 0.63725495 0.93333334
0.11764707 0.69803923 0.9294118
0.1764706 0.6919117 0.9294118
0.43725488 0.7156863 0.9328431
0.7193628 0.764951 0.94681364
0.90588236 0.787255 0.9529412
0.105882354 0.9568627 0.9098039
0.17843139 0.95490193 0.9098039
0.35490197 0.9607843 0.92156863
0.759804 0.9696079 0.95098037
0.98431367 0.9764706 0.98039216
