src/assets/luts/人像配方/清透像.cube
#Generated by Pennl1
#闲鱼号：LOOK胶片感
#公众号：胶片感
TITLE 佳能G7X II
LUT_3D_SIZE 33
0.007843138 0.011764706 0.011764706
0.007843138 0.011764706 0.011764706
0.007843138 0.011764706 0.011764706
0.05269608 0.011764706 0.011764706
0.0995098 0.011764706 0.015196079
0.13688725 0.011764706 0.011764706
0.17352942 0.011764706 0.011764706
0.21139705 0.011764706 0.011764706
0.24803922 0.00882353 0.009803922
0.27855393 0.010661765 0.010661765
0.3169118 0.014460786 0.011764706
0.3618873 0.019607844 0.009191177
0.40294117 0.022058824 0.010294118
0.44142157 0.023529412 0.011764706
0.48210785 0.039705884 0.011764706
0.516054 0.043137256 0.011764706
0.55098045 0.060784318 0.015686275
0.58382356 0.076348044 0.015686275
0.6147059 0.09362745 0.015686275
0.64950985 0.10906864 0.018014707
0.67941177 0.12450981 0.019607844
0.7138481 0.14779413 0.020955883
0.744853 0.1632353 0.02622549
0.76911765 0.17585784 0.02745098
0.7931373 0.19411764 0.032352943
0.82524514 0.21262257 0.03529412
0.84607846 0.225 0.043872546
0.87573534 0.2522059 0.060049023
0.89607847 0.27107844 0.07156863
0.9148284 0.27879903 0.09056373
0.9338235 0.29068628 0.105882354
0.94534314 0.3019608 0.110049024
0.9568627 0.3137255 0.12156863
0.007843138 0.023406863 0.011764706
0.011523438 0.023406863 0.011764706
0.011757047 0.023874082 0.011764706
0.05661765 0.031004906 0.015207568
0.10637255 0.026133578 0.011764706
0.14271216 0.027083334 0.015563726
0.18051471 0.027182905 0.0118642775
0.21308593 0.031058518 0.015686275
0.2508885 0.028063726 0.012745098
0.28464693 0.031092986 0.011764706
0.31800705 0.027244179 0.011764706
0.35927543 0.029901963 0.010416667
0.39531255 0.0375 0.011764706
0.43597963 0.04127221 0.011764706
0.47640166 0.057215072 0.011764706
0.516054 0.06874235 0.013848039
0.55281866 0.08394608 0.015686275
0.5858418 0.09945236 0.015686275
0.61857384 0.11293658 0.015686275
0.6495826 0.124582574 0.019607844
0.6828891 0.14007354 0.019607844
0.71642154 0.15923332 0.020955883
0.74607843 0.17336857 0.024754902
0.7758234 0.19031863 0.02745098
0.7970588 0.20670955 0.031403188
0.8261029 0.22120097 0.043872546
0.84607846 0.23345588 0.04914216
0.87252986 0.25351563 0.065157786
0.89558816 0.27146143 0.08272059
0.9144723 0.28949526 0.09036459
0.9338235 0.29459253 0.106357224
0.9454619 0.3060049 0.11396676
0.9607843 0.3137255 0.1254902
0.007843138 0.03504902 0.011764706
0.011642157 0.042172182 0.011764706
0.015441177 0.0352788 0.011764706
0.06439185 0.03897059 0.0153186275
0.10683211 0.0421875 0.012469362
0.14926471 0.04595588 0.015479474
0.18152572 0.04373468 0.01564032
0.21904871 0.05274969 0.016490504
0.25196078 0.065257356 0.012745098
0.2779412 0.06405485 0.011764706
0.3127451 0.07156862 0.011764706
0.34926474 0.06511183 0.011680454
0.38829657 0.06960785 0.011764706
0.42935815 0.072081804 0.011764706
0.4677849 0.079794735 0.011764706
0.5126073 0.09006588 0.013848039
0.55098045 0.10539216 0.015686275
0.58774513 0.12071846 0.01752451
0.6242647 0.14142157 0.019607844
0.6577972 0.14764859 0.019607844
0.68333334 0.15916054 0.02098652
0.71670496 0.17241883 0.023529412
0.7510724 0.1901961 0.024754902
0.7785003 0.20292586 0.02745098
0.80643386 0.22794119 0.036948532
0.8291667 0.23458946 0.04499081
0.8483762 0.25033703 0.05592831
0.8726333 0.26083028 0.07491575
0.89558816 0.27542895 0.086060055
0.9144608 0.29367343 0.09152114
0.9338235 0.30588236 0.10611213
0.9454657 0.31348807 0.114330575
0.9607843 0.3137255 0.12916668
0.011764706 0.07977942 0.015686275
0.015207568 0.07633655 0.0153186275
0.016053922 0.08012408 0.0153186275
0.06120558 0.07696079 0.015720742
0.10703125 0.07987133 0.012576593
0.14982001 0.080702364 0.01618413
0.1810049 0.08776041 0.019607844
0.21932063 0.09297641 0.01932062
0.25321692 0.09978554 0.016666668
0.2881319 0.10717296 0.011764706
0.31874236 0.11128982 0.011764706
0.35906097 0.108333334 0.011764706
0.39042583 0.10464155 0.011764706
0.42536762 0.106223196 0.011764706
0.46969208 0.114506744 0.011764706
0.5103171 0.1201708 0.0119600175
0.5493873 0.13419119 0.015686275
0.58774513 0.14767158 0.01752451
0.6262638 0.16527268 0.019607844
0.65742195 0.17514937 0.023161767
0.68786764 0.18814337 0.023529412
0.7151961 0.19252834 0.028304994
0.74999994 0.21174939 0.03259804
0.7784123 0.2199755 0.038848042
0.8009803 0.23492646 0.044454657
0.82639015 0.252945 0.05261566
0.84926474 0.266299 0.060891546
0.8756779 0.2747549 0.08290059
0.89558816 0.2866575 0.09820773
0.9144608 0.3094363 0.113323376
0.93357843 0.31360295 0.11691177
0.9492647 0.3252336 0.118125774
0.9607843 0.33259806 0.13651961
0.008333334 0.1122549 0.015686275
0.012239584 0.11617648 0.015196079
0.018903187 0.11197917 0.012469362
0.05693934 0.11568629 0.012208946
0.100306384 0.1161152 0.015257354
0.14359681 0.12002144 0.01663603
0.18630512 0.1318934 0.019607844
0.22000614 0.13163297 0.019607844
0.25882354 0.1389706 0.016666668
0.2946385 0.14083947 0.015196079
0.3240196 0.14534315 0.015196079
0.36499697 0.14882047 0.015686275
0.40159315 0.14344363 0.011764706
0.43313417 0.14854474 0.011764706
0.46400124 0.14325981 0.011764706
0.50684744 0.15307905 0.013848039
0.55441177 0.16666667 0.015686275
0.58935356 0.17473958 0.01752451
0.62454045 0.18477331 0.02132353
0.66142774 0.20306373 0.023529412
0.6927084 0.21231619 0.023713235
0.7186276 0.21732539 0.02879902
0.7459865 0.22705269 0.032444853
0.77303916 0.24077818 0.044715073
0.7964461 0.25306374 0.051470585
0.8261029 0.2667586 0.060799636
0.8527879 0.28210783 0.0754902
0.8761489 0.28921568 0.09374999
0.89859074 0.2976103 0.109375
0.9175704 0.3131587 0.12438726
0.93728554 0.33167893 0.13284314
0.9486673 0.33261335 0.13296568
0.9607843 0.34411767 0.13725491
0.007843138 0.14987746 0.015686275
0.008436735 0.1504902 0.015686275
0.015234375 0.1504902 0.015686275
0.049387254 0.1510455 0.012074908
0.09921875 0.16095282 0.019117648
0.14325981 0.15927161 0.020124847
0.1882506 0.16801472 0.019722734
0.21617648 0.16617647 0.019607844
0.2592831 0.16927084 0.01764706
0.29102713 0.1747281 0.015686275
0.3245098 0.17568168 0.017961092
0.3632353 0.17855392 0.018995099
0.40087315 0.17587316 0.018382354
0.43554303 0.17892541 0.016781557
0.46262258 0.17801777 0.015073531
0.50870097 0.18746172 0.017769609
0.54871327 0.19693628 0.022916667
0.58803236 0.2054343 0.026838236
0.6227482 0.21701132 0.027106311
0.6544156 0.22378218 0.030759806
0.69215685 0.24384193 0.034681372
0.7191177 0.24907324 0.04543122
0.7436275 0.25428924 0.04914216
0.76929 0.26294044 0.056322765
0.7990196 0.2717831 0.07267157
0.8221814 0.2833563 0.07475491
0.8466912 0.30354628 0.09458486
0.87015164 0.31259575 0.10980393
0.8990196 0.3208793 0.12723652
0.9150735 0.32586554 0.13014707
0.93439806 0.3480392 0.14783242
0.94534314 0.3486328 0.14411765
0.9607843 0.35563728 0.14840686
0.011029412 0.18529414 0.019607844
0.007843138 0.18848036 0.019607844
0.007843138 0.18848036 0.019607844
0.034489892 0.19143689 0.015019915
0.080238976 0.20150125 0.015196079
0.13762255 0.2002451 0.019109989
0.18848039 0.20143995 0.023391545
0.22009805 0.20081955 0.023529412
0.25349265 0.20251223 0.01764706
0.28631282 0.2065334 0.01887255
0.32205883 0.20836397 0.022074142
0.3625 0.21557137 0.021951593
0.3955576 0.2110294 0.019607844
0.427765 0.21433823 0.019607844
0.46591607 0.21844362 0.017478555
0.5091912 0.2247549 0.019998468
0.5454657 0.23786764 0.025490196
0.58382356 0.2428462 0.03247549
0.6164216 0.25186887 0.037346814
0.65446544 0.2596661 0.04515166
0.6865196 0.2762255 0.050520834
0.71802247 0.279182 0.057605702
0.7416208 0.28405333 0.06568628
0.7668276 0.29301473 0.07327666
0.7998162 0.3055147 0.092156865
0.8221814 0.31486672 0.09901961
0.8447457 0.32143077 0.10860907
0.8711857 0.33515626 0.12804842
0.89797795 0.3423407 0.1397978
0.91157323 0.35043657 0.14110754
0.93357843 0.36646754 0.1582261
0.9459329 0.37107843 0.16002604
0.9607843 0.37818632 0.16960785
0.011764706 0.2192402 0.019607844
0.011764706 0.22230393 0.019607844
0.011764706 0.22522978 0.019607844
0.026635263 0.22708334 0.015766699
0.054166667 0.23319545 0.015793506
0.114839934 0.23665366 0.01641008
0.17185968 0.2379902 0.022794116
0.22009805 0.24191177 0.023529412
0.25839463 0.24375 0.019822305
0.28836167 0.24964385 0.019607844
0.3258502 0.24759498 0.022303924
0.3647557 0.24676394 0.023529412
0.39931068 0.25191486 0.023529412
0.43074065 0.25312883 0.025348501
0.46459103 0.2518459 0.024869794
0.5103477 0.25238207 0.026593138
0.5496937 0.2632353 0.03707108
0.5830193 0.27480853 0.043577667
0.6150812 0.28064492 0.048782174
0.65001917 0.2844363 0.05136719
0.6779412 0.2944853 0.06049326
0.70906866 0.3046569 0.066888794
0.7388481 0.3084559 0.0822304
0.76457953 0.31703815 0.09595206
0.7967218 0.3294424 0.10995711
0.81911767 0.33400354 0.12004059
0.8389324 0.34584102 0.13095896
0.8658088 0.3587125 0.14116499
0.89203423 0.37008274 0.15638788
0.9109068 0.37540978 0.15980393
0.93095136 0.38510263 0.17212777
0.94828427 0.39659545 0.18480395
0.95992655 0.4004902 0.18566176
0.007843138 0.2509804 0.021568628
0.007843138 0.2520527 0.018719364
0.007843138 0.25104168 0.015686275
0.020128677 0.25560662 0.012928922
0.040563725 0.25931376 0.014460786
0.09500612 0.26320466 0.011458334
0.16243872 0.26905638 0.012745098
0.21305147 0.27288604 0.01798407
0.25808823 0.2735294 0.019607844
0.29169732 0.2804228 0.019607844
0.32794118 0.2860907 0.020281862
0.3638787 0.28201595 0.026470589
0.40134802 0.28296572 0.025367647
0.43146443 0.28409928 0.030392159
0.47254902 0.28406864 0.037683826
0.51283705 0.28489584 0.03685662
0.5500001 0.29068628 0.043137256
0.5840074 0.3035233 0.052022062
0.6147672 0.3108456 0.06703432
0.6479167 0.31590074 0.073161766
0.6743873 0.3254902 0.08039216
0.7047488 0.33367035 0.09509804
0.7370098 0.33939952 0.10428922
0.7643689 0.34984687 0.121568635
0.79509807 0.35637257 0.12843138
0.81740195 0.3624081 0.13844976
0.83688724 0.36917895 0.14779413
0.8654105 0.38342524 0.16283701
0.8911764 0.39362743 0.175
0.9102635 0.4009804 0.17959559
0.9260417 0.40588236 0.18241422
0.9424939 0.41403186 0.1943321
0.9607843 0.42745095 0.2019608
0.007843138 0.2829657 0.023529412
0.007843138 0.28548563 0.023617495
0.007843138 0.28457415 0.022495404
0.013028493 0.28604856 0.01987209
0.024754902 0.2897059 0.018504903
0.069167435 0.29156712 0.015196079
0.14204198 0.29791668 0.014583334
0.20108764 0.30085403 0.015069701
0.25404415 0.30523896 0.019607844
0.29565334 0.3093137 0.022426471
0.33318782 0.3151731 0.027106311
0.36643308 0.3151731 0.030993415
0.40546873 0.3136489 0.03026961
0.43676472 0.3138059 0.038848042
0.48113507 0.31949297 0.0399663
0.5116843 0.316682 0.041299023
0.5479167 0.31856617 0.051838238
0.58624774 0.33127683 0.07257583
0.6162914 0.3391008 0.081510425
0.6506932 0.3429343 0.09138328
0.6757813 0.3540441 0.101317406
0.70683974 0.36556375 0.11850491
0.73982847 0.37130055 0.12809438
0.7604818 0.37267923 0.13817786
0.7914522 0.3819853 0.1445772
0.81740195 0.39069778 0.15551089
0.8344746 0.3972197 0.1696538
0.8639705 0.4161267 0.18492648
0.8887101 0.4205729 0.19140625
0.909172 0.4260646 0.19961321
0.92144597 0.43370098 0.20239736
0.9414216 0.4360294 0.20579429
0.9607843 0.44375 0.2202206
0.007843138 0.30612746 0.02622549
0.007843138 0.30494028 0.027412685
0.007843138 0.30612746 0.028753065
0.015203739 0.32084867 0.02622549
0.01675858 0.32028186 0.025153186
0.04625459 0.32305455 0.02188266
0.11763174 0.32797182 0.015686275
0.18257506 0.33390012 0.017233457
0.2403799 0.33829656 0.018382354
0.28725493 0.34301472 0.026003368
0.33066788 0.34681374 0.02745098
0.3650046 0.34588698 0.033019304
0.40811887 0.34411767 0.032904413
0.4414139 0.35146296 0.043144915
0.48382354 0.34926468 0.046522677
0.5154795 0.34721968 0.047916666
0.5431373 0.3480392 0.05894608
0.58026963 0.35820314 0.07801777
0.619807 0.36764708 0.10294117
0.6536612 0.37607995 0.11295956
0.67723656 0.38458946 0.12322304
0.70870095 0.3925245 0.135769
0.7372243 0.3994026 0.1504902
0.7609298 0.4037454 0.15433517
0.78756124 0.41145834 0.16887255
0.81556374 0.41887254 0.176057
0.83750004 0.42743567 0.18774511
0.86211705 0.43657324 0.19900428
0.8888173 0.44764096 0.20980392
0.90661764 0.45159313 0.21629901
0.9250766 0.45791975 0.2227022
0.9440717 0.46184132 0.22773436
0.9568627 0.46813723 0.23014708
0.007843138 0.33835787 0.03272059
0.007843138 0.34085095 0.03786765
0.00792739 0.33995098 0.032758884
0.009191177 0.34386873 0.034930304
0.011443016 0.34705883 0.03517157
0.036362592 0.35477942 0.02513787
0.09178922 0.36066943 0.02009038
0.158161 0.37249926 0.021618415
0.22300856 0.37395838 0.022181373
0.27020913 0.37302777 0.023529412
0.317716 0.37630975 0.0314951
0.3549709 0.37715226 0.033946082
0.39584866 0.3810355 0.039353557
0.43547416 0.38412607 0.048586853
0.47603396 0.38551623 0.051079962
0.5181373 0.38870636 0.05755974
0.54773283 0.3886642 0.07640932
0.57797945 0.38788676 0.08668045
0.613917 0.3945083 0.10695466
0.6513404 0.4077857 0.12972197
0.6794271 0.41556373 0.13641238
0.70343137 0.41779637 0.15213695
0.734735 0.42555913 0.16850491
0.7605508 0.4360294 0.17893307
0.78661156 0.4430147 0.18651961
0.81146985 0.44558826 0.19566101
0.83540905 0.45184588 0.20611213
0.8639705 0.4645833 0.21381357
0.8875766 0.4730392 0.22642463
0.90661764 0.47475487 0.23174404
0.9220588 0.4822304 0.2391774
0.9414216 0.48615193 0.24436273
0.9568627 0.48872545 0.24693626
0.007843138 0.36960784 0.039215688
0.007843138 0.37055764 0.039215688
0.007843138 0.3693015 0.04298407
0.007843138 0.3745098 0.040686276
0.009129902 0.36960784 0.042830884
0.025015322 0.3804994 0.03820466
0.08112745 0.39436275 0.030637255
0.12835479 0.40384498 0.024678309
0.19289216 0.41274506 0.023529412
0.25367647 0.4150735 0.025980392
0.29831496 0.41179535 0.029901963
0.33969057 0.4140625 0.03543199
0.38327205 0.41703433 0.041666668
0.42593443 0.418704 0.052435663
0.47034314 0.4209253 0.05628064
0.5144608 0.42287073 0.07112439
0.54901963 0.4227941 0.0884804
0.5830423 0.42193624 0.09877451
0.6113358 0.42604166 0.11265319
0.6479167 0.43200067 0.13359375
0.67303926 0.44411764 0.15294118
0.70343137 0.44741115 0.16953126
0.7343138 0.44947913 0.18259804
0.76081496 0.46372548 0.19502145
0.78443635 0.47181368 0.20490196
0.80988055 0.47593445 0.21106003
0.8299327 0.47720587 0.21421568
0.8561427 0.48700982 0.22780332
0.88492644 0.4978554 0.24050246
0.90625 0.5017004 0.24693626
0.9220588 0.5053922 0.25588238
0.9390472 0.5094363 0.2599265
0.9529412 0.51323533 0.26372552
0.007843138 0.40539214 0.044730395
0.007843138 0.40539214 0.049191948
0.007843138 0.40698528 0.047893688
0.007843138 0.40539214 0.050980393
0.007843138 0.4030637 0.045756742
0.01997549 0.4100452 0.052336093
0.06908701 0.42269453 0.043872546
0.11176469 0.42841223 0.0311466
0.16164216 0.43912375 0.029779412
0.23328738 0.44742647 0.034639247
0.28370866 0.44693628 0.036397062
0.32788375 0.44798177 0.039713543
0.37228864 0.44839153 0.044132967
0.41323534 0.45180374 0.05192632
0.45665595 0.45245096 0.0687883
0.50245094 0.45022213 0.07991345
0.5458946 0.45245096 0.09993872
0.5830768 0.4542892 0.112231925
0.61078435 0.45739123 0.12553616
0.6416667 0.4634076 0.14682905
0.6667739 0.46542585 0.15588236
0.6997549 0.47365195 0.17781863
0.7287915 0.47757354 0.18772212
0.75502455 0.48137254 0.20290288
0.7798101 0.49304536 0.2164522
0.8043275 0.49622017 0.23079811
0.82603395 0.49835324 0.23589155
0.850854 0.51286 0.24706265
0.8762714 0.5210019 0.2562194
0.9003676 0.5264438 0.2649242
0.9144148 0.5263251 0.2676011
0.9375 0.53021985 0.27771908
0.9506127 0.53406864 0.2854167
0.007843138 0.4340686 0.053186275
0.007843138 0.43455884 0.06318168
0.007843138 0.43627456 0.06750919
0.007843138 0.43611366 0.0632353
0.007843138 0.43455884 0.06544118
0.016521141 0.44109988 0.06509651
0.05188419 0.45301777 0.070909925
0.10159314 0.46238512 0.06180301
0.14056373 0.46109068 0.043811277
0.1978171 0.47659317 0.043627452
0.27092525 0.48656553 0.04534314
0.31235448 0.48838082 0.049800858
0.35686278 0.49010417 0.05490196
0.40350798 0.485049 0.06658242
0.44583333 0.48333338 0.072794124
0.4877987 0.4816177 0.089866735
0.5348039 0.48615193 0.10674021
0.5744409 0.48946077 0.12258732
0.606587 0.49117646 0.13305761
0.6416667 0.49276966 0.1553079
0.66185665 0.49788603 0.17230392
0.69519764 0.5013251 0.18598346
0.7264706 0.5063726 0.19730394
0.751708 0.5112669 0.20929842
0.77383584 0.51476717 0.22126226
0.79950976 0.5203432 0.23846507
0.8242647 0.52098656 0.24321385
0.84703594 0.52686125 0.26012564
0.87405026 0.5387255 0.26985294
0.89522064 0.54424024 0.27589616
0.9142156 0.55171573 0.28861827
0.92977947 0.5556373 0.29086244
0.9490196 0.55955887 0.30245098
0.007843138 0.45514706 0.07475491
0.007843138 0.4612018 0.07659314
0.007843138 0.46138176 0.08246783
0.007843138 0.4690449 0.082598045
0.007843138 0.46556374 0.082598045
0.013522519 0.47528338 0.086519614
0.044485293 0.48325673 0.08894761
0.08571538 0.4867647 0.082073376
0.12843138 0.4906863 0.0744179
0.17112057 0.49948302 0.064162076
0.23708639 0.5068168 0.06968444
0.30355394 0.5174211 0.0754902
0.35085782 0.51835173 0.080438115
0.3959559 0.5137255 0.08700981
0.4412301 0.5130438 0.09446998
0.4781901 0.5111558 0.10134421
0.5223652 0.5110907 0.11488971
0.5649472 0.5167854 0.13235678
0.59968597 0.51906407 0.14669117
0.63527113 0.51997554 0.16322382
0.6604626 0.5211244 0.18440565
0.68837696 0.52316177 0.18900889
0.7183441 0.5278187 0.20245099
0.7484069 0.5278187 0.2167892
0.77450985 0.5356618 0.23391545
0.7946768 0.5407553 0.24751456
0.81973046 0.5484069 0.2584559
0.84620094 0.5537569 0.27295882
0.8699449 0.5633426 0.28235295
0.88921565 0.56531864 0.28646982
0.9101639 0.57315415 0.29447764
0.9258579 0.5748775 0.30030257
0.9490196 0.57879907 0.31004903
0.007843138 0.4882353 0.09411765
0.007843138 0.48633578 0.09411765
0.007843138 0.4862745 0.09411765
0.007843138 0.49178922 0.1033701
0.007843138 0.49215683 0.1004902
0.015073531 0.50165445 0.103615195
0.04264706 0.5094363 0.11654412
0.0846201 0.5172182 0.11721814
0.12696078 0.5191177 0.10735294
0.16476716 0.5257966 0.10110295
0.21372549 0.5327206 0.09620099
0.281924 0.5391544 0.09411765
0.34534317 0.54901963 0.10392157
0.39632356 0.5470588 0.11096814
0.4387255 0.5459559 0.12181373
0.47316176 0.5440564 0.12665442
0.5176471 0.5441177 0.1382353
0.5532476 0.5411765 0.14393383
0.59227943 0.54424024 0.15465687
0.6264093 0.548652 0.17181373
0.6541667 0.54656863 0.18529414
0.68903184 0.55490196 0.1981005
0.71605396 0.55625004 0.2077206
0.7469976 0.55796576 0.22205882
0.7735294 0.5647059 0.24460784
0.7912378 0.5686275 0.2577206
0.81237745 0.57169116 0.26740196
0.8371324 0.58069855 0.27935052
0.8639705 0.5862745 0.2904412
0.8907474 0.59019613 0.2998162
0.9080882 0.59607846 0.30416667
0.92383575 0.59803927 0.31960785
0.94509804 0.6 0.32352942
0.007843138 0.51115197 0.111397065
0.007843138 0.51720667 0.11341529
0.007843138 0.5171416 0.11556373
0.007843138 0.517402 0.11556373
0.007843138 0.51927084 0.11743261
0.018382354 0.53247553 0.12463236
0.051570162 0.53919274 0.1386489
0.08814722 0.5466376 0.14852941
0.13529412 0.5496324 0.1393076
0.1692402 0.557284 0.13537455
0.20355392 0.561152 0.11843597
0.2509804 0.5642157 0.11547948
0.32437193 0.5726716 0.119852945
0.38120407 0.57424176 0.12326134
0.42659315 0.57689184 0.13033855
0.46849343 0.576957 0.1431296
0.51176476 0.5749388 0.16041668
0.5493911 0.5742571 0.16629903
0.5833334 0.57506895 0.1719363
0.6187845 0.5757353 0.18898207
0.6522519 0.5780637 0.19624692
0.68319166 0.5787799 0.20439261
0.70955884 0.58399206 0.21867342
0.7441445 0.58666897 0.23167126
0.7678922 0.58851105 0.2488358
0.78734297 0.59523976 0.26981848
0.81323534 0.6010034 0.2828891
0.8371324 0.6037569 0.28880593
0.8586857 0.6080576 0.29877454
0.88328356 0.61146986 0.30634576
0.90428925 0.61716455 0.3197304
0.92004055 0.61734456 0.32935432
0.94117653 0.62328434 0.33700982
0.011764706 0.5492647 0.13455883
0.011764706 0.54583335 0.13455883
0.009558824 0.5436275 0.13295037
0.011764706 0.5473882 0.13455883
0.011764706 0.54754907 0.13455883
0.022303924 0.5613971 0.14495252
0.05686275 0.57018995 0.15810356
0.10073529 0.5790365 0.16947764
0.13780639 0.57665443 0.16378677
0.17535998 0.58773744 0.16420802
0.2061734 0.5915135 0.15323225
0.23919272 0.59799325 0.14539675
0.28952208 0.60177696 0.14632353
0.36355698 0.6054381 0.15155484
0.41936272 0.60707724 0.15341605
0.46162686 0.60789675 0.16237745
0.5131128 0.60600495 0.1762255
0.54366577 0.60422033 0.18356311
0.58037686 0.6029412 0.1872549
0.61629903 0.6038373 0.19616269
0.6508272 0.6012255 0.20628065
0.6811275 0.6068628 0.21938573
0.70568323 0.6056832 0.22636335
0.73946077 0.61236984 0.24595588
0.7585172 0.610049 0.25257355
0.7833487 0.61767006 0.27010572
0.8083334 0.6212316 0.29051778
0.8333563 0.62490046 0.29865196
0.8566483 0.6289522 0.30493262
0.87981766 0.6332491 0.32230392
0.90059745 0.6365196 0.32962623
0.9140931 0.6365196 0.33914676
0.9394609 0.6387255 0.34901962
0.011764706 0.57732844 0.15220588
0.011764706 0.57725567 0.15227865
0.011764706 0.57514554 0.15002298
0.011764706 0.5792203 0.15612745
0.013357843 0.58264405 0.1577206
0.025605086 0.5877528 0.16825981
0.067348346 0.5940105 0.17440258
0.10500536 0.6039216 0.18772595
0.14099266 0.6065258 0.18854167
0.17205884 0.606453 0.18517156
0.20454197 0.6113971 0.18247549
0.2367647 0.61544883 0.17120099
0.27094057 0.61899513 0.16643688
0.33753446 0.6218482 0.16397059
0.40804228 0.62757355 0.17270987
0.45358837 0.62940025 0.18089384
0.50428927 0.6310662 0.19099265
0.5382468 0.6301471 0.20035614
0.5745941 0.62757355 0.20780484
0.6096469 0.62598044 0.21529949
0.6469516 0.62697613 0.22233456
0.6715112 0.62757355 0.23223038
0.7020757 0.629902 0.24376531
0.7322725 0.62843525 0.25155485
0.75428927 0.63125 0.25980395
0.77955353 0.6339844 0.27320006
0.80379903 0.63977486 0.29007354
0.8290403 0.6439951 0.30380285
0.85254294 0.64428616 0.31153494
0.87438726 0.6522059 0.32811734
0.89852947 0.6572534 0.33909315
0.91242725 0.6596814 0.35061276
0.9356618 0.66433823 0.35686278
0.011764706 0.607353 0.17843139
0.011810662 0.6059743 0.17945772
0.013235294 0.60490197 0.17205884
0.016927084 0.60801166 0.17464766
0.021078432 0.6153799 0.18400735
0.038235296 0.6138787 0.1891238
0.07742035 0.62873775 0.19782476
0.108670354 0.6290901 0.2050245
0.14019608 0.6352942 0.21188724
0.17423408 0.6361979 0.21119791
0.2073223 0.6409314 0.2085478
0.23909314 0.6405484 0.20022978
0.2632353 0.6449142 0.1877451
0.31798407 0.6528033 0.19005822
0.3863358 0.6567709 0.19295345
0.44669116 0.65931374 0.19787072
0.49142158 0.65686274 0.20049019
0.5345129 0.66178 0.2129902
0.5676471 0.660141 0.22181372
0.6034314 0.65931374 0.23443627
0.6442402 0.65931374 0.24307597
0.6642157 0.65880823 0.24561886
0.69485295 0.6578432 0.252451
0.7219364 0.6549786 0.26029414
0.748652 0.65355396 0.2644608
0.7733303 0.65625 0.27642465
0.7936275 0.65612745 0.2872243
0.82475483 0.6605545 0.3064951
0.844424 0.6598039 0.3158701
0.8681372 0.6675245 0.33272058
0.89715075 0.6763174 0.34298408
0.91017157 0.6813726 0.35453433
0.9318628 0.67990196 0.36225486
0.015686275 0.63933825 0.20147058
0.022100948 0.6380323 0.20661767
0.020955883 0.6341912 0.20012255
0.026099114 0.637006 0.20317478
0.03460478 0.63766855 0.2073223
0.057107843 0.6437845 0.21384804
0.09300704 0.6540365 0.22522978
0.120833345 0.6550245 0.22757353
0.15496324 0.6618873 0.2354473
0.18014705 0.66286767 0.2353286
0.2157935 0.6665288 0.23364738
0.24301472 0.66805685 0.23107383
0.266682 0.66940874 0.21848959
0.29833412 0.6738396 0.20692018
0.35708487 0.67872244 0.21102943
0.4299862 0.68368185 0.21909851
0.48688725 0.6838235 0.22236519
0.5243681 0.684398 0.22741269
0.55828744 0.6852712 0.23723193
0.5932599 0.6845512 0.24503294
0.63197 0.683318 0.25675553
0.6642157 0.67990196 0.2589461
0.68872553 0.6815487 0.26439187
0.71383655 0.6817517 0.27341837
0.7398591 0.67757356 0.283701
0.7679419 0.6791169 0.29039142
0.7898208 0.6824755 0.29853708
0.8218482 0.6828776 0.31370637
0.8480392 0.6863971 0.32732844
0.8689951 0.69031864 0.33749616
0.8947687 0.694401 0.34934893
0.9088235 0.6994715 0.36221275
0.9254902 0.6995098 0.3699755
0.022058824 0.6571079 0.22058822
0.029656863 0.66360295 0.2271676
0.034803923 0.668796 0.2246783
0.04855239 0.6650659 0.22706802
0.06795344 0.66859686 0.23207721
0.08461244 0.6717984 0.23962164
0.106127456 0.6742647 0.24587929
