src/assets/luts/人像配方/清透像.cube
#Generated by Pennl1
#闲鱼号：LOOK胶片感
#公众号：胶片感
TITLE 佳能G7X II
LUT_3D_SIZE 9
0.007843138 0.011764706 0.011764706
0.0995098 0.011764706 0.015196079
0.24803922 0.00882353 0.009803922
0.40294117 0.022058824 0.010294118
0.55098045 0.060784318 0.015686275
0.67941177 0.12450981 0.019607844
0.7931373 0.19411764 0.032352943
0.89607847 0.27107844 0.07156863
0.9568627 0.3137255 0.12156863
0.008333334 0.1122549 0.015686275
0.100306384 0.1161152 0.015257354
0.25882354 0.1389706 0.016666668
0.40159315 0.14344363 0.011764706
0.55441177 0.16666667 0.015686275
0.6927084 0.21231619 0.023713235
0.7964461 0.25306374 0.051470585
0.89859074 0.2976103 0.109375
0.9607843 0.34411767 0.13725491
0.007843138 0.2509804 0.021568628
0.040563725 0.25931376 0.014460786
0.25808823 0.2735294 0.019607844
0.40134802 0.28296572 0.025367647
0.5500001 0.29068628 0.043137256
0.6743873 0.3254902 0.08039216
0.79509807 0.35637257 0.12843138
0.8911764 0.39362743 0.175
0.9607843 0.42745095 0.2019608
0.007843138 0.36960784 0.039215688
0.009129902 0.36960784 0.042830884
0.19289216 0.41274506 0.023529412
0.38327205 0.41703433 0.041666668
0.54901963 0.4227941 0.0884804
0.67303926 0.44411764 0.15294118
0.78443635 0.47181368 0.20490196
0.88492644 0.4978554 0.24050246
0.9529412 0.51323533 0.26372552
0.007843138 0.4882353 0.09411765
0.007843138 0.49215683 0.1004902
0.12696078 0.5191177 0.10735294
0.34534317 0.54901963 0.10392157
0.5176471 0.5441177 0.1382353
0.6541667 0.54656863 0.18529414
0.7735294 0.5647059 0.24460784
0.8639705 0.5862745 0.2904412
0.94509804 0.6 0.32352942
0.011764706 0.607353 0.17843139
0.021078432 0.6153799 0.18400735
0.14019608 0.6352942 0.21188724
0.2632353 0.6449142 0.1877451
0.49142158 0.65686274 0.20049019
0.6442402 0.65931374 0.24307597
0.748652 0.65355396 0.2644608
0.844424 0.6598039 0.3158701
0.9318628 0.67990196 0.36225486
0.08529412 0.71372557 0.2784314
0.10906864 0.71580875 0.2844363
0.19191176 0.7254902 0.29411766
0.28958336 0.73014706 0.28958336
0.445098 0.7406863 0.28137255
0.6203432 0.7480392 0.3002451
0.7316176 0.7433824 0.32377452
0.83247554 0.74754906 0.35416672
0.917647 0.75784314 0.3911765
0.19362745 0.8210784 0.3696079
0.20147058 0.81323534 0.36562496
0.25085783 0.8166666 0.3675245
0.328125 0.81323534 0.3694853
0.4129902 0.81740195 0.35612747
0.59558827 0.83235294 0.37352943
0.71629906 0.8328431 0.39264706
0.8240195 0.8367647 0.41280636
0.90588236 0.8406862 0.43627456
0.25490198 0.90196085 0.42352942
0.25490198 0.89411765 0.41617647
0.31176472 0.8950981 0.42450982
0.36960784 0.9034315 0.43529412
0.45882356 0.90588236 0.44117647
0.5887255 0.90588236 0.4377451
0.7205882 0.9137255 0.46372554
0.8279412 0.9294118 0.49901962
0.9137255 0.9294118 0.5372549
0.007843138 0.019117648 0.1
0.074325986 0.011764706 0.1221201
0.23848039 0.012254902 0.12855393
0.36599267 0.00814951 0.106862746
0.5200981 0.018137256 0.08553922
0.6734069 0.08903187 0.113051474
0.78786767 0.17316177 0.15134804
0.8920955 0.25238973 0.17984067
0.9607843 0.30637255 0.20343137
0.007904412 0.100612745 0.108333334
0.088557 0.10424326 0.12996323
0.24338238 0.101240814 0.1283701
0.38250616 0.09964001 0.11154258
0.5419118 0.122303925 0.11081496
0.6830729 0.17856924 0.13164063
0.79122245 0.23596813 0.1678462
0.89241725 0.29363513 0.19466911
0.9607843 0.33670345 0.2146446
0.007843138 0.21458332 0.089705884
0.055729166 0.23696384 0.12931986
0.23795956 0.25490195 0.14898898
0.39754906 0.27057293 0.15954351
0.5520834 0.28958333 0.16795345
0.68192405 0.32000613 0.18697919
0.79335177 0.34926468 0.2092831
0.88426775 0.38327205 0.23183213
0.9572304 0.42058823 0.2584559
0.0076593137 0.34718138 0.11519609
0.011764706 0.35523134 0.1283701
0.16606924 0.38935354 0.14954044
0.3750153 0.4056985 0.1638557
0.53036153 0.41675857 0.1891238
0.66714925 0.43822765 0.23636642
0.77539825 0.46260723 0.26323533
0.87475497 0.48821232 0.28859532
0.9526348 0.5207721 0.31341913
0.005882353 0.47254902 0.15
0.007843138 0.48275125 0.15631127
0.13161765 0.5144608 0.19889706
0.32861525 0.53391546 0.19087009
0.5156863 0.5392157 0.21470587
0.66292894 0.5453738 0.25652573
0.7577206 0.56011033 0.29080886
0.86357224 0.5880515 0.33606005
0.9394609 0.6017157 0.35808825
0.013051472 0.599326 0.20392159
0.042294733 0.605262 0.23425245
0.14928003 0.62619483 0.26119792
0.26624542 0.6331495 0.25716147
0.49010423 0.657353 0.26145837
0.6261642 0.6491345 0.2814798
0.7440259 0.6572611 0.31769305
0.84520525 0.66791517 0.35178465
0.9336397 0.6779412 0.39050245
0.08774509 0.7061274 0.30036765
0.120144 0.7168505 0.31326595
0.19592527 0.72702205 0.323989
0.2958793 0.73331803 0.33053005
0.42683822 0.7417892 0.3188113
0.61381745 0.7480392 0.33374694
0.72778803 0.74384207 0.34846815
0.83181685 0.7472733 0.3817555
0.916299 0.75735295 0.410049
0.18272059 0.8097427 0.3838848
0.20838694 0.80942094 0.38399202
0.25880823 0.8089921 0.38872552
0.34412533 0.8161152 0.40001535
0.43311885 0.81669724 0.38161764
0.60657173 0.83233 0.4009804
0.7212929 0.83682597 0.41698837
0.8235907 0.83664984 0.4361596
0.90324765 0.83719367 0.45281866
0.25490198 0.89411765 0.4416667
0.27401963 0.8955269 0.435723
0.3240196 0.898897 0.4501226
0.38829657 0.9003676 0.46096814
0.47573534 0.9000001 0.4639706
0.58988976 0.908027 0.4583333
0.73357844 0.92316175 0.49325982
0.8278799 0.9254902 0.51415443
0.9171568 0.9328431 0.56029415
0.003921569 0.011764706 0.16960785
0.023529412 0.0068627456 0.17818628
0.2252451 0.011764706 0.26691177
0.3644608 0.018995099 0.29056376
0.50784314 0.012745099 0.2617647
0.6529412 0.04276961 0.2584559
0.7720588 0.14803922 0.28063726
0.8696078 0.23382354 0.2882353
0.9617647 0.3137255 0.32352942
0.003921569 0.06531863 0.18455882
0.018964462 0.07074142 0.19319853
0.20419729 0.099969365 0.25965077
0.36321998 0.120572925 0.29443935
0.5020833 0.09393382 0.26286766
0.65513176 0.15093444 0.26153493
0.7709252 0.21262257 0.2878064
0.8678922 0.27855393 0.30677083
0.9568627 0.34240195 0.3199755
0.003921569 0.2002451 0.21568626
0.008700981 0.19586398 0.21577819
0.18903185 0.23106617 0.2656863
0.36170343 0.24157475 0.28939953
0.5154412 0.24742648 0.2754902
0.64816177 0.28143382 0.29549634
0.7708946 0.32506126 0.30735296
0.87788 0.3685662 0.32699144
0.9529412 0.41029412 0.3482843
0.0063725496 0.32316178 0.16580883
0.020220589 0.33218443 0.18655024
0.1878983 0.361152 0.2723039
0.3547947 0.37863052 0.30182296
0.5187501 0.39197308 0.31513482
0.648606 0.4247089 0.33598346
0.764951 0.44816178 0.351777
0.8663603 0.4879902 0.36855087
0.94718134 0.5074755 0.38088238
0.007843138 0.46372554 0.2009804
0.05269608 0.47732842 0.24136028
0.15649511 0.4935049 0.29828432
0.31145835 0.51176476 0.30992648
0.50147057 0.5227941 0.32671568
0.63492644 0.5331495 0.34742647
0.7504902 0.56102943 0.38161764
0.84503675 0.5788603 0.41121322
0.93529415 0.60294116 0.43235296
0.061887257 0.5998775 0.28921568
0.09640013 0.6018383 0.31087625
0.17291668 0.60916054 0.3386336
0.30700064 0.629182 0.35798097
0.47745097 0.6437501 0.35281867
0.62179846 0.6460325 0.36531863
0.7436582 0.64926475 0.39598653
0.84010416 0.66974574 0.42892158
0.92156863 0.68970597 0.45919117
0.12352941 0.7012255 0.360049
0.1613358 0.7085784 0.37815562
0.22052696 0.71427697 0.3911765
0.32999387 0.72778803 0.41378677
0.43039215 0.7335784 0.4060049
0.6091912 0.7465993 0.40652576
0.7308211 0.741054 0.4213848
0.8288909 0.7481311 0.4417279
0.9137255 0.7595588 0.46642154
0.21568626 0.8039216 0.42696083
0.22970282 0.8086244 0.4333946
0.27809438 0.81323534 0.44234067
0.37320775 0.8098959 0.4621017
0.46090686 0.8151961 0.45508578
0.6014706 0.8314185 0.45779717
0.7198529 0.8387867 0.47049633
0.82417274 0.83610606 0.4939185
0.9106618 0.8406862 0.5088235
0.2794118 0.8990196 0.48137254
0.28921568 0.8980392 0.47377452
0.33578432 0.8980392 0.48137254
0.40588236 0.89950985 0.49705887
0.5 0.90833336 0.51274514
0.5950981 0.91041666 0.50784314
0.73382354 0.92328435 0.53308827
0.83112746 0.9252451 0.5669118
0.9166666 0.93235296 0.59019613
0.003921569 0.0053921575 0.2916667
0.003921569 0.0053921575 0.28412992
0.12205882 0.007843138 0.36066177
0.33890933 0.018688727 0.42984068
0.52181375 0.057843145 0.44215688
0.6598652 0.09944853 0.45183823
0.76017153 0.13492648 0.42132348
0.8537377 0.21207108 0.4142157
0.9436275 0.29803923 0.42401955
0.003921569 0.03707108 0.2923407
0.003921569 0.035784315 0.29162073
0.10798102 0.05883885 0.34574142
0.3275046 0.1040671 0.40674016
0.5063726 0.14203432 0.43667275
0.64858305 0.1687883 0.42976406
0.7585172 0.19551164 0.42159927
0.8571845 0.26302087 0.42425704
0.94307595 0.32757354 0.43069854
0.003921569 0.14852941 0.32389706
0.003921569 0.14427084 0.31556374
0.11691178 0.19172794 0.3595282
0.31787685 0.23033088 0.40433517
0.49552694 0.27162993 0.4331495
0.6278493 0.27391237 0.42539826
0.74592537 0.3056679 0.42787993
0.8501225 0.35219058 0.431296
0.94656867 0.4030637 0.44375
0.003921569 0.31868872 0.33884805
0.003921569 0.3154029 0.34532785
0.10611213 0.34617037 0.38239887
0.32454044 0.35868564 0.41326597
0.48728555 0.37120098 0.4340993
0.62058824 0.39139095 0.4351486
0.7460631 0.42009804 0.44764096
0.85316324 0.4624234 0.46390167
0.935723 0.49546567 0.47591913
0.003921569 0.43651962 0.27867648
0.003921569 0.4416667 0.28636643
0.12463236 0.46562502 0.33762255
0.33177084 0.48615193 0.40661767
0.47634804 0.50281864 0.4416667
0.62303925 0.52230394 0.46317402
0.73988974 0.5464461 0.4819853
0.8404412 0.57784927 0.5025429
0.9274511 0.59558827 0.50784314
0.07254902 0.5863358 0.32322305
0.107498474 0.5861596 0.34908855
0.20795038 0.59903497 0.4
0.33507967 0.6056909 0.45235905
0.46835172 0.6227635 0.46458337
0.6157706 0.6325827 0.47388172
0.7337316 0.6388787 0.48518687
0.8340227 0.6678386 0.5206802
0.91519606 0.68976724 0.54607844
0.16053922 0.6996324 0.4122549
0.18782172 0.70090383 0.42610294
0.25098038 0.70033705 0.45989582
0.35248166 0.712209 0.4804381
0.48351714 0.725 0.5065564
0.6108456 0.73774517 0.50433517
0.7253064 0.73826593 0.5077206
0.8311581 0.74647677 0.530576
0.9137255 0.7598039 0.5539216
0.23639707 0.8050245 0.4856005
0.25176167 0.8009804 0.4910922
0.31058517 0.80807287 0.5061275
0.39067096 0.80912226 0.52045804
0.51568633 0.82564336 0.547304
0.5932292 0.82958025 0.53877914
0.7353861 0.8403186 0.54770225
0.8158394 0.8370558 0.56053156
0.9153186 0.8507965 0.5844976
0.30441177 0.90196085 0.5318628
0.30833334 0.89852947 0.5271446
0.35012257 0.90196085 0.5382353
0.41850492 0.9025123 0.53817403
0.53578436 0.9085784 0.5747549
0.62689954 0.9161764 0.5907476
0.73799014 0.9208333 0.59852946
0.8393383 0.936397 0.6272672
0.920098 0.93823534 0.64117646
0.0 0.0 0.42745098
0.0 0.0 0.43725494
0.04411765 0.010294117 0.4617647
0.23063727 0.035784315 0.51593137
0.48137257 0.08431373 0.5617647
0.6210785 0.15588236 0.57450986
0.7465687 0.19362745 0.58431375
0.8519608 0.21372548 0.5620098
0.93529415 0.26078433 0.5392157
0.0 0.024264706 0.4215686
0.0 0.021507354 0.4257353
0.041789215 0.043321084 0.45857847
0.22729781 0.08155638 0.4997243
0.45894608 0.14595589 0.5560049
0.61798406 0.20281865 0.56976104
0.7356005 0.2425245 0.5759804
0.83826596 0.25569853 0.55566794
0.93308824 0.3009804 0.5431373
0.0 0.11617648 0.445098
0.0 0.11568629 0.44871324
0.059803925 0.16764706 0.46973038
0.23449756 0.1963848 0.49926472
0.45686275 0.25392157 0.5411765
0.6060662 0.29840687 0.5632353
0.73615193 0.31911764 0.5729167
0.8330883 0.327451 0.54767156
0.92352945 0.36862746 0.5401961
0.0 0.2794118 0.46519607
0.0 0.28440565 0.47313112
0.07009804 0.30643386 0.48431376
0.26185662 0.35226718 0.5115197
0.44375 0.37365198 0.53700984
0.60269606 0.41130516 0.5665748
0.7209559 0.4129902 0.5609069
0.82901347 0.4377451 0.55088854
0.9223039 0.46813723 0.55490196
0.0 0.44705883 0.4754902
0.0 0.4444853 0.4764706
0.06764706 0.4754902 0.5041667
0.26519608 0.4892157 0.53063726
0.4647059 0.5004902 0.54509807
0.6116422 0.5156863 0.57279414
0.730147 0.5343138 0.57524514
0.8328432 0.5689951 0.59019613
0.9245098 0.6019608 0.6068628
0.003921569 0.54901963 0.40710783
0.003921569 0.5542586 0.41544122
0.08118872 0.5709559 0.44313723
0.24748775 0.58330274 0.47956496
0.4745098 0.60808825 0.53909314
0.6259498 0.6419424 0.59785545
0.73927706 0.65839463 0.61194855
0.83489585 0.6783701 0.6262561
0.9240197 0.6997549 0.6340686
0.103431374 0.677451 0.41715685
0.13835785 0.6798407 0.43155637
0.21691176 0.6856618 0.46862745
0.35563725 0.6961397 0.52015936
0.49975494 0.71862745 0.57965684
0.62420344 0.74454665 0.61556375
0.73651963 0.74999994 0.623652
0.8362133 0.75545347 0.628799
0.9191177 0.7764707 0.6455883
0.23112747 0.7919117 0.50710785
0.25946692 0.79748774 0.52205884
0.31139708 0.796875 0.5414216
0.4119179 0.7998467 0.5756434
0.532353 0.81740195 0.6060049
0.6546569 0.8397978 0.6543505
0.74417895 0.8453431 0.64938724
0.83627456 0.8448223 0.660815
0.91568625 0.85465676 0.66176474
0.3019608 0.89411753 0.5666667
0.32156864 0.8980392 0.57303923
0.36225492 0.89705884 0.5818628
0.4382353 0.91053927 0.6019608
0.57156867 0.91568625 0.6450981
0.67156863 0.9247549 0.6752451
0.7509804 0.9343137 0.6745098
0.8482843 0.9409314 0.6867647
0.9274511 0.9392157 0.7078432
0.0 0.0053921575 0.54901963
0.0 0.007843138 0.5629289
0.019485295 0.016789217 0.57757354
0.13431373 0.051960785 0.6137868
0.4022059 0.10882353 0.64950985
0.58719367 0.17095588 0.6755515
0.7172794 0.23235296 0.6930147
0.82616425 0.26979166 0.6818628
0.92156863 0.2916667 0.6867647
0.0 0.03351716 0.5398284
0.0 0.033409927 0.5532476
0.020772059 0.04866728 0.58507967
0.14490657 0.08393842 0.6075521
0.39586395 0.14693628 0.6417586
0.58609074 0.214568 0.66427696
0.7114277 0.2686275 0.681296
0.8257889 0.30722272 0.6867647
0.92156863 0.31029412 0.67855394
0.0 0.116053924 0.5579657
0.0 0.12118566 0.558318
0.035631128 0.16648285 0.58777577
0.17538297 0.20124081 0.6066177
0.38750002 0.23995098 0.633027
0.57659316 0.30215994 0.6633272
0.70144 0.3393076 0.67009807
0.81836706 0.35954353 0.68374693
0.9155637 0.3692402 0.6719363
0.0 0.25 0.57640934
0.003921569 0.26649052 0.5878064
0.06487439 0.30217525 0.6054841
0.22105546 0.3460861 0.60940564
0.40171564 0.36326593 0.63186276
0.578125 0.40872398 0.65470284
0.69825375 0.43509492 0.66920954
0.81715685 0.4443627 0.6787838
0.9091912 0.44503674 0.6622549
0.0 0.4254902 0.5960785
0.009068628 0.44200367 0.6011642
0.08995098 0.46072304 0.6231618
0.25980395 0.4742647 0.62689954
0.43615198 0.5006128 0.646201
0.58866423 0.52254903 0.66789216
0.70753676 0.54332113 0.68192405
0.8143076 0.54178923 0.6791667
0.9071079 0.55147064 0.67034316
0.003921569 0.5745098 0.59828436
0.023161767 0.57984835 0.61193323
0.097058825 0.5860447 0.62438726
0.2419271 0.60019916 0.63589925
0.4423713 0.61127454 0.64975494
0.629205 0.6461321 0.69126076
0.73333335 0.6550705 0.7033088
0.8339231 0.6636489 0.6975797
0.92310053 0.6817402 0.70251215
0.003921569 0.661152 0.5209559
0.003921569 0.6592219 0.5206955
0.053921565 0.6761642 0.55330884
0.20306373 0.68126535 0.56505823
0.40980393 0.6857843 0.5918505
0.6374388 0.7382353 0.6814645
0.74090075 0.7535233 0.7102022
0.84630823 0.7674173 0.73118865
0.9205883 0.7834559 0.7295343
0.1262255 0.7766544 0.5106618
0.16985293 0.77906704 0.51996017
0.24321386 0.78291976 0.5459406
0.35788912 0.7868643 0.5824065
0.5267157 0.8071385 0.6435662
0.66671264 0.8373162 0.7122396
0.75450367 0.85186887 0.7328278
0.847955 0.85739124 0.73563874
0.93125004 0.8655637 0.7415441
0.2661765 0.890196 0.58431375
0.29528186 0.89687496 0.59705883
0.34938726 0.89129895 0.6093137
0.43333334 0.90533096 0.64411765
0.5703432 0.91568625 0.68897057
0.6900735 0.9224878 0.73376226
0.77144605 0.94080883 0.75735295
0.8581495 0.9490196 0.76979166
0.93480384 0.9504902 0.7779412
0.0 0.024509804 0.67156863
0.0 0.02745098 0.68235296
0.013725491 0.038235296 0.6960784
0.09963235 0.070710786 0.704902
0.31617647 0.121568635 0.72892153
0.5356618 0.20416665 0.7480392
0.6786765 0.26127452 0.7612745
0.7922794 0.30563727 0.7676471
0.8980392 0.33823532 0.7794118
0.0 0.04301471 0.67328435
0.0 0.043612134 0.6752604
0.021231618 0.069975495 0.6887868
0.11043199 0.10565257 0.70157784
0.3178309 0.16194853 0.723652
0.53700984 0.23566179 0.7465687
0.67622554 0.29558825 0.7571691
0.7891698 0.3337776 0.76657474
0.89436275 0.35477942 0.7715686
0.0 0.14828432 0.6732843
0.0038296569 0.15759805 0.67815566
0.031862747 0.19583334 0.7004901
0.13768382 0.21482845 0.7066483
0.3438726 0.23872548 0.7180147
0.5335479 0.30333945 0.73964465
0.67990196 0.35686278 0.7571691
0.7922794 0.39264706 0.76758575
0.8931372 0.40686274 0.7752452
0.004534314 0.27487746 0.68333334
0.022012869 0.29477635 0.6951746
0.06176471 0.31537992 0.70162386
0.1920343 0.36027884 0.7124847
0.38719362 0.378799 0.7198529
0.5438726 0.40474877 0.7316023
0.67460173 0.4420037 0.74754906
0.78420657 0.46878064 0.76409316
0.8939951 0.48039216 0.76887256
0.024019606 0.43529412 0.704902
0.042279415 0.4411152 0.7101103
0.11789216 0.4546568 0.7153186
0.26623777 0.48020834 0.72224265
0.42475492 0.50686276 0.7281863
0.57126224 0.5256128 0.74607843
0.6964462 0.5534314 0.76176476
0.7946079 0.57126224 0.7724265
0.89950985 0.5735294 0.77794117
0.0377451 0.5780637 0.70698535
0.055009194 0.5846814 0.7198223
0.13746937 0.58719367 0.72230387
0.27127758 0.6016544 0.7284314
0.44325984 0.6107231 0.7308211
0.6120098 0.65729165 0.7673867
0.72089463 0.66755515 0.77401954
0.8222426 0.6761489 0.78567713
0.90404415 0.6634804 0.7732843
0.04656863 0.69460785 0.70906866
0.078431375 0.6953431 0.7117648
0.1569853 0.70404404 0.72181374
0.26234683 0.7026042 0.7201287
0.4339461 0.7156863 0.7360294
0.61170346 0.74181986 0.7633578
0.7425858 0.75557595 0.7909314
0.8368566 0.7582414 0.797549
0.92254907 0.76691175 0.78651965
0.003921569 0.7552695 0.6242647
0.007873775 0.76314336 0.610723
0.050582115 0.77257967 0.6350184
0.17305453 0.7831495 0.6572151
0.34761027 0.79019606 0.66427696
0.5801471 0.8009804 0.7077359
0.7579963 0.8373162 0.78281254
0.84966296 0.8535845 0.809758
0.9319853 0.8672794 0.82034314
0.08431373 0.8696078 0.5803922
0.12463236 0.8731618 0.59080887
0.1990196 0.88186276 0.60808825
0.31409314 0.8887254 0.6311275
0.49068627 0.8955883 0.68480396
0.6621324 0.91727936 0.7566176
0.7926471 0.94117653 0.81715685
0.85649514 0.94289213 0.8306373
0.94509804 0.95392156 0.84607846
0.0 0.052941177 0.79803914
0.0034313728 0.07120098 0.81188726
0.014705883 0.08455883 0.81973046
0.080698535 0.12971815 0.82046574
0.26838237 0.16397059 0.8276961
0.4875613 0.23431373 0.8370711
0.6504902 0.3009804 0.84816176
0.7686887 0.34963235 0.85159314
0.86274505 0.38921574 0.85637254
0.0 0.10790441 0.7803922
0.003921569 0.11785387 0.80271137
0.018627452 0.1412837 0.82015926
0.08792892 0.17398132 0.81656706
0.29099268 0.19430146 0.82334554
0.4908318 0.25561428 0.82768077
0.64840686 0.32749695 0.8527113
0.7634344 0.37015933 0.8462699
0.8657476 0.40790442 0.855576
0.003921569 0.18970588 0.8020834
0.010891545 0.2001685 0.8030944
0.03627451 0.23746938 0.8130209
0.12840074 0.2598346 0.8186428
0.31844363 0.28014708 0.8200367
0.50124085 0.32248774 0.83365506
0.6601716 0.39221814 0.8387867
0.7689798 0.4265778 0.848943
0.8658089 0.45747548 0.8520833
0.018321078 0.31648284 0.823223
0.028393079 0.32588083 0.8196844
0.07522978 0.35775122 0.81590086
0.17102483 0.38598344 0.82128525
0.36348042 0.40661767 0.8241116
0.52087164 0.41156554 0.8305683
0.66429234 0.46300554 0.8409927
0.77837014 0.50585175 0.84303766
0.8645834 0.5325368 0.86182594
0.039705884 0.4436274 0.82500005
0.06449142 0.4499387 0.81835175
0.12377451 0.4701593 0.8267769
0.23278187 0.4905331 0.82573533
0.4047794 0.5178922 0.8311274
0.5683824 0.5507966 0.8438726
0.691299 0.5704657 0.8447304
0.7914215 0.5998162 0.85637254
0.8727941 0.60882354 0.86200976
0.075980395 0.5820466 0.82463247
0.10888481 0.5866958 0.8314951
0.16821384 0.5873774 0.8314798
0.2823836 0.59700525 0.8299709
0.43694857 0.616391 0.8360294
0.60036 0.6557368 0.8525123
0.70465684 0.6697304 0.85438114
0.80700064 0.69099265 0.8608149
0.8927696 0.7009804 0.871875
0.09509804 0.70073533 0.8231617
0.12375919 0.7010264 0.8328278
0.17824756 0.70916057 0.8367647
0.27199757 0.7044577 0.8339308
0.43792892 0.71862745 0.845098
0.6075674 0.7416667 0.8494792
0.743505 0.7678615 0.87613356
0.82673097 0.77146137 0.8731465
0.9102941 0.7710784 0.87549025
0.116482854 0.80980396 0.8133579
0.1497013 0.82277876 0.81548715
0.19117647 0.8168046 0.82405025
0.2691866 0.8094516 0.83076745
0.3949142 0.82159925 0.8332415
0.5905408 0.83439803 0.8514017
0.73687196 0.8487898 0.8650888
0.84783244 0.85016084 0.883678
0.9294118 0.8498774 0.8808211
0.007843138 0.87941176 0.7367647
0.008333334 0.87984073 0.7337622
0.036397062 0.88762254 0.74816173
0.13284315 0.8958946 0.7526348
0.2644608 0.9026961 0.7678922
0.4793505 0.904228 0.7813726
0.7332108 0.9294118 0.828554
0.88780636 0.9495098 0.9034926
0.9568627 0.9568627 0.9264706
0.003921569 0.13725491 0.9098039
0.003921569 0.15637255 0.9137255
0.019607844 0.17352942 0.9205883
0.06764706 0.18431373 0.920098
0.25098038 0.21176471 0.91960776
0.44117647 0.26029414 0.93039215
0.61764705 0.3362745 0.9254902
0.7509804 0.4039216 0.9289216
0.84313726 0.4392157 0.9294118
0.003921569 0.16911766 0.9142156
0.003921569 0.17947304 0.923652
0.022916667 0.18860294 0.9241421
0.089705884 0.2259804 0.920098
0.2639706 0.24240196 0.91789216
0.45716912 0.2865809 0.9228553
0.6285539 0.36262256 0.9284314
0.75085783 0.42261028 0.9250613
0.8392157 0.45098042 0.92598045
0.007843138 0.2509804 0.92156863
0.011764706 0.24938728 0.9216912
0.047058824 0.28259805 0.9183823
0.11409314 0.29950982 0.9198529
0.30784315 0.32107845 0.920098
0.46335787 0.33026963 0.9234069
0.6301471 0.4090686 0.9252451
0.7582108 0.46237746 0.92536765
0.8509804 0.4960785 0.9294118
0.018137256 0.34558824 0.92156863
0.037254903 0.3617647 0.92107844
0.0752451 0.3819853 0.9194852
0.16047795 0.39865196 0.92616415
0.3387255 0.4203431 0.9235294
0.48903185 0.4220588 0.9224878
0.63774514 0.4670343 0.92512256
0.76537997 0.53063726 0.9341913
0.85882354 0.5593138 0.9294118
0.060784318 0.45882356 0.9294118
0.07818627 0.47083336 0.9289216
0.12794119 0.4857843 0.9274511
0.21151958 0.5019608 0.93088233
0.3539216 0.52254903 0.9294118
0.5470588 0.5583334 0.93406874
0.67058825 0.5647059 0.93039215
0.7816177 0.6102941 0.9313726
0.87058824 0.63725495 0.93333334
0.08774509 0.57500005 0.93088233
0.11341912 0.5902574 0.93333334
0.16997549 0.58982843 0.92916673
0.25435048 0.6010417 0.93333334
0.3963235 0.6161765 0.92696077
0.57843137 0.65404415 0.9344976
0.69779414 0.6758579 0.93762255
0.80772066 0.6923407 0.9436275
0.890196 0.71274513 0.94656867
0.11764707 0.69803923 0.9294118
0.13517158 0.6921569 0.9294118
0.1764706 0.6919117 0.9294118
0.26862746 0.7009804 0.93357843
0.43725488 0.7156863 0.9328431
0.59718144 0.7427696 0.93799025
0.7193628 0.764951 0.94681364
0.8186275 0.7715686 0.9498775
0.90588236 0.787255 0.9529412
0.1254902 0.83382356 0.925
0.14325982 0.83982843 0.9289216
0.1829657 0.83725494 0.93137246
0.25208333 0.8306373 0.93333334
0.37965685 0.8374999 0.9370098
0.5759804 0.8520833 0.9468749
0.7453432 0.8653186 0.957598
0.8604779 0.8799633 0.95649505
0.93480384 0.8882353 0.9647059
0.105882354 0.9568627 0.9098039
0.13333334 0.94509804 0.90637255
0.17843139 0.95490193 0.9098039
0.24950981 0.9607843 0.91225487
0.35490197 0.9607843 0.92156863
0.5794118 0.9647059 0.93088233
0.759804 0.9696079 0.95098037
0.9191177 0.98039216 0.9691177
0.98431367 0.9764706 0.98039216
