src/assets/luts/大师配方/大师·暮.cube
#Created by: Adobe Photoshop Export Color Lookup Plugin
#Copyright: (C) Copyright 2025 avin.hua
TITLE "大师-幕-傍晚"
#LUT size
LUT_3D_SIZE 8
#data domain
#LUT data points
DOMAIN_MIN 0.000000 0.000000 0.000000
DOMAIN_MAX 0.903226 0.903226 0.903226
0.023346 0.007996 0.000000
0.145660 0.000000 0.000000
0.283966 0.000000 0.000000
0.454224 0.000000 0.000000
0.637817 0.000000 0.000000
0.810883 0.000000 0.000000
0.951233 0.000000 0.000000
1.000000 0.000000 0.000000
0.000000 0.111633 0.000000
0.137817 0.114502 0.000000
0.283600 0.084534 0.000000
0.451874 0.009857 0.000000
0.635925 0.000000 0.000000
0.809540 0.000000 0.000000
0.950226 0.000000 0.000000
1.000000 0.000000 0.000000
0.000000 0.236328 0.000000
0.050934 0.241913 0.000000
0.272308 0.244537 0.000000
0.453583 0.207458 0.000000
0.637939 0.153625 0.000000
0.809296 0.039001 0.000000
0.947632 0.000000 0.000000
1.000000 0.000000 0.000000
0.000000 0.393829 0.000000
0.000000 0.394257 0.000000
0.184204 0.409027 0.000000
0.427246 0.397858 0.000000
0.622833 0.364899 0.000000
0.798828 0.328003 0.000000
0.939392 0.287750 0.000000
1.000000 0.247253 0.000000
0.000000 0.566193 0.000000
0.000000 0.565643 0.000000
0.000000 0.578461 0.000000
0.355957 0.576996 0.000000
0.593079 0.564484 0.000000
0.779083 0.537689 0.000000
0.923981 0.513336 0.000000
1.000000 0.492004 0.000000
0.000000 0.730652 0.000000
0.000000 0.730286 0.000000
0.000000 0.737213 0.000000
0.218536 0.744812 0.000000
0.539337 0.735657 0.000000
0.749634 0.723389 0.000000
0.901520 0.703796 0.000000
1.000000 0.687805 0.000000
0.000000 0.864990 0.000000
0.000000 0.864746 0.000000
0.000000 0.866943 0.000000
0.000000 0.880798 0.000000
0.468018 0.873718 0.000000
0.710541 0.863678 0.000000
0.876617 0.853210 0.000000
0.991638 0.839386 0.000000
0.000000 0.966797 0.000000
0.000000 0.966614 0.000000
0.000000 0.965668 0.000000
0.000000 0.983490 0.000000
0.391144 0.977539 0.000000
0.675140 0.968689 0.000000
0.848907 0.959808 0.000000
0.972290 0.951569 0.000000
0.018982 0.004303 0.111389
0.143036 0.000000 0.103790
0.281372 0.000000 0.086334
0.453461 0.000000 0.027863
0.637817 0.000000 0.000000
0.810883 0.000000 0.000000
0.951233 0.000000 0.000000
1.000000 0.000000 0.000000
0.000000 0.111633 0.096008
0.128815 0.105865 0.090302
0.277588 0.077057 0.061951
0.450928 0.000000 0.000000
0.634979 0.000000 0.000000
0.808014 0.000000 0.000000
0.948395 0.000000 0.000000
1.000000 0.000000 0.000000
0.000000 0.236328 0.061432
0.047943 0.236694 0.033569
0.266388 0.238861 0.000000
0.448303 0.198669 0.000000
0.629883 0.145996 0.000000
0.804016 0.012543 0.000000
0.945038 0.000000 0.000000
1.000000 0.000000 0.000000
0.000000 0.393829 0.000000
0.000000 0.394653 0.000000
0.169281 0.400116 0.000000
0.432159 0.402863 0.000000
0.635132 0.361725 0.000000
0.809906 0.317932 0.000000
0.949280 0.273254 0.000000
1.000000 0.228973 0.000000
0.000000 0.566193 0.000000
0.000000 0.566681 0.000000
0.000000 0.566406 0.000000
0.344727 0.586945 0.000000
0.611481 0.582977 0.000000
0.810364 0.547272 0.000000
0.956268 0.512421 0.000000
1.000000 0.484802 0.000000
0.000000 0.730652 0.000000
0.000000 0.730774 0.000000
0.000000 0.729492 0.000000
0.191742 0.748016 0.000000
0.544708 0.767487 0.000000
0.780823 0.755127 0.000000
0.945648 0.728394 0.000000
1.000000 0.704163 0.000000
0.000000 0.864990 0.000000
0.000000 0.864899 0.000000
0.000000 0.863983 0.000000
0.000000 0.876862 0.000000
0.453430 0.899323 0.000000
0.732025 0.907562 0.000000
0.918091 0.895905 0.000000
1.000000 0.874390 0.000000
0.000000 0.966797 0.000000
0.000000 0.966583 0.000000
0.000000 0.965851 0.000000
0.000000 0.974762 0.000000
0.364807 0.999268 0.000000
0.682251 1.000000 0.000000
0.881287 1.000000 0.000000
1.000000 1.000000 0.000000
0.013580 0.000000 0.250977
0.141296 0.000000 0.246124
0.278168 0.000000 0.235779
0.447296 0.000000 0.217651
0.633392 0.000000 0.177673
0.808044 0.000000 0.100769
0.949585 0.000000 0.000000
1.000000 0.000000 0.000000
0.000000 0.110046 0.242767
0.113098 0.091034 0.244568
0.275818 0.073181 0.233490
0.448151 0.000000 0.207031
0.634064 0.000000 0.159058
0.808014 0.000000 0.064697
0.948395 0.000000 0.000000
1.000000 0.000000 0.000000
0.000000 0.236328 0.221588
0.047943 0.236694 0.221954
0.253021 0.225800 0.210876
0.440002 0.193115 0.177734
0.628662 0.124023 0.108246
0.803101 0.000000 0.000000
0.943420 0.000000 0.000000
1.000000 0.000000 0.000000
0.000000 0.393829 0.181305
0.000000 0.394653 0.176453
0.165588 0.394043 0.142883
0.425201 0.395752 0.021637
0.623810 0.350494 0.000000
0.796570 0.309052 0.000000
0.935394 0.265717 0.000000
1.000000 0.217316 0.000000
0.000000 0.566193 0.081421
0.000000 0.566681 0.067108
0.000000 0.567078 0.000000
0.326019 0.573730 0.000000
0.603394 0.574860 0.000000
0.798096 0.534515 0.000000
0.941406 0.500732 0.000000
1.000000 0.474426 0.000000
0.000000 0.730652 0.000000
0.000000 0.730774 0.000000
0.000000 0.730865 0.000000
0.173004 0.733734 0.000000
0.525818 0.753143 0.000000
0.771729 0.745880 0.000000
0.936432 0.717010 0.000000
1.000000 0.691132 0.000000
0.000000 0.864990 0.000000
0.000000 0.864899 0.000000
0.000000 0.864563 0.000000
0.000000 0.861786 0.000000
0.436951 0.884308 0.000000
0.720490 0.897766 0.000000
0.908447 0.886047 0.000000
1.000000 0.865234 0.000000
0.000000 0.966797 0.000000
0.000000 0.966583 0.000000
0.000000 0.965912 0.000000
0.000000 0.963623 0.000000
0.349518 0.983704 0.000000
0.664093 1.000000 0.000000
0.872101 1.000000 0.000000
1.000000 0.992401 0.000000
0.010223 0.000000 0.430237
0.137329 0.000000 0.428802
0.277832 0.000000 0.418396
0.444763 0.000000 0.405518
0.625458 0.000000 0.387939
0.800903 0.000000 0.361359
0.942657 0.000000 0.327667
1.000000 0.000000 0.293457
0.000000 0.106476 0.426147
0.104614 0.082886 0.426239
0.267944 0.062775 0.419800
0.444244 0.000000 0.404999
0.626587 0.000000 0.383698
0.801910 0.000000 0.353088
0.943726 0.000000 0.316711
1.000000 0.000000 0.279602
0.000000 0.235962 0.410553
0.032898 0.229187 0.413330
0.230133 0.203522 0.415009
0.439117 0.183563 0.399597
0.624969 0.127472 0.368988
0.801208 0.000000 0.331024
0.943451 0.000000 0.287933
1.000000 0.000000 0.245514
0.000000 0.393829 0.383148
0.000000 0.394653 0.384186
0.165588 0.394043 0.383392
0.407227 0.377991 0.367004
0.610504 0.346893 0.334839
0.791046 0.297882 0.284454
0.933411 0.241913 0.227295
1.000000 0.181366 0.165894
0.000000 0.566193 0.340057
0.000000 0.566681 0.339966
0.000000 0.567078 0.333038
0.324188 0.563721 0.298737
0.593597 0.564880 0.207428
0.782684 0.520996 0.174896
0.924805 0.489594 0.095276
1.000000 0.464478 0.000000
0.000000 0.730652 0.282440
0.000000 0.730774 0.280090
0.000000 0.730865 0.266632
0.191772 0.729431 0.201263
0.501678 0.736206 0.000000
0.761322 0.735291 0.000000
0.923279 0.700714 0.000000
1.000000 0.674713 0.000000
0.000000 0.864990 0.196045
0.000000 0.864899 0.192505
0.000000 0.864563 0.167480
0.000000 0.863007 0.000000
0.415375 0.867188 0.000000
0.700439 0.883545 0.000000
0.896881 0.874176 0.000000
1.000000 0.850189 0.000000
0.000000 0.966797 0.050476
0.000000 0.966583 0.039459
0.000000 0.965912 0.000000
0.000000 0.963928 0.000000
0.329803 0.964722 0.000000
0.639709 0.983795 0.000000
0.857056 0.988922 0.000000
0.999359 0.979553 0.000000
0.006561 0.000000 0.628754
0.133606 0.000000 0.627991
0.275452 0.000000 0.621887
0.445160 0.000000 0.607178
0.624359 0.000000 0.593811
0.793640 0.000000 0.577911
0.934296 0.000000 0.561768
1.000000 0.000000 0.545197
0.000000 0.102661 0.626862
0.099518 0.078217 0.625366
0.261749 0.055237 0.622803
0.441071 0.000000 0.607666
0.623962 0.000000 0.593414
0.793152 0.000000 0.575470
0.934845 0.000000 0.557892
1.000000 0.000000 0.540314
0.000000 0.233795 0.615814
0.023132 0.223389 0.618134
0.219543 0.193024 0.618134
0.427155 0.171814 0.608093
0.621796 0.124603 0.591156
0.793152 0.000000 0.568542
0.934753 0.000000 0.546936
1.000000 0.000000 0.526917
0.000000 0.393707 0.592133
0.000000 0.391449 0.594666
0.153076 0.382263 0.597839
0.381531 0.352417 0.597839
0.610840 0.333740 0.579590
0.786804 0.297791 0.548584
0.930786 0.242767 0.520599
1.000000 0.183533 0.495972
0.000000 0.566193 0.562714
0.000000 0.566681 0.563171
0.000000 0.567078 0.563599
0.324188 0.563721 0.559998
0.573547 0.544617 0.540131
0.766205 0.518707 0.513000
0.914490 0.487213 0.480103
1.000000 0.457947 0.449707
0.000000 0.730652 0.520203
0.000000 0.730774 0.520386
0.000000 0.730865 0.519012
0.191772 0.729431 0.510315
0.504272 0.722229 0.481964
0.748993 0.722748 0.408630
0.903534 0.687103 0.401215
1.000000 0.664307 0.372894
0.000000 0.864990 0.484589
0.000000 0.864899 0.485077
0.000000 0.864563 0.481110
0.000000 0.863007 0.466614
0.433136 0.858215 0.423126
0.675110 0.864380 0.321960
0.884491 0.861450 0.237793
1.000000 0.833252 0.185730
0.000000 0.966797 0.449005
0.000000 0.966583 0.449280
0.000000 0.965912 0.443634
0.000000 0.963928 0.424683
0.360901 0.959412 0.366791
0.618835 0.962830 0.248444
0.839325 0.975433 0.000000
0.986053 0.965820 0.000000
0.003326 0.000000 0.820068
0.130096 0.000000 0.819519
0.271820 0.000000 0.816345
0.444885 0.000000 0.803680
0.624054 0.000000 0.786102
0.793640 0.000000 0.775024
0.930756 0.000000 0.762970
1.000000 0.000000 0.751709
0.000000 0.099274 0.818726
0.095581 0.074463 0.816650
0.256958 0.051270 0.814758
0.438477 0.000000 0.803375
0.622467 0.000000 0.787292
0.793182 0.000000 0.774536
0.930176 0.000000 0.761292
1.000000 0.000000 0.749542
0.000000 0.230560 0.811279
0.017120 0.218658 0.812347
0.213226 0.187012 0.810425
0.419189 0.163116 0.804932
0.615601 0.119171 0.786285
0.791443 0.000000 0.772705
0.928314 0.000000 0.756287
1.000000 0.000000 0.743591
0.000000 0.393768 0.792114
0.000000 0.388855 0.794464
0.142975 0.374786 0.797058
0.367981 0.338959 0.796356
0.596405 0.319519 0.782806
0.784943 0.289368 0.765839
0.922546 0.251709 0.743622
1.000000 0.195343 0.728577
0.000000 0.565887 0.764221
0.000000 0.564575 0.764557
0.000000 0.561096 0.767334
0.310333 0.549255 0.768951
0.550507 0.521393 0.765228
0.767059 0.506073 0.746490
0.910828 0.484528 0.720612
1.000000 0.456055 0.701202
0.000000 0.730652 0.735535
0.000000 0.730774 0.735657
0.000000 0.730865 0.735748
0.191772 0.729431 0.734070
0.504272 0.722229 0.726562
0.730286 0.703522 0.706940
0.886963 0.684814 0.687073
1.000000 0.665802 0.667175
0.000000 0.864990 0.703247
0.000000 0.864899 0.702148
0.000000 0.864563 0.698761
0.000000 0.863007 0.693420
0.433136 0.858215 0.684723
0.682343 0.848053 0.666382
0.871552 0.848145 0.613464
0.988983 0.822266 0.610260
0.000000 0.966797 0.673157
0.000000 0.966583 0.674683
0.000000 0.965912 0.674255
0.000000 0.963928 0.668060
0.360901 0.959412 0.655121
0.639557 0.951477 0.629974
0.817719 0.956024 0.562836
0.973450 0.952820 0.524384
0.000488 0.000000 0.977325
0.127136 0.000000 0.976929
0.268036 0.000000 0.975586
0.443085 0.000000 0.962555
0.625580 0.000000 0.948273
0.793579 0.000000 0.933807
0.930756 0.000000 0.924164
1.000000 0.000000 0.915527
0.000000 0.096649 0.976288
0.092590 0.071594 0.973938
0.253662 0.048187 0.972382
0.435547 0.000000 0.963898
0.622375 0.000000 0.948822
0.792053 0.000000 0.933289
0.930176 0.000000 0.923584
1.000000 0.000000 0.913971
0.000000 0.227325 0.970947
0.013702 0.215393 0.970459
0.209259 0.183075 0.967743
0.414124 0.158173 0.964325
0.612732 0.109558 0.948975
0.787506 0.000000 0.931274
0.928406 0.000000 0.921692
1.000000 0.000000 0.910339
0.000000 0.392120 0.954468
0.000000 0.385925 0.956787
0.135406 0.369446 0.959137
0.360718 0.331635 0.955353
0.587524 0.310730 0.945435
0.776428 0.284088 0.927094
0.923187 0.242462 0.915863
1.000000 0.199768 0.900696
0.000000 0.566864 0.928864
0.000000 0.564636 0.930237
0.000000 0.557983 0.932678
0.299896 0.540466 0.935364
0.536865 0.507660 0.931641
0.753601 0.492188 0.916321
0.910370 0.474060 0.901703
1.000000 0.457245 0.882782
0.000000 0.730591 0.902283
0.000000 0.729645 0.902344
0.000000 0.727142 0.902313
0.186218 0.721069 0.902557
0.490234 0.708527 0.901245
0.714539 0.687653 0.892731
0.887207 0.676880 0.876556
0.997284 0.662872 0.858093
0.000000 0.864990 0.877533
0.000000 0.864899 0.877441
0.000000 0.864563 0.877106
0.000000 0.863007 0.875519
0.433136 0.858215 0.870392
0.682343 0.848053 0.859589
0.857178 0.833344 0.843933
0.975433 0.820282 0.830200
0.000000 0.966797 0.854248
0.000000 0.966583 0.853424
0.000000 0.965912 0.851044
0.000000 0.963928 0.845581
0.360901 0.959412 0.836090
0.639557 0.951477 0.829010
0.826843 0.941620 0.818604
0.962524 0.941589 0.782135
0.000000 0.000000 1.000000
0.126251 0.000000 1.000000
0.266693 0.000000 1.000000
0.441254 0.000000 1.000000
0.625183 0.000000 1.000000
0.793427 0.000000 1.000000
0.930756 0.000000 1.000000
1.000000 0.000000 1.000000
0.000000 0.095795 1.000000
0.090332 0.069458 1.000000
0.251343 0.045776 1.000000
0.433197 0.000000 1.000000
0.621582 0.000000 1.000000
0.792267 0.000000 1.000000
0.929565 0.000000 1.000000
1.000000 0.000000 1.000000
0.000000 0.225342 1.000000
0.011047 0.213165 1.000000
0.206482 0.180450 1.000000
0.411041 0.155487 1.000000
0.610291 0.105499 1.000000
0.786804 0.000000 1.000000
0.926239 0.000000 1.000000
1.000000 0.000000 1.000000
0.000000 0.390564 1.000000
0.000000 0.383575 1.000000
0.132446 0.366333 1.000000
0.356140 0.327271 1.000000
0.581940 0.304535 1.000000
0.772705 0.277405 1.000000
0.917633 0.240662 1.000000
1.000000 0.193054 1.000000
0.000000 0.567017 1.000000
0.000000 0.564056 1.000000
0.000000 0.555634 1.000000
0.293060 0.534760 1.000000
0.528870 0.499695 1.000000
0.744781 0.482941 1.000000
0.901245 0.468781 1.000000
1.000000 0.448090 1.000000
0.000000 0.730408 1.000000
0.000000 0.729065 1.000000
0.000000 0.726410 1.000000
0.174286 0.717163 1.000000
0.480774 0.699646 1.000000
0.703613 0.676483 1.000000
0.877502 0.665527 1.000000
0.996857 0.655151 0.996399
0.000000 0.864960 1.000000
0.000000 0.864258 1.000000
0.000000 0.862366 1.000000
0.000000 0.857697 1.000000
0.428436 0.849182 0.998962
0.671570 0.837952 0.993500
0.848450 0.824493 0.984314
0.974426 0.817169 0.971863
0.000000 0.966797 0.985809
0.000000 0.966583 0.985535
0.000000 0.965912 0.984650
0.000000 0.963928 0.982635
0.360901 0.959412 0.977783
0.639557 0.951477 0.969482
0.826843 0.941620 0.958923
0.952911 0.931732 0.948364
