src/assets/luts/大师配方/大师·晨.cube
#Created by: Adobe Photoshop Export Color Lookup Plugin
#Copyright: (C) Copyright 2025 avin.hua
TITLE "大师-晨-清晨"
#LUT size
LUT_3D_SIZE 32
#data domain
DOMAIN_MIN 0.0 0.0 0.0
DOMAIN_MAX 1.0 1.0 1.0
#LUT data points
0.048096 0.048096 0.048096
0.079346 0.049835 0.049835
0.111053 0.051208 0.051208
0.143127 0.051910 0.051910
0.176086 0.051971 0.051971
0.210266 0.051331 0.051331
0.245850 0.050049 0.050049
0.283173 0.047974 0.047974
0.322571 0.045227 0.045227
0.363831 0.041595 0.041595
0.406769 0.036835 0.036835
0.451050 0.030762 0.030762
0.496368 0.024658 0.024658
0.541077 0.023987 0.023987
0.584747 0.021637 0.021637
0.627838 0.019348 0.019348
0.670105 0.017120 0.017120
0.711182 0.014954 0.014954
0.750793 0.012878 0.012878
0.788727 0.010895 0.010895
0.824646 0.009033 0.009033
0.858337 0.007263 0.007263
0.889679 0.005646 0.005646
0.918976 0.004150 0.004150
0.946442 0.002747 0.002747
0.972321 0.001404 0.001404
0.996979 0.000153 0.000153
1.000000 0.000000 0.000000
1.000000 0.000000 0.000000
1.000000 0.000000 0.000000
1.000000 0.000000 0.000000
1.000000 0.000000 0.000000
0.045166 0.077087 0.045166
0.077423 0.077423 0.051880
0.109314 0.081360 0.053131
0.141846 0.081940 0.051483
0.175140 0.081512 0.049286
0.209381 0.081940 0.048523
0.245087 0.082031 0.047058
0.282501 0.081726 0.044861
0.321960 0.080841 0.042175
0.363281 0.079224 0.038544
0.406281 0.076660 0.033691
0.450592 0.072906 0.027557
0.496033 0.067841 0.024658
0.540833 0.058228 0.023987
0.584503 0.044769 0.021667
0.627594 0.030151 0.019379
0.669861 0.017120 0.017120
0.710999 0.014954 0.014954
0.750610 0.012878 0.012878
0.788544 0.010895 0.010895
0.824463 0.009033 0.009033
0.858185 0.007294 0.007294
0.889526 0.005676 0.005676
0.918823 0.004150 0.004150
0.946289 0.002747 0.002747
0.972168 0.001434 0.001434
0.996857 0.000153 0.000153
1.000000 0.000000 0.000000
1.000000 0.000000 0.000000
1.000000 0.000000 0.000000
1.000000 0.000000 0.000000
1.000000 0.000000 0.000000
0.040802 0.106598 0.040802
0.077850 0.107239 0.047699
0.107391 0.107391 0.054382
0.139709 0.112671 0.057465
0.173157 0.114960 0.055115
0.207855 0.115570 0.051697
0.243835 0.115112 0.047363
0.281586 0.113922 0.042175
0.321167 0.113190 0.038025
0.362610 0.112915 0.034332
0.405640 0.112091 0.029297
0.450012 0.110596 0.023346
0.495636 0.108673 0.024628
0.540466 0.103180 0.024017
0.584137 0.095062 0.021667
0.627258 0.085693 0.019379
0.669617 0.074615 0.017151
0.710693 0.061584 0.014984
0.750366 0.045746 0.012909
0.788330 0.028198 0.010925
0.824249 0.010437 0.009033
0.857971 0.007294 0.007294
0.889343 0.005676 0.005676
0.918610 0.004181 0.004181
0.946075 0.002747 0.002747
0.972015 0.001434 0.001434
0.996674 0.000183 0.000183
1.000000 0.000000 0.000000
1.000000 0.000000 0.000000
1.000000 0.000000 0.000000
1.000000 0.004120 0.000000
1.000000 0.004120 0.000000
0.035095 0.136414 0.035095
0.072113 0.136688 0.037781
0.110474 0.138214 0.053101
0.137909 0.137909 0.055786
0.171112 0.143860 0.060547
0.205811 0.147247 0.057831
0.241974 0.148865 0.053284
0.279816 0.149414 0.047913
0.319641 0.149078 0.041595
0.361359 0.147980 0.034576
0.404663 0.146057 0.026123
0.449371 0.144562 0.022278
0.495117 0.143982 0.024597
0.539978 0.140289 0.024048
0.583740 0.134521 0.021698
0.626923 0.127838 0.019409
0.669250 0.120758 0.017151
0.710358 0.112732 0.014984
0.750000 0.103882 0.012909
0.788025 0.094238 0.010925
0.823975 0.083588 0.009064
0.857697 0.071991 0.007324
0.889069 0.059235 0.005676
0.918396 0.044220 0.004181
0.945862 0.028046 0.002777
0.971771 0.011322 0.001434
0.996490 0.000183 0.000183
1.000000 0.000000 0.000000
1.000000 0.022125 0.000000
1.000000 0.082855 0.000000
1.000000 0.087677 0.000000
1.000000 0.087677 0.000000
0.028137 0.167175 0.028137
0.063721 0.166779 0.027069
0.107178 0.168854 0.041168
0.142548 0.170044 0.057465
0.169250 0.169250 0.055878
0.203766 0.175476 0.060822
0.239807 0.179962 0.059387
0.277802 0.182587 0.053925
0.317749 0.183807 0.047089
0.359558 0.184204 0.039429
0.402924 0.183746 0.030731
0.447723 0.182678 0.022186
0.493866 0.181244 0.024536
0.539185 0.176758 0.024078
0.583191 0.170654 0.021729
0.626434 0.165710 0.019440
0.668793 0.160217 0.017181
0.709961 0.154358 0.015015
0.749664 0.147980 0.012939
0.787659 0.141327 0.010956
0.823639 0.134277 0.009064
0.857361 0.126862 0.007324
0.888763 0.119232 0.005707
0.918060 0.111511 0.004181
0.945587 0.103424 0.002777
0.971527 0.095184 0.001465
0.996216 0.086243 0.000183
1.000000 0.077209 0.000000
1.000000 0.102905 0.000000
1.000000 0.137177 0.000000
1.000000 0.140594 0.000000
1.000000 0.140594 0.000000
0.019684 0.198883 0.019684
0.056305 0.198547 0.018555
0.100800 0.200256 0.027649
0.140930 0.201752 0.043610
0.174072 0.202576 0.057007
0.201752 0.201752 0.054504
0.237915 0.208160 0.059021
0.275574 0.213654 0.059692
0.315613 0.216949 0.053101
0.357513 0.218964 0.044678
0.400940 0.219971 0.035431
0.445770 0.220093 0.025024
0.491943 0.219849 0.024445
0.537415 0.216980 0.024170
0.581635 0.211823 0.021820
0.625275 0.205933 0.019501
0.667969 0.199371 0.017242
0.709442 0.192963 0.015045
0.749176 0.188019 0.012970
0.787201 0.182831 0.010986
0.823212 0.177582 0.009094
0.857025 0.171997 0.007355
0.888397 0.166351 0.005737
0.917725 0.160858 0.004211
0.945221 0.155273 0.002808
0.971161 0.149567 0.001465
0.995880 0.143768 0.000214
1.000000 0.138794 0.000000
1.000000 0.156342 0.000000
1.000000 0.182465 0.000000
1.000000 0.185089 0.000000
1.000000 0.185089 0.000000
0.011383 0.232178 0.011383
0.046234 0.231964 0.011383
0.092041 0.232635 0.013367
0.136078 0.234711 0.027283
0.174591 0.236237 0.044281
0.206696 0.236603 0.054291
0.235718 0.235718 0.050964
0.273499 0.242340 0.055817
0.313293 0.248688 0.058929
0.355225 0.252716 0.050720
0.398773 0.255188 0.040497
0.443665 0.256714 0.029358
0.489777 0.257660 0.024323
0.535461 0.256287 0.024292
0.579742 0.252441 0.021912
0.623505 0.247925 0.019592
0.666290 0.242981 0.017303
0.707855 0.237701 0.015137
0.747925 0.231781 0.013031
0.786285 0.225677 0.011017
0.822601 0.219543 0.009125
0.856537 0.214233 0.007385
0.887939 0.209839 0.005737
0.917328 0.205597 0.004242
0.944824 0.201172 0.002808
0.970764 0.196777 0.001495
0.995514 0.192444 0.000214
1.000000 0.188934 0.000000
1.000000 0.202850 0.000000
1.000000 0.224152 0.000000
1.000000 0.226440 0.000000
1.000000 0.226440 0.000000
0.013153 0.267456 0.013153
0.033966 0.267273 0.013123
0.081085 0.267242 0.013123
0.128815 0.269348 0.013245
0.171021 0.270874 0.025024
0.209076 0.272308 0.043854
0.240753 0.272125 0.049713
0.271149 0.271149 0.045349
0.311096 0.278137 0.050690
0.352783 0.285278 0.056610
0.396332 0.289825 0.046356
0.441284 0.292938 0.034546
0.487335 0.295074 0.024200
0.533234 0.295135 0.024384
0.577667 0.292694 0.022034
0.621429 0.289520 0.019684
0.664307 0.285889 0.017426
0.705994 0.281555 0.015228
0.746185 0.277191 0.013123
0.784546 0.272430 0.011108
0.820923 0.267365 0.009216
0.855042 0.262299 0.007446
0.886719 0.257294 0.005798
0.916321 0.252106 0.004272
0.944092 0.247040 0.002869
0.970245 0.241943 0.001526
0.995056 0.238129 0.000244
1.000000 0.235474 0.000000
1.000000 0.246887 0.000000
1.000000 0.264984 0.000000
1.000000 0.267029 0.000000
1.000000 0.267029 0.000000
0.014984 0.304718 0.014984
0.019409 0.304565 0.014984
0.067749 0.304321 0.014984
0.119995 0.305939 0.015045
0.165070 0.307404 0.015137
0.206207 0.308838 0.021118
0.244690 0.310211 0.042297
0.276428 0.309570 0.042908
0.308563 0.308563 0.037781
0.350494 0.315857 0.042877
0.393768 0.323395 0.048859
0.438690 0.328766 0.039886
0.484680 0.332306 0.026215
0.530823 0.333954 0.024536
0.575287 0.332825 0.022156
0.619202 0.331024 0.019806
0.662201 0.328552 0.017548
0.703918 0.325714 0.015320
0.744171 0.322449 0.013214
0.782623 0.318695 0.011200
0.819061 0.314789 0.009308
0.853241 0.310730 0.007538
0.884949 0.306854 0.005890
0.914612 0.302704 0.004364
0.942413 0.298676 0.002960
0.968597 0.294617 0.001617
0.993591 0.290466 0.000336
1.000000 0.286896 0.000000
1.000000 0.294922 0.000000
1.000000 0.308777 0.000000
1.000000 0.310211 0.000000
1.000000 0.310211 0.000000
0.016968 0.343811 0.016968
0.016937 0.343689 0.016937
0.051758 0.343475 0.016937
0.107605 0.344849 0.016998
0.157410 0.346405 0.017090
0.201691 0.347534 0.017151
0.242676 0.348602 0.017181
0.281677 0.349792 0.039093
0.314117 0.348877 0.033783
0.347778 0.347778 0.027527
0.391296 0.355286 0.032227
0.436066 0.363007 0.037354
0.481903 0.369171 0.031403
0.528107 0.372620 0.024658
0.572723 0.373077 0.022278
0.616760 0.372589 0.019928
0.659821 0.371521 0.017670
0.701599 0.369720 0.015442
0.741943 0.367523 0.013336
0.780518 0.364838 0.011322
0.817017 0.362122 0.009430
0.851166 0.359100 0.007660
0.883026 0.355865 0.006012
0.912689 0.352905 0.004486
0.940521 0.349731 0.003052
0.966766 0.346375 0.001709
0.991821 0.343018 0.000427
1.000000 0.340393 0.000000
1.000000 0.346100 0.000000
1.000000 0.357605 0.000000
1.000000 0.358978 0.000000
1.000000 0.358978 0.000000
0.018982 0.384369 0.018982
0.018982 0.384277 0.018982
0.030823 0.384094 0.018982
0.091675 0.384277 0.018982
0.147156 0.386536 0.019104
0.195068 0.388275 0.019196
0.239105 0.389526 0.019257
0.280853 0.390198 0.019287
0.319489 0.390594 0.027679
0.353394 0.389618 0.021393
0.388641 0.388641 0.019196
0.433533 0.396332 0.021484
0.479279 0.404053 0.023804
0.525208 0.410370 0.024841
0.569885 0.412567 0.022430
0.614014 0.413635 0.020081
0.657196 0.413849 0.017792
0.699127 0.413452 0.015594
0.739563 0.412384 0.013458
0.778168 0.410767 0.011444
0.814728 0.408936 0.009552
0.849030 0.406891 0.007751
0.880859 0.404663 0.006104
0.910583 0.402313 0.004578
0.938507 0.399719 0.003143
0.964783 0.397339 0.001801
0.989838 0.394653 0.000519
1.000000 0.392578 0.000000
1.000000 0.396698 0.000000
1.000000 0.406067 0.000000
1.000000 0.406952 0.000000
1.000000 0.406952 0.000000
0.021118 0.426331 0.021118
0.021118 0.426239 0.021118
0.021088 0.426056 0.021088
0.069824 0.425842 0.021088
0.133789 0.428131 0.021210
0.186005 0.429871 0.021301
0.233459 0.431152 0.021362
0.278137 0.432556 0.021423
0.320709 0.432800 0.021423
0.359222 0.432983 0.021454
0.394775 0.432129 0.021393
0.431183 0.431183 0.021362
0.477173 0.438934 0.023682
0.523041 0.446167 0.024933
0.566925 0.451233 0.022583
0.611145 0.453949 0.020233
0.654419 0.455658 0.017944
0.696472 0.456543 0.015717
0.736938 0.456787 0.013611
0.775665 0.456451 0.011566
0.812317 0.455444 0.009674
0.846649 0.454376 0.007874
0.878601 0.452820 0.006226
0.908356 0.451294 0.004700
0.936310 0.449554 0.003265
0.962616 0.447784 0.001923
0.987701 0.445984 0.000641
1.000000 0.444275 0.000000
1.000000 0.446991 0.000000
1.000000 0.454254 0.000000
1.000000 0.455017 0.000000
1.000000 0.455017 0.000000
0.023285 0.469269 0.023285
0.023285 0.469177 0.023285
0.023285 0.469055 0.023285
0.042603 0.468842 0.023254
0.116608 0.470337 0.023346
0.174957 0.471893 0.023407
0.225555 0.473755 0.023499
0.273193 0.475128 0.023590
0.318726 0.476013 0.023621
0.362518 0.477020 0.023682
0.400726 0.476593 0.023651
0.437347 0.475708 0.023621
0.474701 0.474701 0.023560
0.520966 0.482086 0.025055
0.565033 0.487335 0.022705
0.608429 0.492676 0.020386
0.651489 0.496460 0.018097
0.693604 0.498840 0.015869
0.734161 0.500336 0.013733
0.773010 0.501099 0.011719
0.809723 0.501312 0.009796
0.844177 0.500977 0.007996
0.876129 0.500519 0.006348
0.905975 0.499756 0.004822
0.933929 0.498779 0.003387
0.960327 0.497620 0.002014
0.985474 0.496216 0.000732
1.000000 0.495056 0.000000
1.000000 0.496765 0.000000
1.000000 0.501923 0.000000
1.000000 0.502380 0.000000
1.000000 0.502380 0.000000
0.025482 0.512848 0.025482
0.025513 0.512756 0.025513
0.025482 0.512665 0.025482
0.025482 0.512482 0.025482
0.093506 0.512848 0.025482
0.160614 0.514771 0.025391
0.215302 0.517059 0.025269
0.266022 0.518188 0.025208
0.314240 0.519562 0.025146
0.360748 0.520477 0.025085
0.404938 0.520905 0.025055
0.442993 0.520447 0.025085
0.480530 0.519562 0.025146
0.518585 0.518585 0.025177
0.562897 0.524109 0.022797
0.606506 0.529510 0.020477
0.649048 0.534943 0.018219
0.690674 0.539612 0.016022
0.731323 0.542419 0.013885
0.770203 0.544281 0.011871
0.807007 0.545563 0.009949
0.841492 0.546356 0.008148
0.873535 0.546661 0.006500
0.903473 0.546722 0.004944
0.931488 0.546265 0.003510
0.957947 0.545868 0.002136
0.983124 0.545197 0.000854
1.000000 0.544708 0.000000
1.000000 0.545471 0.000000
1.000000 0.548340 0.000000
1.000000 0.548737 0.000000
1.000000 0.548737 0.000000
0.023285 0.554260 0.023285
0.023285 0.554199 0.023285
0.023285 0.554108 0.023285
0.023285 0.553986 0.023285
0.053284 0.553802 0.023285
0.138824 0.556122 0.023163
0.199585 0.558075 0.023071
0.253967 0.559601 0.022980
0.305206 0.560760 0.022919
0.354584 0.562195 0.022858
0.401825 0.563141 0.022797
0.446136 0.563141 0.022797
0.484100 0.562378 0.022827
0.522552 0.561523 0.022888
0.560547 0.560547 0.022949
0.604340 0.566010 0.020599
0.647095 0.571594 0.018341
0.688538 0.576874 0.016144
0.728424 0.582062 0.014038
0.767303 0.585327 0.012024
0.804169 0.587646 0.010101
0.838715 0.589508 0.008301
0.870850 0.590607 0.006622
0.900818 0.591309 0.005096
0.928894 0.591736 0.003632
0.955353 0.591980 0.002289
0.980621 0.592010 0.000977
1.000000 0.591827 0.000000
1.000000 0.592102 0.000000
1.000000 0.593048 0.000000
1.000000 0.593292 0.000000
1.000000 0.593292 0.000000
0.021088 0.595245 0.021088
0.021088 0.595184 0.021088
0.021088 0.595093 0.021088
0.021088 0.594940 0.021088
0.021118 0.594757 0.021118
0.112457 0.595886 0.021057
0.181610 0.598267 0.020935
0.239990 0.600220 0.020813
0.294495 0.601776 0.020752
0.346680 0.602875 0.020691
0.396423 0.603577 0.020630
0.444214 0.604645 0.020599
0.487549 0.604614 0.020599
0.526276 0.603821 0.020630
0.564514 0.602966 0.020660
0.602020 0.602020 0.020721
0.644989 0.607605 0.018433
0.686554 0.613037 0.016235
0.726593 0.618164 0.014130
0.764801 0.623322 0.012146
0.801270 0.627380 0.010223
0.835938 0.630005 0.008423
0.868073 0.632050 0.006775
0.898102 0.633698 0.005219
0.926239 0.634766 0.003784
0.952789 0.635620 0.002411
0.978058 0.636078 0.001129
1.000000 0.636688 0.000000
1.000000 0.636566 0.000000
1.000000 0.635712 0.000000
1.000000 0.635620 0.000000
1.000000 0.635620 0.000000
0.018951 0.635406 0.018951
0.018951 0.635345 0.018951
0.018951 0.635284 0.018951
0.018951 0.635162 0.018951
0.018982 0.635010 0.018982
0.075195 0.635559 0.018951
0.160980 0.637268 0.018860
0.224640 0.639618 0.018738
0.282288 0.641632 0.018616
0.337219 0.643158 0.018555
0.389587 0.644287 0.018494
0.439972 0.644989 0.018433
0.487885 0.645386 0.018433
0.529907 0.645294 0.018433
0.568451 0.644470 0.018463
0.606171 0.643585 0.018524
0.642670 0.642670 0.018555
0.684448 0.648254 0.016357
0.724609 0.653564 0.014252
0.762970 0.658539 0.012238
0.799194 0.663391 0.010345
0.833160 0.667969 0.008575
0.865265 0.671173 0.006927
0.895355 0.673492 0.005371
0.923584 0.675201 0.003906
0.950134 0.676636 0.002563
0.975464 0.677979 0.001251
0.999817 0.678864 0.000000
1.000000 0.678680 0.000000
1.000000 0.675873 0.000000
1.000000 0.675720 0.000000
1.000000 0.675720 0.000000
0.016876 0.674500 0.016876
0.016876 0.674438 0.016876
0.016876 0.674377 0.016876
0.016907 0.674286 0.016907
0.016907 0.674133 0.016907
0.017975 0.673950 0.016907
0.135956 0.675995 0.016815
0.206451 0.678680 0.016663
0.268890 0.679993 0.016602
0.326569 0.681976 0.016479
0.381592 0.683472 0.016418
0.434296 0.684631 0.016357
0.484802 0.685425 0.016296
0.532593 0.685852 0.016296
0.571960 0.684814 0.016327
0.610016 0.684021 0.016388
0.646820 0.683167 0.016418
0.682220 0.682220 0.016479
0.722534 0.687683 0.014343
0.761017 0.692780 0.012329
0.797363 0.697723 0.010437
0.831421 0.702332 0.008667
0.863007 0.706726 0.007050
0.892578 0.710663 0.005493
0.920868 0.713104 0.004059
0.947479 0.715149 0.002686
0.972809 0.716919 0.001373
0.997192 0.718506 0.000153
1.000000 0.718292 0.000000
1.000000 0.714081 0.000000
1.000000 0.713684 0.000000
1.000000 0.713684 0.000000
0.014893 0.712219 0.014893
0.014893 0.712189 0.014893
0.014893 0.712128 0.014893
0.014893 0.712036 0.014893
0.014923 0.711914 0.014923
0.014923 0.711761 0.014923
0.104431 0.713135 0.014862
0.187592 0.715088 0.014740
0.253693 0.717804 0.014618
0.314728 0.719086 0.014526
0.372253 0.720978 0.014435
0.427368 0.721527 0.014404
0.480133 0.722748 0.014343
0.530182 0.723572 0.014313
0.575348 0.723694 0.014282
0.613464 0.722931 0.014343
0.650665 0.722137 0.014374
0.686279 0.721283 0.014435
0.720398 0.720398 0.014465
0.759033 0.725677 0.012451
0.795502 0.730591 0.010529
0.829590 0.735321 0.008759
0.861328 0.739746 0.007111
0.890839 0.743744 0.005585
0.918549 0.747589 0.004181
0.944794 0.751038 0.002838
0.970184 0.753357 0.001526
0.994598 0.755371 0.000275
1.000000 0.755554 0.000000
1.000000 0.749603 0.000000
1.000000 0.749084 0.000000
1.000000 0.749084 0.000000
0.013000 0.748383 0.013000
0.013000 0.748322 0.013000
0.013000 0.748260 0.013000
0.013000 0.748199 0.013000
0.013031 0.748077 0.013031
0.013031 0.747925 0.013031
0.061096 0.748505 0.013000
0.165497 0.750763 0.012878
0.238068 0.752655 0.012787
0.301697 0.755341 0.012634
0.362152 0.756531 0.012573
0.419556 0.758362 0.012482
0.474365 0.758942 0.012451
0.526550 0.760162 0.012390
0.574921 0.760132 0.012390
0.616913 0.760162 0.012390
0.654053 0.759399 0.012421
0.689972 0.758606 0.012451
0.724396 0.757782 0.012512
0.756927 0.756927 0.012543
0.793549 0.761963 0.010651
0.827789 0.766602 0.008850
0.859558 0.771088 0.007202
0.889191 0.775299 0.005676
0.916931 0.779205 0.004242
0.943085 0.782837 0.002899
0.967987 0.786346 0.001648
0.992065 0.789490 0.000397
1.000000 0.790192 0.000000
1.000000 0.782776 0.000000
1.000000 0.782166 0.000000
1.000000 0.782166 0.000000
0.011200 0.782623 0.011200
0.011200 0.782593 0.011200
0.011230 0.782532 0.011230
0.011230 0.782471 0.011230
0.011230 0.782349 0.011230
0.011230 0.782227 0.011230
0.011261 0.781799 0.011261
0.138336 0.785614 0.011047
0.220764 0.786499 0.011017
0.288422 0.789490 0.010864
0.351257 0.790955 0.010773
0.410858 0.792084 0.010712
0.467834 0.792877 0.010681
0.521942 0.794434 0.010590
0.572418 0.794739 0.010590
0.619171 0.795715 0.010529
0.657318 0.794678 0.010590
0.693481 0.793915 0.010620
0.727936 0.793152 0.010651
0.760742 0.792389 0.010712
0.791565 0.791565 0.010742
0.825928 0.796356 0.008942
0.857819 0.800781 0.007294
0.887482 0.804932 0.005768
0.915314 0.808807 0.004333
0.941559 0.812683 0.002991
0.966461 0.816223 0.001709
0.990448 0.819580 0.000488
1.000000 0.821320 0.000000
1.000000 0.813385 0.000000
1.000000 0.812500 0.000000
1.000000 0.812500 0.000000
0.009521 0.814789 0.009521
0.009521 0.814758 0.009521
0.009552 0.814697 0.009552
0.009552 0.814667 0.009552
0.009552 0.814545 0.009552
0.009552 0.814423 0.009552
0.009552 0.814270 0.009552
0.108704 0.816986 0.009430
0.202148 0.818085 0.009369
0.274902 0.820160 0.009247
0.340576 0.821869 0.009155
0.401917 0.824432 0.009033
0.460571 0.825500 0.008972
0.516785 0.826294 0.008942
0.569031 0.826813 0.008911
0.617462 0.828125 0.008850
0.660339 0.827759 0.008850
0.696625 0.827057 0.008911
0.731323 0.826324 0.008942
0.764130 0.825592 0.008972
0.795227 0.824829 0.009003
0.824097 0.824097 0.009064
0.856049 0.828583 0.007385
0.885803 0.832794 0.005859
0.913727 0.836792 0.004425
0.940002 0.840515 0.003082
0.964996 0.844086 0.001801
0.989014 0.847717 0.000549
1.000000 0.849152 0.000000
1.000000 0.839935 0.000000
1.000000 0.839142 0.000000
1.000000 0.839142 0.000000
0.007996 0.844696 0.007996
0.007996 0.844666 0.007996
0.007996 0.844604 0.007996
0.007996 0.844543 0.007996
0.007996 0.844482 0.007996
0.007996 0.844360 0.007996
0.007996 0.844208 0.007996
0.070435 0.846008 0.007904
0.181732 0.848572 0.007782
0.260651 0.849518 0.007721
0.328674 0.852753 0.007568
0.392395 0.854340 0.007477
0.453186 0.855621 0.007416
0.511017 0.856659 0.007355
0.565155 0.857391 0.007324
0.615021 0.857941 0.007294
0.661041 0.858246 0.007294
0.699585 0.857880 0.007294
0.734467 0.857178 0.007324
0.767395 0.856445 0.007385
0.798462 0.855743 0.007416
0.827484 0.855042 0.007446
0.854309 0.854309 0.007477
0.884216 0.858582 0.005951
0.912140 0.862549 0.004486
0.938477 0.866425 0.003143
0.963531 0.869904 0.001862
0.987610 0.873413 0.000641
1.000000 0.874786 0.000000
1.000000 0.864197 0.000000
1.000000 0.863129 0.000000
1.000000 0.863129 0.000000
0.006531 0.872620 0.006531
0.006531 0.872589 0.006531
0.006531 0.872559 0.006531
0.006531 0.872528 0.006531
0.006561 0.872467 0.006561
0.006561 0.872345 0.006561
0.006561 0.872192 0.006561
0.013611 0.872864 0.006531
0.160889 0.875702 0.006378
0.245209 0.878143 0.006256
0.316864 0.880310 0.006134
0.383453 0.880859 0.006104
0.445923 0.882355 0.006042
0.505066 0.884827 0.005920
0.560730 0.885773 0.005859
0.612091 0.885437 0.005890
0.659363 0.885986 0.005859
0.702271 0.886627 0.005829
0.737183 0.885925 0.005859
0.770416 0.885254 0.005890
0.801544 0.884583 0.005920
0.830658 0.883881 0.005951
0.857544 0.883240 0.005981
0.882568 0.882568 0.006012
0.910583 0.886627 0.004578
0.937012 0.890350 0.003235
0.962067 0.894012 0.001923
0.986206 0.897461 0.000702
1.000000 0.898651 0.000000
1.000000 0.886810 0.000000
1.000000 0.885651 0.000000
1.000000 0.885651 0.000000
0.005188 0.898895 0.005188
0.005188 0.898865 0.005188
0.005188 0.898804 0.005188
0.005188 0.898743 0.005188
0.005188 0.898682 0.005188
0.005188 0.898560 0.005188
0.005219 0.898468 0.005219
0.005157 0.899445 0.005157
0.138062 0.900970 0.005066
0.230347 0.903656 0.004944
0.305023 0.905945 0.004822
0.373566 0.907959 0.004730
0.437714 0.909698 0.004639
0.498596 0.909912 0.004608
0.555878 0.911072 0.004547
0.608704 0.912048 0.004517
0.657227 0.912842 0.004456
0.702026 0.913452 0.004425
0.739716 0.912933 0.004456
0.773102 0.912262 0.004486
0.804291 0.911621 0.004517
0.833618 0.910950 0.004547
0.860565 0.910309 0.004608
0.885651 0.909698 0.004639
0.909088 0.909088 0.004669
0.935547 0.912842 0.003296
0.960693 0.916595 0.002014
0.984833 0.920166 0.000763
1.000000 0.921021 0.000000
1.000000 0.907928 0.000000
1.000000 0.906677 0.000000
1.000000 0.906677 0.000000
0.003906 0.923676 0.003906
0.003906 0.923645 0.003906
0.003906 0.923615 0.003906
0.003906 0.923584 0.003906
0.003906 0.923492 0.003906
0.003937 0.923401 0.003937
0.003937 0.923248 0.003937
0.003937 0.922943 0.003937
0.109955 0.926086 0.003784
0.214722 0.927490 0.003723
0.293488 0.930023 0.003571
0.363983 0.932220 0.003479
0.429810 0.934113 0.003357
0.492249 0.934448 0.003357
0.550873 0.935852 0.003296
0.605011 0.937042 0.003235
0.654846 0.937958 0.003174
0.700378 0.937622 0.003204
0.742157 0.938385 0.003143
0.775543 0.937744 0.003174
0.807068 0.937134 0.003204
0.836334 0.936523 0.003235
0.863464 0.935883 0.003265
0.888489 0.935272 0.003326
0.911957 0.934662 0.003357
0.934082 0.934082 0.003387
0.959320 0.937775 0.002075
0.983521 0.941284 0.000854
1.000000 0.942108 0.000000
1.000000 0.927826 0.000000
1.000000 0.926544 0.000000
1.000000 0.926544 0.000000
0.002686 0.947327 0.002686
0.002686 0.947296 0.002686
0.002686 0.947235 0.002686
0.002686 0.947235 0.002686
0.002716 0.947144 0.002716
0.002716 0.947052 0.002716
0.002716 0.946930 0.002716
0.002716 0.946777 0.002716
0.077301 0.948547 0.002625
0.196838 0.951569 0.002472
0.281342 0.952820 0.002411
0.354279 0.955200 0.002289
0.421539 0.957306 0.002167
0.485504 0.957764 0.002167
0.545593 0.959320 0.002075
0.600891 0.960693 0.002014
0.652252 0.961792 0.001953
0.698792 0.961578 0.001953
0.741821 0.962463 0.001923
0.777924 0.962036 0.001953
0.809509 0.961395 0.001984
0.838867 0.960815 0.002014
0.865936 0.960236 0.002045
0.891174 0.959656 0.002075
0.914825 0.959076 0.002106
0.936951 0.958496 0.002136
0.957947 0.957947 0.002136
0.982239 0.961578 0.000916
1.000000 0.962097 0.000000
1.000000 0.946899 0.000000
1.000000 0.945343 0.000000
1.000000 0.945343 0.000000
0.001526 0.970032 0.001526
0.001526 0.970032 0.001526
0.001526 0.970001 0.001526
0.001526 0.969940 0.001526
0.001526 0.969879 0.001526
0.001556 0.969788 0.001556
0.001556 0.969666 0.001556
0.001556 0.969543 0.001556
0.022705 0.971588 0.001465
0.179810 0.973206 0.001373
0.267822 0.976044 0.001221
0.344482 0.977142 0.001160
0.413269 0.979431 0.001038
0.478699 0.981415 0.000946
0.540100 0.981812 0.000916
0.596863 0.983276 0.000854
0.648956 0.984589 0.000793
