src/assets/luts/大师配方/大师·绮.cube
#Created by: Adobe Photoshop Export Color Lookup Plugin
#Copyright: (C) Copyright 2026 aaa
TITLE "HG224大师滤镜.psd"
#LUT size
LUT_3D_SIZE 5
#data domain
DOMAIN_MIN 0.0 0.0 0.0
DOMAIN_MAX 1.0 1.0 1.0
#LUT data points
0.000000 0.000000 0.024506
0.302826 0.000000 0.030487
0.620941 0.000000 0.030090
0.869598 0.045959 0.070984
1.000000 0.139038 0.168121
0.000000 0.289917 0.024506
0.312347 0.354767 0.023163
0.655060 0.339294 0.011719
0.869598 0.345825 0.083557
1.000000 0.380676 0.175598
0.000000 0.561035 0.024475
0.281403 0.645203 0.000000
0.662170 0.687317 0.019592
0.869598 0.632172 0.128815
1.000000 0.625641 0.218414
0.000000 0.805603 0.024475
0.260956 0.863617 0.000000
0.612549 0.869598 0.119659
0.869598 0.869598 0.135071
1.000000 0.831268 0.239807
0.000000 1.000000 0.024536
0.275330 1.000000 0.051147
0.593079 1.000000 0.180908
0.824524 1.000000 0.239807
1.000000 1.000000 0.239807
0.000000 0.000000 0.320282
0.260620 0.000000 0.320282
0.575836 0.000000 0.343689
0.869598 0.017761 0.358032
1.000000 0.121674 0.399689
0.000000 0.289917 0.320282
0.248016 0.289673 0.332855
0.585876 0.278717 0.323242
0.869598 0.287140 0.326721
1.000000 0.376038 0.411957
0.000000 0.561035 0.320343
0.224731 0.596893 0.309540
0.588501 0.619110 0.319519
0.869598 0.604675 0.342377
1.000000 0.617035 0.429199
0.000000 0.805603 0.320312
0.200653 0.865540 0.285522
0.566986 0.869598 0.316376
0.868622 0.869598 0.359955
1.000000 0.831268 0.460175
0.000000 1.000000 0.320312
0.260620 1.000000 0.320282
0.565430 1.000000 0.372345
0.824524 1.000000 0.460175
1.000000 1.000000 0.460175
0.000000 0.000000 0.600647
0.260651 0.000000 0.600647
0.536255 0.000000 0.600647
0.802307 0.000000 0.606049
1.000000 0.041168 0.613983
0.000000 0.289948 0.600647
0.216400 0.258026 0.644836
0.547150 0.251862 0.638672
0.869446 0.243164 0.639221
1.000000 0.342804 0.631348
0.000000 0.561066 0.600647
0.216400 0.588531 0.644836
0.522705 0.557922 0.614227
0.838593 0.549561 0.606995
1.000000 0.608124 0.650879
0.000000 0.805603 0.600647
0.200653 0.865540 0.629089
0.506989 0.834900 0.598511
0.840790 0.850006 0.602875
1.000000 0.829193 0.671448
0.000000 1.000000 0.600677
0.260620 1.000000 0.600647
0.536285 1.000000 0.600647
0.817963 1.000000 0.660858
1.000000 1.000000 0.677704
0.000000 0.000000 0.852966
0.260620 0.000000 0.852966
0.536316 0.000000 0.852966
0.794678 0.000000 0.852966
1.000000 0.000000 0.852905
0.000000 0.289917 0.852966
0.243988 0.276215 0.869598
0.532379 0.273285 0.869598
0.804962 0.273285 0.869598
1.000000 0.289917 0.852936
0.000000 0.561005 0.852966
0.243988 0.561432 0.869598
0.519653 0.548798 0.869598
0.799377 0.544403 0.869598
1.000000 0.570374 0.856506
0.000000 0.805634 0.852966
0.243988 0.817505 0.869598
0.519653 0.813751 0.869598
0.782440 0.797882 0.865265
1.000000 0.822327 0.869598
0.000000 1.000000 0.852905
0.260620 1.000000 0.852936
0.536285 1.000000 0.852966
0.794739 1.000000 0.852966
1.000000 1.000000 0.869598
0.000000 0.000000 1.000000
0.260620 0.000000 1.000000
0.536316 0.000000 1.000000
0.794739 0.000000 1.000000
1.000000 0.000000 1.000000
0.000000 0.289948 1.000000
0.260620 0.289948 1.000000
0.536224 0.289917 1.000000
0.794708 0.289917 1.000000
1.000000 0.289917 1.000000
0.000000 0.561096 1.000000
0.260620 0.561035 1.000000
0.536285 0.561066 1.000000
0.794739 0.561035 1.000000
1.000000 0.561035 1.000000
0.000000 0.805603 1.000000
0.260620 0.805603 1.000000
0.536285 0.805603 1.000000
0.794739 0.805603 1.000000
1.000000 0.805603 1.000000
0.000000 1.000000 1.000000
0.260620 1.000000 1.000000
0.536285 1.000000 1.000000
0.794739 1.000000 1.000000
1.000000 1.000000 1.000000
