src/assets/luts/大师配方/大师·晨.cube
#Created by: Adobe Photoshop Export Color Lookup Plugin
#Copyright: (C) Copyright 2025 avin.hua
TITLE "大师-晨-清晨"
#LUT size
LUT_3D_SIZE 5
#data domain
#LUT data points
DOMAIN_MIN 0.000000 0.000000 0.000000
DOMAIN_MAX 0.903226 0.903226 0.903226
0.048096 0.048096 0.048096
0.283173 0.047974 0.047974
0.584747 0.021637 0.021637
0.858337 0.007263 0.007263
1.000000 0.000000 0.000000
0.013153 0.267456 0.013153
0.271149 0.271149 0.045349
0.577667 0.292694 0.022034
0.855042 0.262299 0.007446
1.000000 0.246887 0.000000
0.023285 0.554260 0.023285
0.253967 0.559601 0.022980
0.560547 0.560547 0.022949
0.838715 0.589508 0.008301
1.000000 0.592102 0.000000
0.009521 0.814789 0.009521
0.108704 0.816986 0.009430
0.569031 0.826813 0.008911
0.824097 0.824097 0.009064
1.000000 0.849152 0.000000
0.000397 0.992096 0.000397
0.000427 0.991608 0.000427
0.534363 1.000000 0.000000
0.841919 1.000000 0.000000
1.000000 1.000000 0.000000
0.043854 0.067871 0.277222
0.273315 0.026245 0.273315
0.576874 0.022064 0.272705
0.856049 0.007385 0.258514
1.000000 0.000000 0.258606
0.013153 0.267456 0.267456
0.261719 0.261719 0.261719
0.567169 0.265259 0.265259
0.839355 0.236511 0.236511
1.000000 0.207397 0.207397
0.023285 0.554260 0.224670
0.207886 0.547516 0.207886
0.551025 0.551025 0.276093
0.827332 0.565460 0.251495
1.000000 0.555542 0.201599
0.009521 0.814789 0.089081
0.015106 0.804077 0.015106
0.531647 0.811249 0.167908
0.811096 0.811096 0.244019
0.997467 0.835846 0.256165
0.000397 0.992096 0.000397
0.000946 0.981598 0.000946
0.473328 0.985687 0.000732
0.828064 0.992035 0.217712
0.988098 0.988098 0.193695
0.038147 0.090546 0.571259
0.233032 0.029022 0.570374
0.564484 0.022736 0.564484
0.834595 0.008514 0.541656
1.000000 0.000000 0.537537
0.022583 0.290833 0.567017
0.246552 0.278442 0.561279
0.556366 0.233307 0.556366
0.829346 0.200104 0.538727
1.000000 0.178925 0.536041
0.023285 0.554260 0.554260
0.207886 0.547516 0.547516
0.534576 0.534576 0.534576
0.811127 0.527252 0.527252
0.995697 0.517120 0.517120
0.009521 0.814789 0.505768
0.015106 0.804077 0.490601
0.474274 0.794037 0.474274
0.794739 0.794739 0.540100
0.981110 0.811035 0.541779
0.000397 0.992096 0.458160
0.000946 0.981598 0.441498
0.419678 0.967804 0.419678
0.793365 0.971436 0.503876
0.969849 0.969849 0.537994
0.010254 0.091400 0.837860
0.167084 0.009064 0.837799
0.525238 0.008514 0.834747
0.828827 0.008820 0.828827
1.000000 0.000000 0.811798
0.008484 0.308563 0.835175
0.218414 0.281494 0.826599
0.501251 0.209534 0.824951
0.818512 0.171173 0.818512
0.997223 0.097839 0.799561
0.008820 0.548706 0.828522
0.173706 0.550751 0.818909
0.502472 0.535309 0.807587
0.802795 0.492676 0.802795
0.985626 0.479156 0.790100
0.009521 0.814789 0.814789
0.015106 0.804077 0.804077
0.474274 0.794037 0.794037
0.771515 0.771515 0.771515
0.963989 0.771088 0.771088
0.000397 0.992096 0.787964
0.000946 0.981598 0.775726
0.419678 0.967804 0.761536
0.738556 0.951630 0.738556
0.951324 0.951324 0.781982
0.000000 0.094025 1.000000
0.127258 0.000000 1.000000
0.478302 0.000000 1.000000
0.818024 0.000000 1.000000
1.000000 0.000000 1.000000
0.000000 0.321350 1.000000
0.199524 0.285461 1.000000
0.452881 0.194763 1.000000
0.803131 0.152557 1.000000
0.997223 0.096893 0.997223
0.000000 0.565643 1.000000
0.145966 0.566559 1.000000
0.482513 0.538910 0.987427
0.769806 0.475250 0.985016
0.980347 0.460785 0.980347
0.000000 0.803802 1.000000
0.000366 0.791901 0.992523
0.453461 0.792755 0.978058
0.753723 0.775513 0.961823
0.958282 0.748474 0.958282
0.000397 0.992096 0.992096
0.000946 0.981598 0.981598
0.419678 0.967804 0.967804
0.738556 0.951630 0.951630
0.937317 0.937317 0.937317
