src/assets/luts/大师配方/大师·真.cube
#Created by: Adobe Photoshop Export Color Lookup Plugin
#Copyright: (C) Copyright 2025 aaa
TITLE "通用-鲜明人像提亮.psd"
#LUT size
LUT_3D_SIZE 32
#data domain
DOMAIN_MIN 0.0 0.0 0.0
DOMAIN_MAX 1.0 1.0 1.0
#LUT data points
0.000000 0.000000 0.000000
0.061523 0.005798 0.005798
0.121033 0.011353 0.011353
0.181213 0.017029 0.017029
0.241455 0.022675 0.022675
0.300903 0.028259 0.028259
0.358887 0.033722 0.033722
0.414551 0.038940 0.038940
0.467896 0.043976 0.043976
0.519073 0.048767 0.048767
0.568207 0.053375 0.053375
0.614960 0.057770 0.057770
0.659210 0.061951 0.061951
0.701111 0.065887 0.065887
0.740997 0.069611 0.069611
0.779114 0.073212 0.073212
0.815552 0.076630 0.076630
0.850464 0.079895 0.079895
0.883789 0.083038 0.083038
0.915375 0.085999 0.085999
0.945251 0.088806 0.088806
0.973022 0.091431 0.091431
0.998474 0.093811 0.093811
1.000000 0.117096 0.117096
1.000000 0.138794 0.138794
1.000000 0.157593 0.157593
1.000000 0.173828 0.173828
1.000000 0.187927 0.187927
1.000000 0.199951 0.199951
1.000000 0.199951 0.199951
1.000000 0.199951 0.199951
1.000000 0.199951 0.199951
0.000000 0.052551 0.000000
0.054199 0.054199 0.011902
0.116577 0.059540 0.016205
0.178589 0.056000 0.016785
0.239441 0.051849 0.022491
0.299286 0.045532 0.028137
0.357483 0.036804 0.033569
0.413330 0.038818 0.038818
0.466858 0.043884 0.043884
0.518066 0.048676 0.048676
0.567322 0.053314 0.053314
0.614136 0.057709 0.057709
0.658478 0.061859 0.061859
0.700439 0.065826 0.065826
0.740417 0.069580 0.069580
0.778534 0.073120 0.073120
0.815063 0.076599 0.076599
0.849976 0.079865 0.079865
0.883331 0.083008 0.083008
0.915009 0.085999 0.085999
0.944855 0.088776 0.088776
0.972717 0.091370 0.091370
0.998169 0.093781 0.093781
1.000000 0.116821 0.116821
1.000000 0.138550 0.138550
1.000000 0.157349 0.157349
1.000000 0.173645 0.173645
1.000000 0.187744 0.187744
1.000000 0.199921 0.199921
1.000000 0.199951 0.199951
1.000000 0.199951 0.199951
1.000000 0.199951 0.199951
0.000000 0.104950 0.000000
0.044678 0.106598 0.006012
0.109497 0.109497 0.024048
0.172699 0.118225 0.031799
0.235107 0.119354 0.032501
0.296204 0.115967 0.032654
0.355316 0.109772 0.033356
0.411469 0.104553 0.038666
0.465149 0.096619 0.043732
0.516571 0.084900 0.048553
0.565948 0.070099 0.053192
0.612885 0.057587 0.057587
0.657288 0.061737 0.061737
0.699402 0.065735 0.065735
0.739441 0.069489 0.069489
0.777679 0.073059 0.073059
0.814209 0.076508 0.076508
0.849274 0.079803 0.079803
0.882690 0.082947 0.082947
0.914429 0.085907 0.085907
0.944336 0.088745 0.088745
0.972260 0.091370 0.091370
0.997742 0.093750 0.093750
1.000000 0.116394 0.116394
1.000000 0.138214 0.138214
1.000000 0.157043 0.157043
1.000000 0.173370 0.173370
1.000000 0.187531 0.187531
1.000000 0.199707 0.199707
1.000000 0.199951 0.199951
1.000000 0.199951 0.199951
1.000000 0.199951 0.199951
0.000000 0.157959 0.000000
0.022003 0.156921 0.000000
0.107788 0.165527 0.024170
0.165405 0.165405 0.036285
0.228424 0.175690 0.047516
0.290405 0.179871 0.048401
0.350220 0.179993 0.048920
0.407318 0.177307 0.049072
0.461945 0.172760 0.049072
0.514160 0.166077 0.048553
0.563721 0.161804 0.052948
0.610901 0.156311 0.057404
0.655518 0.149200 0.061615
0.697784 0.139801 0.065552
0.737976 0.127777 0.069336
0.776306 0.110535 0.072937
0.813019 0.088806 0.076385
0.848175 0.079681 0.079681
0.881653 0.082855 0.082855
0.913513 0.085846 0.085846
0.943542 0.088654 0.088654
0.971558 0.091278 0.091278
0.997131 0.093689 0.093689
1.000000 0.115753 0.115753
1.000000 0.137634 0.137634
1.000000 0.156555 0.156555
1.000000 0.172974 0.172974
1.000000 0.187134 0.187134
1.000000 0.199371 0.199371
1.000000 0.199951 0.199951
1.000000 0.199951 0.199951
1.000000 0.199951 0.199951
0.000000 0.210907 0.000000
0.000000 0.210114 0.000000
0.087006 0.214539 0.011261
0.168610 0.223114 0.043549
0.221222 0.221222 0.048553
0.283295 0.231995 0.062164
0.343842 0.238342 0.064148
0.401581 0.240753 0.064789
0.456543 0.240845 0.065277
0.509064 0.238983 0.065521
0.559387 0.236023 0.065704
0.607361 0.231506 0.065491
0.652679 0.226105 0.065186
0.695557 0.220001 0.065369
0.735962 0.215515 0.069153
0.774445 0.210144 0.072754
0.811340 0.203644 0.076202
0.846619 0.195648 0.079529
0.880310 0.185516 0.082703
0.912262 0.173065 0.085693
0.942413 0.156921 0.088531
0.970551 0.134125 0.091187
0.996185 0.104218 0.093628
1.000000 0.114929 0.114929
1.000000 0.136841 0.136841
1.000000 0.155853 0.155853
1.000000 0.172333 0.172333
1.000000 0.186584 0.186584
1.000000 0.198883 0.198883
1.000000 0.199951 0.199951
1.000000 0.199951 0.199951
1.000000 0.199951 0.199951
0.000000 0.263123 0.000000
0.000000 0.262512 0.000000
0.057068 0.261505 0.000000
0.154327 0.273956 0.029938
0.226990 0.279175 0.061279
0.276306 0.276306 0.060638
0.336823 0.286957 0.073914
0.394836 0.294769 0.079590
0.450348 0.298889 0.080383
0.503235 0.300781 0.081024
0.553925 0.300964 0.081482
0.602142 0.299866 0.081726
0.647797 0.297668 0.081848
0.690918 0.294495 0.081848
0.732025 0.290436 0.081635
0.771210 0.285400 0.081238
0.808716 0.279572 0.080688
0.844666 0.272675 0.079773
0.878601 0.267365 0.082550
0.910767 0.261658 0.085571
0.940979 0.254730 0.088409
0.969269 0.246735 0.091064
0.995087 0.237457 0.093506
1.000000 0.239960 0.113831
1.000000 0.243896 0.135895
1.000000 0.246002 0.155029
1.000000 0.245605 0.171570
1.000000 0.242157 0.185913
1.000000 0.234528 0.198303
1.000000 0.212463 0.199951
1.000000 0.199951 0.199951
1.000000 0.199951 0.199951
0.000000 0.314026 0.000000
0.000000 0.313507 0.000000
0.024353 0.312653 0.000000
0.131836 0.320251 0.017365
0.218201 0.330170 0.049683
0.282013 0.332672 0.072998
0.329865 0.329865 0.072388
0.388092 0.340179 0.085175
0.443390 0.348938 0.094543
0.496796 0.354187 0.095367
0.547882 0.357422 0.096130
0.596497 0.358887 0.096649
0.642487 0.359222 0.097015
0.685974 0.358429 0.097290
0.727295 0.356842 0.097443
0.766724 0.354218 0.097321
0.804413 0.350983 0.097168
0.840515 0.346832 0.096802
0.875061 0.341919 0.096252
0.907776 0.336426 0.095734
0.938660 0.329590 0.094696
0.967468 0.322174 0.093719
0.993774 0.314758 0.093384
1.000000 0.317719 0.112549
1.000000 0.323181 0.134766
1.000000 0.327484 0.153992
1.000000 0.330841 0.170685
1.000000 0.333160 0.185150
1.000000 0.334351 0.197601
1.000000 0.328278 0.199951
1.000000 0.320068 0.199951
1.000000 0.311279 0.199951
0.000000 0.362885 0.000000
0.000000 0.362427 0.000000
0.000000 0.361664 0.000000
0.102600 0.362640 0.004395
0.201813 0.376862 0.037048
0.279358 0.383606 0.069855
0.335541 0.384064 0.084290
0.381287 0.381287 0.083679
0.437073 0.391174 0.095947
0.489990 0.400269 0.107544
0.541321 0.406586 0.109802
0.590454 0.410583 0.110504
0.636810 0.413086 0.111053
0.680695 0.414459 0.111572
0.722290 0.414673 0.111847
0.762024 0.414062 0.112091
0.799988 0.412567 0.112152
0.836334 0.410339 0.112030
0.871033 0.407440 0.111786
0.903961 0.403809 0.111450
0.935028 0.399414 0.110901
0.964020 0.394409 0.110321
0.990540 0.388580 0.109344
1.000000 0.388306 0.122742
1.000000 0.390869 0.142334
1.000000 0.393097 0.159332
1.000000 0.394592 0.173706
1.000000 0.395477 0.186035
1.000000 0.396057 0.196838
1.000000 0.392548 0.199951
1.000000 0.387085 0.199951
1.000000 0.381226 0.199951
0.000000 0.409637 0.000000
0.000000 0.409241 0.000000
0.000000 0.408569 0.000000
0.074341 0.407562 0.000000
0.180756 0.419128 0.025604
0.267456 0.429657 0.057251
0.337616 0.434875 0.089325
0.386841 0.433228 0.095093
0.430542 0.430542 0.094482
0.484070 0.440063 0.106262
0.535034 0.448883 0.117432
0.584076 0.456116 0.123535
0.630890 0.460815 0.124237
0.675110 0.463898 0.124786
0.717072 0.465942 0.125244
0.757111 0.466980 0.125671
0.795410 0.467194 0.125916
0.832031 0.466431 0.125977
0.866943 0.464966 0.125946
0.900116 0.462891 0.125824
0.931427 0.460266 0.125610
0.960602 0.456726 0.125031
0.987274 0.452667 0.124481
1.000000 0.451355 0.135010
1.000000 0.452942 0.155090
1.000000 0.454712 0.172455
1.000000 0.455902 0.187225
1.000000 0.456818 0.199982
1.000000 0.457245 0.210815
1.000000 0.453644 0.213135
1.000000 0.448578 0.211914
1.000000 0.443207 0.210571
0.000000 0.454498 0.000000
0.000000 0.454132 0.000000
0.000000 0.453552 0.000000
0.038666 0.452637 0.000000
0.155670 0.458954 0.013550
0.251343 0.471466 0.046356
0.328796 0.479156 0.077637
0.391266 0.482697 0.105957
0.435883 0.480286 0.105408
0.477722 0.477722 0.104858
0.529205 0.486847 0.116150
0.578339 0.495453 0.126953
0.624664 0.503143 0.136719
0.669342 0.508148 0.137329
0.711731 0.511841 0.137939
0.752075 0.514465 0.138397
0.790649 0.515930 0.138702
0.827637 0.516571 0.138947
0.862793 0.516510 0.139130
0.896210 0.515808 0.139099
0.927734 0.514313 0.139038
0.957123 0.512207 0.138824
0.984009 0.509430 0.138458
1.000000 0.507263 0.145905
1.000000 0.507843 0.166321
1.000000 0.508514 0.183960
1.000000 0.509277 0.199188
1.000000 0.509735 0.212189
1.000000 0.509796 0.223236
1.000000 0.507324 0.226807
1.000000 0.503021 0.225708
1.000000 0.498718 0.224609
0.000000 0.497620 0.000000
0.000000 0.497284 0.000000
0.000000 0.496735 0.000000
0.000000 0.495911 0.000000
0.126251 0.495697 0.001190
0.232361 0.511383 0.035004
0.316559 0.521057 0.066345
0.386169 0.526642 0.096954
0.440399 0.527924 0.115906
0.482910 0.525574 0.115356
0.523071 0.523071 0.114838
0.572784 0.531860 0.125732
0.619568 0.540009 0.136017
0.663757 0.547516 0.145691
0.706177 0.553406 0.149994
0.746918 0.557312 0.150421
0.785828 0.560303 0.150909
0.823090 0.562317 0.151276
0.858582 0.563385 0.151520
0.892273 0.563721 0.151642
0.924011 0.563263 0.151581
0.953644 0.562134 0.151428
0.980774 0.560547 0.151245
1.000000 0.558563 0.155853
1.000000 0.557739 0.176605
1.000000 0.557343 0.194550
1.000000 0.557190 0.210022
1.000000 0.557220 0.223267
1.000000 0.556946 0.234619
1.000000 0.554993 0.239258
1.000000 0.551270 0.238281
1.000000 0.547516 0.237305
0.000000 0.539001 0.000000
0.000000 0.538696 0.000000
0.000000 0.538239 0.000000
0.000000 0.537476 0.000000
0.102020 0.536438 0.000000
0.210602 0.548737 0.023895
0.301392 0.560028 0.055817
0.376709 0.567932 0.085602
0.440063 0.572205 0.115417
0.487335 0.571533 0.125458
0.528107 0.569214 0.124969
0.566803 0.566803 0.124420
0.614197 0.575226 0.134796
0.658905 0.583069 0.144623
0.701202 0.590179 0.153931
0.741547 0.596527 0.161987
0.780792 0.600891 0.162628
0.818451 0.604187 0.163055
0.854248 0.606262 0.163239
0.888214 0.607819 0.163605
0.920258 0.608429 0.163605
0.950134 0.608307 0.163544
0.977448 0.607635 0.163483
1.000000 0.606201 0.165100
1.000000 0.604034 0.186218
1.000000 0.602539 0.204285
1.000000 0.601410 0.219971
1.000000 0.600708 0.233582
1.000000 0.599884 0.245087
1.000000 0.598175 0.250854
1.000000 0.594910 0.249878
1.000000 0.591766 0.249146
0.000000 0.578339 0.000000
0.000000 0.578064 0.000000
0.000000 0.577606 0.000000
0.000000 0.576935 0.000000
0.072144 0.575958 0.000000
0.186554 0.582367 0.013702
0.284393 0.596069 0.046051
0.364410 0.605286 0.075958
0.432495 0.611511 0.104736
0.490631 0.615295 0.133148
0.532318 0.613037 0.134552
0.571625 0.610840 0.134094
0.608551 0.608551 0.133606
0.653748 0.616638 0.143494
0.696564 0.623962 0.152893
0.737244 0.630890 0.161835
0.776093 0.637238 0.170349
0.813660 0.642212 0.174103
0.849823 0.645752 0.174591
0.884125 0.648254 0.174774
0.916412 0.649994 0.175049
0.946564 0.650848 0.175049
0.974121 0.650848 0.175018
0.998810 0.650391 0.174866
1.000000 0.647003 0.194977
1.000000 0.644562 0.213470
1.000000 0.642548 0.229401
1.000000 0.641174 0.243195
1.000000 0.639923 0.255096
1.000000 0.638123 0.261841
1.000000 0.635193 0.260986
1.000000 0.632294 0.260254
0.000000 0.615753 0.000000
0.000000 0.615509 0.000000
0.000000 0.615082 0.000000
0.000000 0.614441 0.000000
0.026215 0.613586 0.000000
0.159180 0.613708 0.002686
0.265289 0.629700 0.036194
0.350281 0.640839 0.065918
0.422546 0.648041 0.095001
0.484528 0.652710 0.123230
0.535767 0.654663 0.143707
0.575684 0.652649 0.143280
0.613129 0.650574 0.142822
0.648346 0.648346 0.142303
0.691681 0.656097 0.151825
0.732819 0.663269 0.160858
0.772064 0.669830 0.169464
0.809570 0.675964 0.177704
0.845276 0.681549 0.185211
0.879883 0.685089 0.185516
0.912506 0.687714 0.185791
0.942963 0.689575 0.185944
0.970795 0.690674 0.186035
0.995636 0.691071 0.186066
1.000000 0.687286 0.203430
1.000000 0.683563 0.222046
1.000000 0.680695 0.238251
1.000000 0.678497 0.252228
1.000000 0.676636 0.264160
1.000000 0.675018 0.272217
1.000000 0.672333 0.271362
1.000000 0.669678 0.270630
0.000000 0.651489 0.000000
0.000000 0.651245 0.000000
0.000000 0.650879 0.000000
0.000000 0.650299 0.000000
0.000000 0.649506 0.000000
0.135986 0.648499 0.000000
0.244141 0.661560 0.025970
0.334503 0.673462 0.056946
0.410583 0.682343 0.085480
0.476410 0.688538 0.113129
0.533691 0.692444 0.140472
0.578888 0.692505 0.152008
0.617035 0.690613 0.151581
0.652740 0.688568 0.151154
0.686493 0.686493 0.150696
0.728119 0.693848 0.159821
0.767792 0.700775 0.168518
0.805664 0.707092 0.176849
0.841766 0.713135 0.184784
0.875977 0.718414 0.192291
0.908539 0.722595 0.196045
0.939270 0.725433 0.196350
0.967316 0.727173 0.196442
0.992432 0.728333 0.196442
1.000000 0.724731 0.210968
1.000000 0.719849 0.229858
1.000000 0.716278 0.246368
1.000000 0.713318 0.260559
1.000000 0.710999 0.272858
1.000000 0.709045 0.282104
1.000000 0.706665 0.281372
1.000000 0.704468 0.280762
0.000000 0.685730 0.000000
0.000000 0.685547 0.000000
0.000000 0.685181 0.000000
0.000000 0.684631 0.000000
0.000000 0.683929 0.000000
0.110565 0.683014 0.000000
0.220856 0.690948 0.016052
0.317108 0.704559 0.047668
0.397034 0.714935 0.075989
0.466003 0.721588 0.103973
0.526764 0.726929 0.130676
0.580475 0.730194 0.157623
0.620148 0.728912 0.160004
0.656464 0.727112 0.159607
0.690765 0.725159 0.159180
0.723145 0.723145 0.158752
0.763306 0.730286 0.167572
0.801605 0.737000 0.175964
0.838074 0.743042 0.183960
0.872650 0.748596 0.191559
0.905212 0.753754 0.198700
0.935516 0.758148 0.205353
0.963806 0.761108 0.206329
0.989197 0.763153 0.206543
1.000000 0.759827 0.217987
1.000000 0.753998 0.237244
1.000000 0.749542 0.253906
1.000000 0.745789 0.268280
1.000000 0.742950 0.280853
1.000000 0.740509 0.291382
1.000000 0.738556 0.290771
1.000000 0.736572 0.290161
0.000000 0.718658 0.000000
0.000000 0.718475 0.000000
0.000000 0.718170 0.000000
0.000000 0.717682 0.000000
0.000000 0.717041 0.000000
0.076752 0.716217 0.000000
0.194427 0.717987 0.005768
0.297607 0.734650 0.037537
0.381866 0.745300 0.067139
0.454315 0.753235 0.095001
0.517700 0.758820 0.122070
0.574402 0.763306 0.148285
0.622711 0.765686 0.168091
0.659546 0.764069 0.167725
0.694305 0.762299 0.167328
0.727264 0.760437 0.166931
0.758514 0.758514 0.166504
0.797241 0.765350 0.175018
0.834198 0.771881 0.183105
0.869141 0.777710 0.190796
0.902039 0.783081 0.197998
0.932709 0.787689 0.204742
0.960754 0.791779 0.210876
0.985870 0.795288 0.216034
1.000000 0.793213 0.224396
1.000000 0.786285 0.244019
1.000000 0.780762 0.260925
1.000000 0.776489 0.275696
1.000000 0.772949 0.288452
1.000000 0.770142 0.299469
1.000000 0.768372 0.299805
1.000000 0.766449 0.299194
0.000000 0.750427 0.000000
0.000000 0.750244 0.000000
0.000000 0.749939 0.000000
0.000000 0.749481 0.000000
0.000000 0.748901 0.000000
0.021912 0.748138 0.000000
0.169312 0.747253 0.000000
0.275818 0.762695 0.027344
0.364960 0.774689 0.057465
0.440887 0.782715 0.086456
0.507538 0.790588 0.112213
0.566650 0.795074 0.138916
0.620087 0.799744 0.163696
0.662018 0.799591 0.175507
0.697327 0.797974 0.175171
0.730621 0.796326 0.174805
0.762451 0.794556 0.174408
0.792664 0.792664 0.173981
0.829987 0.799316 0.182190
0.865356 0.805511 0.189941
0.898682 0.811005 0.197266
0.929718 0.815979 0.204102
0.958038 0.820404 0.210297
0.983459 0.824158 0.215881
1.000000 0.823975 0.226410
1.000000 0.816711 0.250031
1.000000 0.810455 0.267609
1.000000 0.805420 0.282593
1.000000 0.801331 0.295502
1.000000 0.797913 0.306732
1.000000 0.796173 0.308350
1.000000 0.794525 0.307861
0.000000 0.780853 0.000000
0.000000 0.780701 0.000000
0.000000 0.780396 0.000000
0.000000 0.779999 0.000000
0.000000 0.779480 0.000000
0.000000 0.778778 0.000000
0.145477 0.777954 0.000000
0.252502 0.787292 0.018707
0.346619 0.800720 0.049500
0.425964 0.812439 0.076141
0.495178 0.819031 0.103912
0.557465 0.825775 0.129303
0.613281 0.830322 0.154755
0.662445 0.833038 0.180023
0.699646 0.832214 0.182678
0.733490 0.830688 0.182343
0.765717 0.829071 0.182007
0.796417 0.827301 0.181610
0.825562 0.825562 0.181244
0.861359 0.831818 0.189087
0.895050 0.837738 0.196472
0.926483 0.842987 0.203369
0.955170 0.847595 0.209656
0.980865 0.851532 0.215302
1.000000 0.852722 0.223663
1.000000 0.844025 0.247559
1.000000 0.837280 0.268341
1.000000 0.832245 0.286469
1.000000 0.828125 0.302277
1.000000 0.824219 0.313599
1.000000 0.822144 0.316650
1.000000 0.820679 0.316162
0.000000 0.809906 0.000000
0.000000 0.809753 0.000000
0.000000 0.809540 0.000000
0.000000 0.809174 0.000000
0.000000 0.808655 0.000000
0.000000 0.808044 0.000000
0.115906 0.807312 0.000000
0.225830 0.811127 0.008240
0.325958 0.827423 0.038940
0.409393 0.838989 0.067230
0.481873 0.846497 0.095215
0.546570 0.854279 0.120209
0.604431 0.858673 0.146362
0.656799 0.863403 0.170288
0.701202 0.864868 0.189819
0.735657 0.863495 0.189545
0.768402 0.862030 0.189240
0.799652 0.860474 0.188873
0.829224 0.858856 0.188507
0.857117 0.857117 0.188141
0.891235 0.863220 0.195648
0.923065 0.868713 0.202606
0.952148 0.873596 0.209015
0.978149 0.877686 0.214722
1.000000 0.880524 0.220703
1.000000 0.870422 0.244934
1.000000 0.862549 0.266022
1.000000 0.856384 0.284363
1.000000 0.851562 0.300385
1.000000 0.847504 0.314392
1.000000 0.845428 0.319946
1.000000 0.844269 0.319946
0.000000 0.837524 0.000000
0.000000 0.837372 0.000000
0.000000 0.837158 0.000000
0.000000 0.836823 0.000000
0.000000 0.836395 0.000000
0.000000 0.835815 0.000000
0.075439 0.835175 0.000000
0.198212 0.834412 0.000000
0.303711 0.850525 0.029816
0.391479 0.863220 0.058777
0.466766 0.873138 0.085388
0.533966 0.880554 0.111542
0.594696 0.885773 0.137787
0.648987 0.890259 0.162567
0.697876 0.893982 0.186218
0.737244 0.894592 0.196350
0.770416 0.893311 0.196106
0.802155 0.891876 0.195770
0.832214 0.890411 0.195465
0.860565 0.888855 0.195129
0.887207 0.887207 0.194763
0.919434 0.892975 0.201813
0.948914 0.897919 0.208282
0.975281 0.902435 0.214081
0.998383 0.906128 0.219177
1.000000 0.895630 0.242126
1.000000 0.886719 0.263519
1.000000 0.879608 0.282196
1.000000 0.873932 0.298431
1.000000 0.869263 0.312653
1.000000 0.866669 0.319946
1.000000 0.865509 0.319946
0.000000 0.863464 0.000000
0.000000 0.863312 0.000000
0.000000 0.863129 0.000000
0.000000 0.862823 0.000000
0.000000 0.862427 0.000000
0.000000 0.861938 0.000000
0.006317 0.861328 0.000000
0.175018 0.860657 0.000000
0.279724 0.871246 0.020813
0.372101 0.885132 0.050568
0.450836 0.896027 0.077606
0.520386 0.904388 0.103546
0.583588 0.911774 0.128418
0.640045 0.915680 0.154419
0.691162 0.920258 0.177856
0.737518 0.924072 0.200439
0.771790 0.922638 0.202515
0.803925 0.921387 0.202271
0.834503 0.920044 0.201965
0.863312 0.918640 0.201630
0.890411 0.917145 0.201324
0.915588 0.915588 0.200989
0.945496 0.920990 0.207520
0.972229 0.925537 0.213409
0.995667 0.929443 0.218536
1.000000 0.919952 0.239136
1.000000 0.909790 0.260895
1.000000 0.901703 0.279816
1.000000 0.895203 0.296356
1.000000 0.889984 0.310883
1.000000 0.886444 0.319946
1.000000 0.885620 0.319946
0.000000 0.887360 0.000000
0.000000 0.887268 0.000000
0.000000 0.887085 0.000000
0.000000 0.886810 0.000000
0.000000 0.886475 0.000000
0.000000 0.886017 0.000000
0.000000 0.885468 0.000000
0.147552 0.884857 0.000000
0.253082 0.890961 0.010071
0.351318 0.905914 0.041199
0.433746 0.917725 0.068756
0.506104 0.926910 0.095032
0.571228 0.933685 0.121094
0.630280 0.939606 0.145782
0.683777 0.944885 0.169281
0.731750 0.948212 0.192963
0.772552 0.949738 0.208466
0.805267 0.948608 0.208252
0.836182 0.947388 0.207977
0.865540 0.946136 0.207703
0.892914 0.944763 0.207367
0.918579 0.943390 0.207092
0.941925 0.941925 0.206757
0.969055 0.946716 0.212738
0.992859 0.950867 0.217926
1.000000 0.942749 0.236115
1.000000 0.931366 0.258118
1.000000 0.922363 0.277405
1.000000 0.915039 0.294220
1.000000 0.909241 0.308960
1.000000 0.904877 0.319946
1.000000 0.904022 0.319946
0.000000 0.908966 0.000000
0.000000 0.908875 0.000000
0.000000 0.908691 0.000000
0.000000 0.908447 0.000000
0.000000 0.908112 0.000000
0.000000 0.907715 0.000000
0.000000 0.907227 0.000000
0.114655 0.906677 0.000000
0.225281 0.906097 0.001007
0.329865 0.923798 0.032349
0.415802 0.936523 0.060608
0.491028 0.946442 0.087219
0.558441 0.953888 0.113312
0.619568 0.960541 0.138031
0.674622 0.965118 0.162750
0.724945 0.970367 0.185028
0.770447 0.973755 0.207642
0.805695 0.973145 0.213623
0.837219 0.972046 0.213379
0.866943 0.970917 0.213135
0.894928 0.969757 0.212860
0.921021 0.968445 0.212585
0.944672 0.967163 0.212280
0.965851 0.965851 0.212036
0.989990 0.970184 0.217285
1.000000 0.963867 0.232971
1.000000 0.951263 0.255341
1.000000 0.941223 0.274902
1.000000 0.933289 0.291992
1.000000 0.926727 0.307007
1.000000 0.921295 0.319946
1.000000 0.920624 0.319946
0.000000 0.928009 0.000000
0.000000 0.927917 0.000000
0.000000 0.927795 0.000000
0.000000 0.927551 0.000000
0.000000 0.927277 0.000000
0.000000 0.926910 0.000000
0.000000 0.926483 0.000000
0.071198 0.925964 0.000000
0.203796 0.925446 0.000000
0.307678 0.938721 0.024078
0.398132 0.952271 0.053375
0.475891 0.962891 0.080231
0.545532 0.971039 0.106537
0.608582 0.978271 0.131348
0.665833 0.984802 0.154785
0.717682 0.989288 0.178406
0.764984 0.993164 0.201111
0.805695 0.994873 0.218384
0.837646 0.993896 0.218170
0.867981 0.992859 0.217926
0.896332 0.991760 0.217712
0.922729 0.990692 0.217468
0.946869 0.989471 0.217194
0.968353 0.988312 0.216949
0.987152 0.987152 0.216705
1.000000 0.982880 0.229889
1.000000 0.969330 0.252594
1.000000 0.958435 0.272461
1.000000 0.949707 0.289764
1.000000 0.942474 0.305054
1.000000 0.936615 0.318481
1.000000 0.935242 0.319946
0.000000 0.944733 0.000000
0.000000 0.944641 0.000000
0.000000 0.944550 0.000000
0.000000 0.944336 0.000000
0.000000 0.944092 0.000000
0.000000 0.943756 0.000000
0.000000 0.943359 0.000000
0.000916 0.942902 0.000000
0.181549 0.942444 0.000000
0.285248 0.950897 0.016205
0.379639 0.966919 0.044922
0.460510 0.978149 0.072449
0.532318 0.986755 0.099091
0.597290 0.994568 0.123932
0.656219 1.000000 0.149139
0.708405 1.000000 0.177979
0.754791 1.000000 0.204803
0.796936 1.000000 0.230591
0.830322 1.000000 0.235443
0.860535 1.000000 0.234314
0.889160 1.000000 0.233154
0.915985 1.000000 0.231903
0.940643 1.000000 0.230591
0.962921 1.000000 0.229309
0.982666 1.000000 0.228027
1.000000 1.000000 0.226776
1.000000 0.985352 0.249817
1.000000 0.973785 0.269958
1.000000 0.964355 0.287598
1.000000 0.956604 0.303101
1.000000 0.950134 0.316772
1.000000 0.948212 0.319946
0.000000 0.959412 0.000000
0.000000 0.959351 0.000000
0.000000 0.959259 0.000000
0.000000 0.959045 0.000000
0.000000 0.958832 0.000000
0.000000 0.958527 0.000000
0.000000 0.958191 0.000000
0.000000 0.957764 0.000000
0.157074 0.957367 0.000000
0.262238 0.960602 0.008698
0.361420 0.977386 0.038757
0.445251 0.989319 0.066925
0.519165 1.000000 0.092377
0.585541 1.000000 0.125824
0.644623 1.000000 0.157135
0.696838 1.000000 0.186310
0.743774 1.000000 0.213867
0.785645 1.000000 0.239868
0.821442 1.000000 0.255981
0.850677 1.000000 0.254974
0.878326 1.000000 0.253876
0.904236 1.000000 0.252808
0.928009 1.000000 0.251617
0.949493 1.000000 0.250458
0.968475 1.000000 0.249329
0.985321 1.000000 0.248199
1.000000 1.000000 0.247070
1.000000 0.987488 0.267548
1.000000 0.977509 0.285431
1.000000 0.969116 0.301208
1.000000 0.962372 0.315125
1.000000 0.959656 0.319946
0.000000 0.972351 0.000000
0.000000 0.972290 0.000000
0.000000 0.972168 0.000000
0.000000 0.972015 0.000000
0.000000 0.971832 0.000000
0.000000 0.971527 0.000000
0.000000 0.971222 0.000000
0.000000 0.970886 0.000000
0.128906 0.970490 0.000000
0.237793 0.970062 0.000000
0.342499 0.987610 0.031250
0.430054 1.000000 0.060547
0.506836 1.000000 0.097382
0.574249 1.000000 0.131531
0.633850 1.000000 0.163544
0.686676 1.000000 0.193329
