src/assets/luts/大师配方/大师·韵.cube
#Created by: Adobe Photoshop Export Color Lookup Plugin
#Copyright: (C) Copyright 2026 aaa
TITLE "HG224大师滤镜.psd"
#LUT size
LUT_3D_SIZE 9
#data domain
DOMAIN_MIN 0.0 0.0 0.0
DOMAIN_MAX 1.0 1.0 1.0
#LUT data points
0.083069 0.116394 0.083069
0.161804 0.119415 0.085266
0.264618 0.114227 0.075592
0.411530 0.104401 0.058350
0.595581 0.080078 0.015015
0.768555 0.019104 0.019104
0.899170 0.022339 0.022339
0.986908 0.024536 0.024536
1.000000 0.072632 0.072632
0.071686 0.182404 0.071686
0.160248 0.189819 0.081512
0.260529 0.193176 0.079285
0.409637 0.190826 0.054535
0.594208 0.178497 0.017578
0.767731 0.154144 0.019073
0.898499 0.125427 0.022339
0.986359 0.094269 0.024536
1.000000 0.102203 0.072083
0.044617 0.272644 0.044617
0.145630 0.279388 0.048798
0.259552 0.289154 0.058655
0.405426 0.297119 0.047943
0.589203 0.295654 0.036377
0.763763 0.282623 0.031677
0.896759 0.265961 0.025940
0.985107 0.253174 0.024506
1.000000 0.270294 0.070923
0.000000 0.398499 0.000000
0.112183 0.400269 0.002441
0.248444 0.418488 0.028748
0.400208 0.425507 0.047394
0.580017 0.435730 0.061554
0.757690 0.437317 0.055969
0.889893 0.432281 0.052734
0.978546 0.426575 0.050446
1.000000 0.431488 0.087524
0.000000 0.551331 0.000000
0.029449 0.550995 0.000000
0.206818 0.561523 0.012451
0.392700 0.584503 0.050446
0.571777 0.588226 0.065521
0.746002 0.600342 0.083069
0.878815 0.606018 0.084106
0.969238 0.606781 0.080750
1.000000 0.603180 0.109406
0.000000 0.699280 0.000000
0.000000 0.699036 0.000000
0.146149 0.698486 0.000000
0.360657 0.725647 0.034485
0.575714 0.748932 0.082733
0.737274 0.745850 0.083069
0.869629 0.755676 0.096832
0.958527 0.762634 0.106750
1.000000 0.757599 0.127533
0.000000 0.811951 0.000000
0.000000 0.811768 0.000000
0.073669 0.811310 0.000000
0.326874 0.831207 0.021423
0.558807 0.859039 0.069702
0.742065 0.869141 0.096802
0.862305 0.865875 0.096466
0.951691 0.873016 0.105988
1.000000 0.869293 0.125214
0.000000 0.888611 0.000000
0.000000 0.888428 0.000000
0.000000 0.888031 0.000000
0.298828 0.900482 0.013397
0.543488 0.932159 0.061768
0.744202 0.952759 0.106110
0.865784 0.949860 0.105774
0.946381 0.947601 0.105530
1.000000 0.946045 0.119568
0.000000 0.941071 0.000000
0.000000 0.940918 0.000000
0.000000 0.940552 0.000000
0.276794 0.946838 0.007904
0.531494 0.982025 0.056091
0.736420 1.000000 0.106964
0.862823 1.000000 0.119415
0.944397 1.000000 0.117096
1.000000 1.000000 0.115326
0.081635 0.122070 0.157227
0.155731 0.112488 0.155731
0.259949 0.108856 0.155640
0.408081 0.098145 0.149811
0.590607 0.069824 0.135315
0.768707 0.019104 0.108032
0.899261 0.022369 0.056183
0.987000 0.024536 0.024536
1.000000 0.072662 0.072662
0.071686 0.182404 0.129517
0.148926 0.181061 0.148926
0.254425 0.182281 0.149567
0.402740 0.174988 0.139008
0.585052 0.161896 0.120239
0.761810 0.140717 0.085938
0.898132 0.114746 0.029480
0.986511 0.079010 0.024536
1.000000 0.084442 0.072205
0.044617 0.272644 0.123718
0.132263 0.272797 0.132263
0.251770 0.282318 0.145264
0.397888 0.285187 0.142120
0.582489 0.279785 0.114960
0.760620 0.271454 0.069702
0.897125 0.261810 0.025330
0.985291 0.248749 0.024506
1.000000 0.266083 0.071045
0.000000 0.398499 0.107880
0.101074 0.398926 0.101074
0.231476 0.407104 0.106842
0.394196 0.419922 0.119690
0.577454 0.430786 0.104095
0.758087 0.436096 0.055786
0.890198 0.430450 0.052521
0.978729 0.424408 0.050079
1.000000 0.429352 0.087311
0.000000 0.551331 0.034058
0.009064 0.551636 0.009064
0.201447 0.561188 0.011566
0.391388 0.585236 0.049866
0.572296 0.588898 0.065582
0.746399 0.600006 0.083099
0.879059 0.605164 0.083923
0.969421 0.605988 0.080658
1.000000 0.602051 0.109283
0.000000 0.699280 0.000000
0.000000 0.699432 0.000000
0.139221 0.698883 0.000000
0.358154 0.726074 0.033508
0.575165 0.749390 0.082397
0.737518 0.746246 0.083099
0.869904 0.755737 0.096893
0.958679 0.762329 0.106781
1.000000 0.756958 0.127502
0.000000 0.811951 0.000000
0.000000 0.811981 0.000000
0.059448 0.811523 0.000000
0.323883 0.829987 0.021820
0.557648 0.859344 0.069183
0.741852 0.869354 0.096832
0.862549 0.866119 0.096466
0.951813 0.872925 0.106018
1.000000 0.868866 0.125275
0.000000 0.888611 0.000000
0.000000 0.888580 0.000000
0.000000 0.888184 0.000000
0.295044 0.900665 0.012207
0.542053 0.932312 0.061218
0.743683 0.952881 0.106140
0.865906 0.949982 0.105804
0.946503 0.947723 0.105560
1.000000 0.946045 0.119659
0.000000 0.941071 0.000000
0.000000 0.941010 0.000000
0.000000 0.940643 0.000000
0.272400 0.946960 0.006531
0.529907 0.982147 0.055511
0.735931 1.000000 0.106812
0.862640 1.000000 0.119507
0.944397 1.000000 0.117157
1.000000 1.000000 0.115387
0.077728 0.112366 0.251434
0.152100 0.107819 0.251038
0.248993 0.102814 0.248993
0.393585 0.092102 0.248810
0.580872 0.065369 0.247986
0.760101 0.015961 0.242157
0.899384 0.021118 0.231903
0.987000 0.024536 0.220276
1.000000 0.072662 0.239746
0.068909 0.210480 0.248779
0.144928 0.181030 0.248810
0.246765 0.172943 0.246765
0.396515 0.168579 0.245697
0.581940 0.156036 0.240143
0.757599 0.132507 0.228638
0.891327 0.102112 0.216370
0.982666 0.066040 0.206360
1.000000 0.074738 0.229462
0.044617 0.272644 0.192871
0.132263 0.272797 0.210846
0.236450 0.270416 0.236450
0.389679 0.269348 0.235565
0.573425 0.260742 0.224548
0.749023 0.248688 0.209137
0.881592 0.236298 0.192932
0.970917 0.225891 0.178711
1.000000 0.245636 0.198669
0.000000 0.398499 0.173187
0.101074 0.398926 0.203766
0.214600 0.398926 0.214600
0.384460 0.410980 0.231140
0.566681 0.414825 0.228302
0.744781 0.410034 0.204956
0.879578 0.403168 0.181671
0.968384 0.398682 0.164001
1.000000 0.408264 0.178375
0.000000 0.551331 0.174042
0.009064 0.551636 0.173859
0.179962 0.552002 0.179962
0.363892 0.564941 0.190765
0.560577 0.577423 0.204529
0.736359 0.587952 0.201782
0.872314 0.592987 0.174713
0.963501 0.595001 0.148529
1.000000 0.595673 0.149384
0.000000 0.699280 0.151093
0.000000 0.699432 0.142914
0.123016 0.699646 0.123016
0.335266 0.711426 0.125610
0.563202 0.740326 0.153320
0.735168 0.743896 0.116913
0.870361 0.755371 0.096954
0.958984 0.761749 0.106812
1.000000 0.756134 0.127594
0.000000 0.811951 0.082672
0.000000 0.811981 0.066803
0.018982 0.812012 0.018982
0.317108 0.829010 0.020996
0.555298 0.859894 0.068268
0.741333 0.869843 0.096893
0.863007 0.866577 0.096527
0.952148 0.872833 0.106049
1.000000 0.868469 0.125488
0.000000 0.888611 0.000000
0.000000 0.888580 0.000000
0.000000 0.888489 0.000000
0.286957 0.899323 0.011139
0.539032 0.932709 0.060120
0.742859 0.953186 0.106140
0.865540 0.950287 0.105835
0.946777 0.947998 0.105591
1.000000 0.945862 0.119873
0.000000 0.941071 0.000000
0.000000 0.941010 0.000000
0.000000 0.940826 0.000000
0.263824 0.945343 0.005432
0.526459 0.982422 0.054199
0.734253 1.000000 0.106354
0.862030 1.000000 0.119690
0.944183 1.000000 0.117340
1.000000 1.000000 0.115540
0.076324 0.110809 0.385468
0.149567 0.105560 0.385406
0.245636 0.100555 0.384216
0.381348 0.087585 0.381348
0.553711 0.057312 0.379547
0.733368 0.006531 0.383087
0.870605 0.011963 0.383209
0.964600 0.013977 0.381134
1.000000 0.044128 0.386932
0.067444 0.194366 0.383881
0.141235 0.173553 0.384491
0.240662 0.167969 0.383759
0.380829 0.160217 0.380829
0.558472 0.146637 0.379913
0.739166 0.124817 0.381134
0.875336 0.094666 0.379425
0.965393 0.058838 0.377319
1.000000 0.047455 0.383484
0.044067 0.333893 0.380463
0.130096 0.303162 0.381012
0.230530 0.263824 0.381042
0.378143 0.257294 0.378143
0.562622 0.251801 0.376770
0.743927 0.241791 0.374420
0.878265 0.230011 0.369751
0.967194 0.218872 0.364655
1.000000 0.237732 0.378418
0.000000 0.398499 0.286133
0.101074 0.398926 0.307953
0.214600 0.398926 0.331635
0.365356 0.394745 0.365356
0.554504 0.392944 0.363861
0.731812 0.385284 0.354919
0.864502 0.377502 0.345978
0.953339 0.371521 0.338959
1.000000 0.379303 0.347443
0.000000 0.551331 0.263672
0.009064 0.551636 0.265656
0.179962 0.552002 0.318390
0.339935 0.551422 0.339935
0.547302 0.564697 0.358734
0.722931 0.569031 0.360626
0.857880 0.566376 0.345673
0.947632 0.562744 0.335175
1.000000 0.562439 0.335938
0.000000 0.699280 0.267700
0.000000 0.699432 0.266205
0.123016 0.699646 0.302368
0.311279 0.699554 0.311279
0.530914 0.715942 0.328094
0.715973 0.724884 0.340759
0.848541 0.732361 0.346619
0.939056 0.736206 0.340912
1.000000 0.737396 0.333588
0.000000 0.811951 0.267212
0.000000 0.811981 0.265442
0.018982 0.812012 0.267395
0.283600 0.811829 0.283600
0.510345 0.825226 0.294037
0.719421 0.849792 0.328247
0.843750 0.847504 0.316620
0.933716 0.853516 0.316132
0.994415 0.857880 0.318176
0.000000 0.888611 0.264679
0.000000 0.888580 0.262482
0.000000 0.888489 0.257904
0.260162 0.888092 0.260162
0.494995 0.900330 0.265930
0.711548 0.927704 0.298920
0.847565 0.933105 0.301910
0.930481 0.931732 0.291016
0.991974 0.936340 0.288818
0.000000 0.941071 0.261688
0.000000 0.941010 0.259155
0.000000 0.940826 0.254028
0.241058 0.940308 0.241058
0.484039 0.951813 0.244019
0.705231 0.980408 0.275970
0.850281 0.991882 0.288055
0.933746 0.990845 0.275726
0.990112 0.990112 0.265778
0.075897 0.110260 0.551544
0.148499 0.104767 0.551514
0.244141 0.099792 0.550781
0.379181 0.086884 0.548981
0.545349 0.054443 0.545349
0.703461 0.000000 0.539093
0.837067 0.002808 0.543762
0.930389 0.004974 0.547211
0.993469 0.006775 0.548767
0.067017 0.178223 0.550568
0.139709 0.171844 0.550995
0.237854 0.165802 0.550629
0.376587 0.158173 0.548828
0.545166 0.141632 0.545166
0.705505 0.115051 0.539307
0.842285 0.083862 0.544739
0.933472 0.046265 0.546387
0.993042 0.009430 0.546875
0.043732 0.315399 0.548401
0.128693 0.282867 0.548828
0.226288 0.259033 0.549408
0.370575 0.251892 0.547974
0.544220 0.242065 0.544220
0.711456 0.229248 0.540985
0.847809 0.218140 0.544189
0.940552 0.206696 0.544769
1.000000 0.200958 0.545258
0.000000 0.512421 0.543610
0.100159 0.478088 0.543976
0.211426 0.437714 0.544495
0.357208 0.385986 0.544067
0.540253 0.378693 0.540253
0.715820 0.374420 0.538544
0.852966 0.369080 0.538483
0.945038 0.364105 0.537292
1.000000 0.367828 0.539612
0.000000 0.551331 0.414978
0.009064 0.551636 0.417053
0.179962 0.552002 0.454102
0.339935 0.551422 0.487610
0.526306 0.545258 0.526306
0.707611 0.543945 0.525208
0.841919 0.539795 0.520569
0.931396 0.535797 0.516327
0.992004 0.532806 0.513031
0.000000 0.699280 0.373535
0.000000 0.699432 0.372925
0.123016 0.699646 0.411469
0.311279 0.699554 0.469208
0.503540 0.697540 0.503540
0.700043 0.709229 0.521088
0.832031 0.712891 0.526825
0.923370 0.712372 0.519135
0.984650 0.710510 0.513458
0.000000 0.811951 0.378632
0.000000 0.811981 0.377838
0.018982 0.812012 0.382385
0.283600 0.811829 0.463501
0.484711 0.810516 0.484711
0.689789 0.826263 0.503143
0.826813 0.830627 0.512207
0.916229 0.834839 0.516479
0.976410 0.837524 0.519897
0.000000 0.888611 0.380951
0.000000 0.888580 0.380066
0.000000 0.888489 0.378296
0.260162 0.888092 0.457611
0.470795 0.886871 0.470795
0.675751 0.900543 0.483887
0.827972 0.915039 0.508911
0.911774 0.913086 0.504181
0.972717 0.916351 0.506287
0.000000 0.941071 0.382538
0.000000 0.941010 0.381592
0.000000 0.940826 0.379456
0.241058 0.940308 0.451904
0.460541 0.938995 0.460541
0.665833 0.950500 0.470856
0.824097 0.968994 0.499054
0.912933 0.970856 0.501160
0.969543 0.969543 0.497498
0.075745 0.110046 0.711609
0.148163 0.104431 0.711548
0.243591 0.099518 0.710999
0.378387 0.086609 0.709717
0.544220 0.054230 0.707123
0.703461 0.000000 0.703461
0.822906 0.000000 0.699341
0.903168 0.000000 0.696106
0.959595 0.000366 0.695435
0.066864 0.177856 0.710876
0.139160 0.171143 0.711121
0.236786 0.164948 0.710846
0.374908 0.157318 0.709534
0.542755 0.140869 0.706940
0.703247 0.113708 0.703247
0.822632 0.079987 0.698425
0.902863 0.040588 0.695068
0.959259 0.001831 0.694183
0.043610 0.298462 0.709351
0.128143 0.265686 0.709564
0.224457 0.257050 0.709961
0.367310 0.249542 0.708984
0.539703 0.239807 0.706360
0.702637 0.225281 0.702637
0.821930 0.210785 0.696594
0.906189 0.199097 0.695923
0.969849 0.189117 0.699188
0.000000 0.494965 0.705902
0.099701 0.459625 0.706116
0.209717 0.417603 0.706482
0.352142 0.380615 0.706726
0.532288 0.372894 0.704285
0.700470 0.364258 0.700470
0.820770 0.356903 0.693237
0.913696 0.351746 0.697052
0.976349 0.347870 0.698639
0.000000 0.699463 0.696716
0.009003 0.699646 0.699646
0.178711 0.654266 0.699951
0.335724 0.597504 0.700043
0.518158 0.536835 0.698242
0.694214 0.530762 0.694214
0.825531 0.528198 0.692108
0.917969 0.526367 0.693115
0.980591 0.524628 0.693054
0.000000 0.699280 0.538971
0.000000 0.699432 0.539093
0.123016 0.699646 0.565765
0.311279 0.699554 0.606262
0.503540 0.697540 0.646057
0.681213 0.690918 0.681213
0.817780 0.690521 0.680786
0.908295 0.688904 0.679108
0.969452 0.687256 0.677429
0.000000 0.811951 0.505280
0.000000 0.811981 0.504913
0.018982 0.812012 0.508057
0.283600 0.811829 0.565887
0.484711 0.810516 0.627563
0.666046 0.807129 0.666046
0.811462 0.815277 0.679016
0.900726 0.818268 0.683105
0.961853 0.818512 0.680786
0.000000 0.888611 0.481415
0.000000 0.888580 0.480743
0.000000 0.888489 0.480042
0.260162 0.888092 0.561554
0.470795 0.886871 0.625610
0.654694 0.884277 0.654694
0.805511 0.895416 0.669495
0.896454 0.897766 0.675140
0.957428 0.900391 0.677673
0.000000 0.941071 0.483856
0.000000 0.941010 0.483612
0.000000 0.940826 0.482361
0.241058 0.940308 0.557404
0.460541 0.938995 0.623840
0.646606 0.936646 0.646606
0.796112 0.946472 0.657318
0.896851 0.955383 0.674316
0.953918 0.953918 0.671936
0.075684 0.110046 0.832458
0.148071 0.104340 0.832397
0.243378 0.099396 0.831940
0.377991 0.086487 0.830902
0.543793 0.054138 0.828796
0.702850 0.000000 0.825836
0.822906 0.000000 0.822906
0.903168 0.000000 0.820251
0.957733 0.000000 0.818390
0.066803 0.177765 0.831879
0.138916 0.170898 0.832001
0.236267 0.164612 0.831726
0.374237 0.156982 0.830658
0.541809 0.140533 0.828552
0.701965 0.113434 0.825592
0.822662 0.078979 0.822662
0.902863 0.039551 0.819611
0.957397 0.000305 0.817657
0.043579 0.285889 0.830627
0.127930 0.265381 0.830750
0.223724 0.256195 0.830902
0.365967 0.248566 0.830078
0.537720 0.238861 0.827942
0.700165 0.224365 0.824951
0.821991 0.209106 0.821991
0.902130 0.196716 0.818420
0.956635 0.186523 0.816010
0.000000 0.482025 0.827850
0.099518 0.446472 0.827942
0.209015 0.403534 0.828094
0.349915 0.378174 0.828186
0.528717 0.370331 0.826263
0.695892 0.361755 0.823212
0.820190 0.353119 0.820190
0.900269 0.347015 0.815308
0.954742 0.341797 0.812286
0.000000 0.702545 0.822632
0.008972 0.698120 0.822693
0.178101 0.639435 0.822815
0.333588 0.580963 0.822845
0.513153 0.531708 0.821899
0.687500 0.525513 0.818817
0.815735 0.519989 0.815735
0.896057 0.516815 0.809662
0.956604 0.514435 0.810425
0.000000 0.815369 0.755249
0.000000 0.815430 0.755707
0.122589 0.815521 0.783203
0.309479 0.805298 0.815430
0.499054 0.741882 0.814301
0.675903 0.685547 0.810974
0.807739 0.681458 0.807739
0.895477 0.680267 0.806213
0.959106 0.679474 0.807404
0.000000 0.811951 0.632355
0.000000 0.811981 0.632385
0.018982 0.812012 0.636597
0.283600 0.811829 0.693573
0.484711 0.810516 0.736053
0.666046 0.807129 0.772614
0.797974 0.801941 0.797974
0.889587 0.801880 0.797821
0.951294 0.801300 0.797241
0.000000 0.888611 0.609833
0.000000 0.888580 0.609589
0.000000 0.888489 0.609100
0.260162 0.888092 0.663971
0.470795 0.886871 0.706879
0.654694 0.884277 0.758667
0.789185 0.880920 0.789185
0.884735 0.886017 0.797668
0.945740 0.888550 0.800079
0.000000 0.941071 0.594147
0.000000 0.941010 0.593658
0.000000 0.940826 0.592834
0.241058 0.940308 0.642914
0.460541 0.938995 0.701050
0.646606 0.936646 0.757843
0.782410 0.933899 0.782410
0.881378 0.941010 0.792145
0.942474 0.942474 0.796234
0.075653 0.110016 0.913666
0.147949 0.104279 0.913574
0.243195 0.099335 0.913177
0.377991 0.086456 0.912231
0.543518 0.054108 0.910400
0.702545 0.000000 0.907776
0.822571 0.000000 0.905212
0.903168 0.000000 0.903168
0.957733 0.000000 0.901367
0.066803 0.177765 0.913147
0.138824 0.170776 0.913177
0.236084 0.164459 0.912903
0.373993 0.156830 0.911957
0.541412 0.140381 0.910126
0.701569 0.113312 0.907471
0.822021 0.078888 0.904907
0.902863 0.038727 0.902863
0.957397 0.000000 0.900818
0.043549 0.277008 0.912048
0.127808 0.265106 0.912079
0.223389 0.255829 0.912109
0.365356 0.248138 0.911316
0.536896 0.238403 0.909454
0.699097 0.223969 0.906799
0.820679 0.208710 0.904205
0.902161 0.195740 0.902161
0.956635 0.185760 0.899811
0.000000 0.473663 0.909576
0.099426 0.437866 0.909607
0.208710 0.394714 0.909607
0.348846 0.377045 0.909515
0.527069 0.369110 0.907776
0.693695 0.360535 0.905090
0.817657 0.351929 0.902466
0.900360 0.344940 0.900360
0.954803 0.340210 0.897339
0.000000 0.694183 0.904968
0.008972 0.689270 0.904968
0.177795 0.630157 0.904968
0.332581 0.570648 0.904816
0.510620 0.529053 0.903900
0.684143 0.522827 0.901245
0.811737 0.517365 0.898560
0.896423 0.512970 0.896423
0.950897 0.510590 0.892426
0.000000 0.893311 0.898590
0.000000 0.892670 0.898590
0.122375 0.864258 0.898560
0.308502 0.799103 0.898315
0.496582 0.729431 0.897308
0.672150 0.681732 0.894867
0.803345 0.677734 0.892120
0.889954 0.674591 0.889954
0.944855 0.673035 0.885651
0.000000 0.892334 0.779694
0.000000 0.892334 0.779907
0.018951 0.892242 0.784363
0.282776 0.891937 0.842255
0.482452 0.890778 0.886292
0.662537 0.840118 0.888275
0.795319 0.799286 0.884918
0.882660 0.796783 0.882660
0.942719 0.795929 0.882111
0.000000 0.888611 0.694885
0.000000 0.888580 0.694855
0.000000 0.888489 0.694794
0.260162 0.888092 0.750732
0.470795 0.886871 0.795441
0.654694 0.884277 0.833221
0.789185 0.880920 0.859680
0.876251 0.877594 0.876251
0.938507 0.877594 0.876190
0.000000 0.941071 0.679596
0.000000 0.941010 0.679352
0.000000 0.940826 0.678986
0.241058 0.940308 0.730164
0.460541 0.938995 0.775696
0.646606 0.936646 0.813293
0.782410 0.933899 0.850769
0.871033 0.931458 0.871033
0.934753 0.934753 0.876678
0.075623 0.109863 0.968872
0.147949 0.104248 0.968781
0.243164 0.099304 0.968414
0.377899 0.086426 0.967560
0.543335 0.054077 0.965820
0.702576 0.000000 0.963409
0.822357 0.000000 0.961029
0.902954 0.000000 0.959167
0.957764 0.000000 0.957764
0.066772 0.177704 0.968414
0.138763 0.170776 0.968384
0.235992 0.164368 0.968109
0.373840 0.156769 0.967255
0.541229 0.140320 0.965515
0.701263 0.113251 0.963104
0.821625 0.078827 0.960724
0.902435 0.038666 0.958832
0.957397 0.000000 0.957397
0.043549 0.271790 0.967377
0.127777 0.265106 0.967346
0.223206 0.255737 0.967285
0.365082 0.247894 0.966522
0.536407 0.238190 0.964813
0.698547 0.223724 0.962372
0.819977 0.208496 0.959961
0.901276 0.195526 0.958069
0.956635 0.185181 0.956635
0.000000 0.467926 0.965088
0.099396 0.432037 0.965057
0.208527 0.388794 0.964996
0.348267 0.376404 0.964722
0.526093 0.368439 0.963104
0.692535 0.359894 0.960632
0.816254 0.351288 0.958191
0.898895 0.344299 0.956268
0.954834 0.338959 0.954834
0.000000 0.688019 0.960846
0.008972 0.683350 0.960815
0.177643 0.624054 0.960724
0.332001 0.563965 0.960388
0.509216 0.527557 0.959412
0.682251 0.521332 0.956940
0.809479 0.515869 0.954468
0.893951 0.511505 0.952515
0.951050 0.508209 0.951050
0.000000 0.901093 0.954956
0.000000 0.900146 0.954926
0.122253 0.858063 0.954803
0.307983 0.792023 0.954407
0.495209 0.721588 0.953339
0.669891 0.679443 0.951172
0.800720 0.675446 0.948669
0.886993 0.672333 0.946686
0.945190 0.669983 0.945190
0.000000 0.949188 0.881073
0.000000 0.949127 0.881470
0.018921 0.948975 0.886078
0.282288 0.948547 0.944305
0.481079 0.896027 0.947357
0.660309 0.831299 0.945129
0.793121 0.797058 0.942413
0.880280 0.794586 0.940399
0.938904 0.792694 0.938904
0.000000 0.944580 0.796082
0.000000 0.944519 0.796234
0.000000 0.944336 0.796326
0.259705 0.943848 0.852814
0.469513 0.942596 0.898254
0.652527 0.940308 0.936859
0.787018 0.902435 0.937561
0.875031 0.876373 0.935089
0.933594 0.874725 0.933594
0.000000 0.941071 0.737274
0.000000 0.941010 0.737244
0.000000 0.940826 0.737091
0.241058 0.940308 0.788879
0.460541 0.938995 0.835388
0.646606 0.936646 0.873840
0.782410 0.933899 0.901093
0.871033 0.931458 0.918365
0.929413 0.929413 0.929413
