src/assets/luts/大师配方/大师·璨.cube
#Created by: Adobe Photoshop Export Color Lookup Plugin
#Copyright: (C) Copyright 2026 aaa
TITLE "HG224大师滤镜.psd"
#LUT size
LUT_3D_SIZE 9
#data domain
DOMAIN_MIN 0.0 0.0 0.0
DOMAIN_MAX 1.0 1.0 1.0
#LUT data points
0.000000 0.000000 0.000000
0.051514 0.000000 0.000000
0.237366 0.000000 0.000000
0.429932 0.000000 0.000000
0.605133 0.000671 0.000000
0.773499 0.003235 0.000000
0.951599 0.005981 0.000000
1.000000 0.078033 0.055878
1.000000 0.152344 0.149170
0.000000 0.072083 0.000000
0.051514 0.088165 0.000000
0.237366 0.092285 0.000000
0.429932 0.096344 0.000000
0.605133 0.100067 0.000000
0.773499 0.103729 0.000000
0.951599 0.107574 0.000000
1.000000 0.171936 0.055878
1.000000 0.235626 0.149170
0.000000 0.208435 0.000000
0.041168 0.226929 0.000000
0.237366 0.250977 0.000000
0.429932 0.255524 0.000000
0.605133 0.259735 0.000000
0.773499 0.263763 0.000000
0.951599 0.268005 0.000000
1.000000 0.309753 0.055878
1.000000 0.354797 0.149170
0.000000 0.357330 0.000000
0.034149 0.362305 0.000000
0.232697 0.417328 0.000000
0.429932 0.428650 0.000000
0.605133 0.433258 0.000000
0.773499 0.437378 0.000000
0.951599 0.441742 0.000000
1.000000 0.456299 0.055878
1.000000 0.479492 0.149170
0.000000 0.498474 0.000000
0.032806 0.498474 0.000000
0.216919 0.551636 0.000000
0.434418 0.596802 0.000000
0.605133 0.597046 0.000000
0.773499 0.601776 0.000000
0.951599 0.606140 0.000000
1.000000 0.593262 0.055878
1.000000 0.595276 0.149170
0.000000 0.636566 0.000000
0.032806 0.636566 0.000000
0.206421 0.679840 0.000000
0.418427 0.736237 0.000000
0.609161 0.761749 0.000000
0.773499 0.762054 0.000000
0.951599 0.766632 0.000000
1.000000 0.726746 0.055878
1.000000 0.707855 0.149170
0.000000 0.787964 0.000000
0.032990 0.787964 0.000000
0.198730 0.817719 0.000000
0.401733 0.880310 0.000000
0.601166 0.926697 0.000000
0.778198 0.942352 0.000000
0.951599 0.942688 0.000000
1.000000 0.872253 0.055878
1.000000 0.829956 0.149170
0.000000 0.917938 0.000000
0.032745 0.917938 0.000000
0.194519 0.934204 0.000000
0.390808 1.000000 0.000000
0.575134 1.000000 0.000000
0.736328 1.000000 0.047974
0.882507 1.000000 0.052185
1.000000 0.997040 0.055878
1.000000 0.934204 0.149170
0.000000 1.000000 0.000000
0.032654 1.000000 0.000000
0.195862 1.000000 0.000000
0.396484 1.000000 0.000000
0.562256 1.000000 0.063202
0.706726 1.000000 0.121338
0.836884 1.000000 0.149170
0.937561 1.000000 0.149170
1.000000 1.000000 0.149170
0.000000 0.000000 0.047668
0.032806 0.000000 0.047668
0.224823 0.000000 0.063019
0.435730 0.000000 0.070282
0.619781 0.000000 0.072601
0.792511 0.000000 0.073486
0.974884 0.000000 0.074585
1.000000 0.078033 0.172333
1.000000 0.152344 0.245026
0.000000 0.072083 0.047668
0.035767 0.072693 0.044678
0.242676 0.063019 0.024078
0.452881 0.053467 0.010620
0.642029 0.046570 0.000000
0.816284 0.045105 0.000000
1.000000 0.044250 0.000488
1.000000 0.156647 0.154388
1.000000 0.235565 0.244995
0.000000 0.208435 0.047699
0.032745 0.208435 0.047668
0.217499 0.232880 0.053345
0.432190 0.237000 0.034485
0.630249 0.230927 0.014557
0.816284 0.223877 0.000000
1.000000 0.220642 0.000488
1.000000 0.296600 0.154388
1.000000 0.354706 0.244995
0.000000 0.357330 0.047638
0.032806 0.357330 0.047668
0.207581 0.388916 0.050201
0.409729 0.409729 0.058838
0.596710 0.417236 0.051208
0.786957 0.419617 0.033630
0.986877 0.416870 0.016174
1.000000 0.445435 0.154388
1.000000 0.479431 0.244995
0.000000 0.498474 0.047546
0.032867 0.498474 0.047668
0.196930 0.519196 0.047821
0.410065 0.572418 0.060333
0.584381 0.577179 0.063690
0.754608 0.582336 0.066620
0.955566 0.591187 0.048676
1.000000 0.585266 0.154388
1.000000 0.595123 0.244995
0.000000 0.636566 0.047546
0.032806 0.636566 0.047668
0.191193 0.645020 0.046906
0.392761 0.705536 0.052948
0.588623 0.741211 0.067993
0.752808 0.741364 0.068329
0.930756 0.746216 0.073181
1.000000 0.721313 0.154388
1.000000 0.707886 0.244995
0.000000 0.787964 0.047516
0.032898 0.787964 0.047668
0.189423 0.787964 0.047668
0.379303 0.846130 0.050293
0.574371 0.897430 0.060455
0.757568 0.921326 0.072937
0.930756 0.921448 0.073181
1.000000 0.869720 0.154388
1.000000 0.829834 0.244995
0.000000 0.917938 0.047424
0.032654 0.917938 0.047668
0.189453 0.917938 0.047668
0.370209 0.968109 0.046417
0.557434 1.000000 0.076599
0.726837 1.000000 0.134521
0.880035 1.000000 0.150818
1.000000 0.997101 0.154388
1.000000 0.934265 0.244995
0.000000 1.000000 0.047821
0.032990 1.000000 0.047668
0.189453 1.000000 0.047668
0.378235 1.000000 0.088623
0.551636 1.000000 0.149048
0.701172 1.000000 0.205597
0.836945 1.000000 0.244995
0.937561 1.000000 0.244995
1.000000 1.000000 0.244995
0.000000 0.000000 0.214355
0.032745 0.000000 0.214355
0.189392 0.000000 0.214355
0.373596 0.000000 0.227081
0.565460 0.000000 0.243744
0.750366 0.000000 0.253815
0.945770 0.000000 0.261230
1.000000 0.064178 0.313263
1.000000 0.143127 0.366028
0.000000 0.072113 0.214355
0.032745 0.072083 0.214355
0.198730 0.063934 0.213898
0.417694 0.046082 0.217377
0.624023 0.036163 0.215057
0.817322 0.031738 0.213074
1.000000 0.037720 0.217529
1.000000 0.156647 0.311981
1.000000 0.235565 0.373871
0.000000 0.208435 0.214355
0.032806 0.208435 0.214355
0.196228 0.208191 0.208984
0.408447 0.197632 0.194519
0.598633 0.189087 0.185425
0.782104 0.180847 0.176910
0.975922 0.172699 0.168243
1.000000 0.271545 0.284668
1.000000 0.354797 0.373962
0.000000 0.357330 0.214355
0.032806 0.357330 0.214294
0.189392 0.357330 0.214355
0.382141 0.383453 0.219757
0.576721 0.388306 0.205841
0.766479 0.383484 0.191132
0.967499 0.374847 0.175751
1.000000 0.424957 0.284668
1.000000 0.479553 0.373962
0.000000 0.498474 0.214355
0.032806 0.498474 0.214294
0.189362 0.498474 0.214355
0.373901 0.533203 0.216919
0.556458 0.550049 0.224335
0.735046 0.557434 0.219330
0.935577 0.560638 0.203979
1.000000 0.569550 0.284668
1.000000 0.595276 0.373962
0.000000 0.636566 0.214417
0.032806 0.636566 0.214417
0.189362 0.636566 0.214355
0.362305 0.661560 0.213928
0.556946 0.709015 0.226013
0.724518 0.713654 0.228668
0.903992 0.718903 0.231873
1.000000 0.710754 0.284668
1.000000 0.707825 0.373962
0.000000 0.787964 0.214233
0.032806 0.787964 0.214325
0.189453 0.787964 0.214355
0.355621 0.798767 0.213898
0.538513 0.854370 0.218719
0.729065 0.892792 0.233063
0.902222 0.892853 0.233307
1.000000 0.864777 0.284668
1.000000 0.830048 0.373962
0.000000 0.917938 0.214294
0.032806 0.917938 0.214325
0.189392 0.917938 0.214355
0.352905 0.917938 0.214355
0.527069 0.975586 0.215881
0.708649 1.000000 0.248749
0.875122 1.000000 0.281219
1.000000 0.996948 0.284668
1.000000 0.934265 0.373962
0.000000 1.000000 0.214264
0.032806 1.000000 0.214264
0.189362 1.000000 0.214355
0.352936 1.000000 0.214355
0.531647 1.000000 0.263062
0.690979 1.000000 0.318756
0.836884 1.000000 0.373962
0.937561 1.000000 0.373962
1.000000 1.000000 0.373962
0.000000 0.000000 0.376648
0.032806 0.000000 0.376648
0.189392 0.000000 0.376648
0.352905 0.000000 0.376709
0.501617 0.000000 0.376617
0.685730 0.000000 0.400177
0.881226 0.000000 0.417419
1.000000 0.016266 0.433167
1.000000 0.089233 0.458405
0.000000 0.072052 0.376648
0.032867 0.072083 0.376648
0.189423 0.072083 0.376648
0.353577 0.071442 0.376923
0.533478 0.055328 0.385284
0.737762 0.041290 0.398529
0.951416 0.029053 0.402557
1.000000 0.117279 0.438751
1.000000 0.200195 0.476501
0.000000 0.208435 0.376648
0.032806 0.208405 0.376648
0.189392 0.208435 0.376648
0.360962 0.201080 0.377075
0.557831 0.185028 0.382935
0.758606 0.173248 0.382324
0.964508 0.166962 0.380005
1.000000 0.271545 0.447083
1.000000 0.354797 0.502441
0.000000 0.357330 0.376617
0.032806 0.357330 0.376678
0.189392 0.357330 0.376648
0.361145 0.356201 0.370728
0.552795 0.346954 0.359924
0.735504 0.338715 0.352112
0.928802 0.330383 0.344055
1.000000 0.393036 0.413910
1.000000 0.479492 0.502441
0.000000 0.498474 0.376617
0.032806 0.498474 0.376617
0.189392 0.498474 0.376617
0.352875 0.498474 0.376648
0.528412 0.523071 0.381470
0.715820 0.527313 0.368988
0.916290 0.521790 0.354614
1.000000 0.545135 0.413910
1.000000 0.595245 0.502441
0.000000 0.636566 0.376587
0.032806 0.636566 0.376770
0.189392 0.636566 0.376617
0.352905 0.636566 0.376648
0.520386 0.668488 0.379089
0.696106 0.685760 0.385803
0.884888 0.693390 0.380890
1.000000 0.693817 0.413910
1.000000 0.707886 0.502441
0.000000 0.787964 0.376740
0.032806 0.787964 0.376709
0.189392 0.787964 0.376617
0.352844 0.787964 0.376648
0.508484 0.808075 0.376526
0.694183 0.856323 0.385834
0.873596 0.864349 0.390320
1.000000 0.856659 0.413910
1.000000 0.830017 0.502441
0.000000 0.917938 0.376617
0.032806 0.917938 0.376678
0.189392 0.917938 0.376801
0.352905 0.917938 0.376648
0.503510 0.926056 0.376129
0.678741 0.980316 0.380341
0.867279 1.000000 0.410522
1.000000 0.996826 0.413910
1.000000 0.934387 0.502441
0.000000 1.000000 0.376648
0.032806 1.000000 0.376740
0.189392 1.000000 0.376556
0.352844 1.000000 0.376648
0.501617 1.000000 0.376648
0.675568 1.000000 0.431366
0.832520 1.000000 0.489075
0.937500 1.000000 0.502441
1.000000 1.000000 0.502441
0.000000 0.000000 0.521515
0.032715 0.000000 0.521515
0.189423 0.000000 0.521515
0.352905 0.000000 0.521515
0.501617 0.000000 0.521515
0.644989 0.000000 0.521515
0.820801 0.000000 0.537231
0.983856 0.000000 0.555603
1.000000 0.043304 0.557861
0.000000 0.072083 0.521515
0.032867 0.072083 0.521515
0.189423 0.072083 0.521515
0.352936 0.072083 0.521515
0.501617 0.072083 0.521606
0.654541 0.064453 0.524017
0.864990 0.048126 0.546082
1.000000 0.069702 0.558807
1.000000 0.149384 0.568604
0.000000 0.208496 0.521515
0.032806 0.208374 0.521515
0.189423 0.208435 0.521515
0.352875 0.208435 0.521515
0.501617 0.208435 0.521515
0.672729 0.193970 0.530396
0.887024 0.179474 0.545105
1.000000 0.221008 0.561005
1.000000 0.309265 0.588440
0.000000 0.357361 0.521515
0.032806 0.357300 0.521515
0.189392 0.357330 0.521515
0.352905 0.357330 0.521515
0.507935 0.351685 0.522186
0.697784 0.336456 0.529205
0.910095 0.323853 0.528381
1.000000 0.387146 0.563751
1.000000 0.479492 0.617798
0.000000 0.498474 0.521515
0.032806 0.498474 0.521545
0.189392 0.498474 0.521545
0.352905 0.498474 0.521515
0.509705 0.496979 0.516144
0.693237 0.488159 0.507141
0.885925 0.479706 0.499390
1.000000 0.507385 0.530334
1.000000 0.595276 0.617737
0.000000 0.636566 0.521576
0.032806 0.636566 0.521515
0.189392 0.636566 0.521515
0.352905 0.636566 0.521515
0.501617 0.636566 0.521515
0.670776 0.660461 0.526062
0.867706 0.664917 0.514282
1.000000 0.667999 0.530334
1.000000 0.707855 0.617737
0.000000 0.787964 0.521576
0.032806 0.787964 0.521454
0.189392 0.787964 0.521515
0.352905 0.787964 0.521515
0.501648 0.787964 0.521515
0.661102 0.818207 0.523376
0.847992 0.838593 0.530548
0.999725 0.844055 0.530548
1.000000 0.829895 0.617737
0.000000 0.917938 0.521515
0.032806 0.917938 0.521637
0.189392 0.917938 0.521515
0.352905 0.917938 0.521515
0.501587 0.917938 0.521515
0.651825 0.937408 0.521667
0.848602 0.987671 0.532471
0.994995 0.991547 0.534271
1.000000 0.934357 0.617737
0.000000 1.000000 0.521606
0.032806 1.000000 0.521576
0.189392 1.000000 0.521515
0.352905 1.000000 0.521515
0.501587 1.000000 0.521515
0.652740 1.000000 0.532379
0.825104 1.000000 0.589935
0.937592 1.000000 0.617737
1.000000 1.000000 0.617737
0.000000 0.000000 0.658020
0.032867 0.000000 0.658020
0.189484 0.000000 0.658020
0.352936 0.000000 0.658020
0.501709 0.000000 0.658020
0.644989 0.000000 0.657959
0.796265 0.000000 0.658081
0.925873 0.000000 0.660645
1.000000 0.004700 0.666168
0.000000 0.072113 0.658020
0.032806 0.072083 0.658020
0.189392 0.072083 0.658020
0.352814 0.072083 0.658020
0.501617 0.072083 0.658020
0.644989 0.072083 0.657928
0.796265 0.072083 0.658081
0.955719 0.059052 0.672943
1.000000 0.103027 0.671661
0.000000 0.208496 0.658020
0.032806 0.208435 0.658020
0.189392 0.208435 0.658020
0.352905 0.208435 0.658020
0.501587 0.208435 0.658020
0.644989 0.208435 0.657928
0.804565 0.201385 0.660339
0.981262 0.188507 0.681274
1.000000 0.258026 0.681854
0.000000 0.357330 0.658020
0.032806 0.357361 0.658020
0.189392 0.357361 0.658020
0.352905 0.357330 0.658020
0.501617 0.357330 0.658020
0.644989 0.357330 0.658051
0.828674 0.343109 0.669586
1.000000 0.336456 0.681671
1.000000 0.426453 0.697205
0.000000 0.498413 0.658020
0.032806 0.498413 0.658020
0.189392 0.498505 0.658020
0.352905 0.498474 0.658020
0.501617 0.498474 0.658020
0.648926 0.494934 0.658844
0.850769 0.479279 0.667725
1.000000 0.491516 0.676544
1.000000 0.585754 0.719910
0.000000 0.636566 0.657959
0.032806 0.636566 0.658051
0.189392 0.636566 0.657990
0.352905 0.636566 0.658051
0.501617 0.636566 0.658020
0.652252 0.634979 0.653503
0.845398 0.626190 0.645203
1.000000 0.623230 0.643219
1.000000 0.707855 0.726654
0.000000 0.787964 0.658203
0.032806 0.787964 0.658051
0.189392 0.787964 0.658112
0.352905 0.787964 0.658020
0.501617 0.787964 0.658020
0.644989 0.787964 0.658020
0.823425 0.814026 0.662750
0.984009 0.819458 0.655914
1.000000 0.829956 0.726654
0.000000 0.917938 0.658112
0.032806 0.917938 0.658051
0.189392 0.917938 0.657928
0.352905 0.917938 0.658020
0.501617 0.917938 0.658020
0.644958 0.917938 0.658020
0.816681 0.952332 0.660645
0.970551 0.966583 0.666443
1.000000 0.934387 0.726654
0.000000 1.000000 0.658112
0.032806 1.000000 0.658020
0.189392 1.000000 0.658051
0.352905 1.000000 0.657959
0.501617 1.000000 0.658081
0.644989 1.000000 0.658020
0.812103 1.000000 0.684967
0.937622 1.000000 0.726654
1.000000 1.000000 0.726654
0.000000 0.000000 0.803040
0.033112 0.000000 0.803040
0.189331 0.000000 0.803040
0.352844 0.000000 0.803040
0.501770 0.000000 0.803040
0.645172 0.000000 0.803040
0.796265 0.000000 0.802979
0.922028 0.000000 0.802917
1.000000 0.000000 0.803040
0.000000 0.071991 0.803040
0.032898 0.072083 0.803040
0.189362 0.072083 0.803040
0.352844 0.072083 0.803040
0.501648 0.072083 0.803040
0.645081 0.072083 0.803040
0.796265 0.072083 0.803040
0.922028 0.072083 0.803009
1.000000 0.072083 0.803101
0.000000 0.208282 0.803040
0.032806 0.208405 0.803040
0.189423 0.208435 0.803040
0.352905 0.208435 0.803040
0.501709 0.208435 0.803040
0.645081 0.208435 0.803040
0.796265 0.208435 0.803009
0.922028 0.208435 0.803040
1.000000 0.208435 0.803192
0.000000 0.357300 0.803040
0.032806 0.357330 0.803040
0.189392 0.357330 0.803040
0.352814 0.357330 0.803040
0.501648 0.357330 0.803040
0.644989 0.357330 0.803040
0.796265 0.357330 0.803040
0.922028 0.357330 0.802948
1.000000 0.369965 0.807159
0.000000 0.498413 0.803040
0.032806 0.498413 0.803040
0.189392 0.498444 0.803040
0.352905 0.498474 0.803040
0.501648 0.498474 0.803040
0.644958 0.498474 0.803040
0.796265 0.498474 0.803070
0.937347 0.491394 0.809601
1.000000 0.526794 0.814758
0.000000 0.636627 0.803040
0.032806 0.636566 0.803040
0.189392 0.636658 0.803040
0.352905 0.636597 0.803040
0.501617 0.636566 0.803040
0.644989 0.636566 0.803040
0.796265 0.636566 0.802979
0.958984 0.624237 0.813904
1.000000 0.680695 0.827606
0.000000 0.787964 0.803040
0.032806 0.787964 0.802979
0.189392 0.787964 0.802979
0.352905 0.787964 0.803009
0.501617 0.787964 0.803009
0.644989 0.787964 0.803040
0.801605 0.786743 0.800049
0.961212 0.779755 0.793884
1.000000 0.829895 0.842529
0.000000 0.917938 0.803131
0.032806 0.917938 0.803162
0.189392 0.917938 0.803101
0.352905 0.917938 0.803040
0.501617 0.917938 0.803040
0.644989 0.917938 0.803040
0.796265 0.917938 0.803040
0.944336 0.940186 0.806946
1.000000 0.934326 0.842529
0.000000 1.000000 0.803040
0.032806 1.000000 0.803040
0.189392 1.000000 0.803101
0.352905 1.000000 0.803040
0.501617 1.000000 0.803040
0.644989 1.000000 0.803040
0.796265 1.000000 0.803040
0.934021 1.000000 0.833435
1.000000 1.000000 0.842529
0.000000 0.000000 0.924530
0.032745 0.000000 0.924530
0.189331 0.000000 0.924530
0.353027 0.000000 0.924530
0.501648 0.000000 0.924530
0.645142 0.000000 0.924530
0.796387 0.000000 0.924530
0.922028 0.000000 0.924530
1.000000 0.000000 0.924469
0.000000 0.071960 0.924530
0.032654 0.072083 0.924530
0.189453 0.072083 0.924530
0.352997 0.072083 0.924530
0.501678 0.072083 0.924530
0.645203 0.072083 0.924530
0.796234 0.072083 0.924530
0.922028 0.072083 0.924591
1.000000 0.072083 0.924561
0.000000 0.208405 0.924530
0.032806 0.208466 0.924530
0.189270 0.208435 0.924530
0.352905 0.208435 0.924530
0.501617 0.208435 0.924530
0.644867 0.208435 0.924530
0.796234 0.208435 0.924530
0.922028 0.208435 0.924530
1.000000 0.208435 0.924438
0.000000 0.357300 0.924530
0.032806 0.357300 0.924530
0.189392 0.357452 0.924530
0.352905 0.357330 0.924530
0.501617 0.357330 0.924530
0.644989 0.357330 0.924530
0.796204 0.357330 0.924530
0.922028 0.357330 0.924561
1.000000 0.357330 0.924622
0.000000 0.498474 0.924530
0.032806 0.498627 0.924530
0.189392 0.498444 0.924530
0.352905 0.498474 0.924530
0.501617 0.498474 0.924530
0.645020 0.498474 0.924530
0.796234 0.498474 0.924530
0.922028 0.498474 0.924500
1.000000 0.498474 0.924530
0.000000 0.636688 0.924530
0.032806 0.636597 0.924530
0.189392 0.636536 0.924530
0.352905 0.636536 0.924530
0.501617 0.636627 0.924530
0.644958 0.636566 0.924530
0.796265 0.636566 0.924530
0.922028 0.636566 0.924500
1.000000 0.636566 0.924591
0.000000 0.788055 0.924530
0.032806 0.787903 0.924530
0.189392 0.787964 0.924530
0.352905 0.787903 0.924530
0.501617 0.787964 0.924530
0.644989 0.787964 0.924530
0.796265 0.787964 0.924530
0.922028 0.787964 0.924530
1.000000 0.797974 0.928131
0.000000 0.917938 0.924622
0.032806 0.917938 0.924530
0.189392 0.917938 0.924561
0.352905 0.917938 0.924561
0.501617 0.917938 0.924530
0.644989 0.917938 0.924530
0.796265 0.917938 0.924530
0.924072 0.917389 0.923309
1.000000 0.934326 0.939606
0.000000 1.000000 0.924469
0.032806 1.000000 0.924591
0.189392 1.000000 0.924377
0.352905 1.000000 0.924591
0.501617 1.000000 0.924561
0.644989 1.000000 0.924530
0.796265 1.000000 0.924591
0.922028 1.000000 0.924530
1.000000 1.000000 0.939606
0.000000 0.000000 1.000000
0.032654 0.000000 1.000000
0.189606 0.000000 1.000000
0.353027 0.000000 1.000000
0.501556 0.000000 1.000000
0.645203 0.000000 1.000000
0.796234 0.000000 1.000000
0.921936 0.000000 1.000000
1.000000 0.000000 1.000000
0.000000 0.072144 1.000000
0.032990 0.072083 1.000000
0.189331 0.072083 1.000000
0.352783 0.072083 1.000000
0.501801 0.072083 1.000000
0.645111 0.072083 1.000000
0.796387 0.072083 1.000000
0.921997 0.072083 1.000000
1.000000 0.072083 1.000000
0.000000 0.208344 1.000000
0.032806 0.208466 1.000000
0.189423 0.208435 1.000000
0.353027 0.208435 1.000000
0.501801 0.208435 1.000000
0.645111 0.208435 1.000000
0.796204 0.208435 1.000000
0.922028 0.208435 1.000000
1.000000 0.208435 1.000000
0.000000 0.357361 1.000000
0.032806 0.357300 1.000000
0.189392 0.357330 1.000000
0.352814 0.357330 1.000000
0.501740 0.357330 1.000000
0.644989 0.357330 1.000000
0.796265 0.357330 1.000000
0.921997 0.357330 1.000000
1.000000 0.357330 1.000000
0.000000 0.498444 1.000000
0.032806 0.498596 1.000000
0.189392 0.498505 1.000000
0.352905 0.498505 1.000000
0.501678 0.498474 1.000000
0.644989 0.498474 1.000000
0.796173 0.498474 1.000000
0.921967 0.498474 1.000000
1.000000 0.498474 1.000000
0.000000 0.636597 1.000000
0.032806 0.636414 1.000000
0.189392 0.636536 1.000000
0.352905 0.636414 1.000000
0.501617 0.636627 1.000000
0.645020 0.636566 1.000000
0.796204 0.636566 1.000000
0.922089 0.636566 1.000000
1.000000 0.636566 1.000000
0.000000 0.787903 1.000000
0.032806 0.787964 1.000000
0.189392 0.787964 1.000000
0.352905 0.787964 1.000000
0.501617 0.787994 1.000000
0.644989 0.787964 1.000000
0.796265 0.787964 1.000000
0.922028 0.787964 1.000000
1.000000 0.787964 1.000000
0.000000 0.917938 1.000000
0.032806 0.918060 1.000000
0.189392 0.917816 1.000000
0.352905 0.918091 1.000000
0.501617 0.918030 1.000000
0.644989 0.917938 1.000000
0.796265 0.917999 1.000000
0.922028 0.917938 1.000000
1.000000 0.917938 1.000000
0.000000 1.000000 1.000000
0.032806 1.000000 1.000000
0.189392 1.000000 1.000000
0.352905 1.000000 1.000000
0.501617 1.000000 1.000000
0.644989 1.000000 1.000000
0.796265 1.000000 1.000000
0.922028 1.000000 1.000000
1.000000 1.000000 1.000000
