src/assets/luts/大师配方/大师·瞰.cube
#Created by: Adobe Photoshop Export Color Lookup Plugin
#Copyright: (C) Copyright 2026 aaa
TITLE "HG224大师滤镜.psd"
#LUT size
LUT_3D_SIZE 9
#data domain
DOMAIN_MIN 0.0 0.0 0.0
DOMAIN_MAX 1.0 1.0 1.0
#LUT data points
0.000000 0.000000 0.000000
0.161133 0.015961 0.000000
0.342438 0.033112 0.000000
0.529785 0.050293 0.000000
0.728210 0.068481 0.000000
0.942780 0.087982 0.000000
1.000000 0.230652 0.141815
1.000000 0.375183 0.319580
1.000000 0.457031 0.414520
0.000000 0.114685 0.000000
0.119385 0.153442 0.000000
0.334503 0.226532 0.000000
0.535889 0.241699 0.000000
0.735382 0.252014 0.000000
0.946960 0.271027 0.000000
1.000000 0.367950 0.143158
1.000000 0.471558 0.319580
1.000000 0.532867 0.414520
0.000000 0.237976 0.027069
0.064270 0.283997 0.000000
0.253662 0.318359 0.007965
0.478516 0.420624 0.029449
0.711426 0.470520 0.000000
0.949188 0.491821 0.000000
1.000000 0.528320 0.166473
1.000000 0.581665 0.335175
1.000000 0.616791 0.424255
0.000000 0.363220 0.067047
0.027191 0.386536 0.000000
0.191437 0.454865 0.000000
0.392517 0.485962 0.041290
0.638580 0.610260 0.071289
0.880676 0.677887 0.062531
1.000000 0.692047 0.187775
1.000000 0.700256 0.355377
1.000000 0.711121 0.440430
0.000000 0.494446 0.106201
0.000000 0.494446 0.000000
0.136444 0.589691 0.000000
0.320129 0.626343 0.047760
0.539490 0.661438 0.073181
0.823578 0.814240 0.105255
1.000000 0.849396 0.178009
1.000000 0.817139 0.376343
1.000000 0.804688 0.456757
0.000000 0.634888 0.146088
0.000000 0.634888 0.000000
0.090088 0.705261 0.000000
0.261871 0.782074 0.001038
0.468048 0.817535 0.079987
0.698456 0.849304 0.105255
1.000000 1.000000 0.158691
1.000000 0.932465 0.385742
1.000000 0.898407 0.471191
0.000000 0.780701 0.186127
0.000000 0.780701 0.038910
0.050354 0.825165 0.000000
0.201660 0.921265 0.000000
0.396271 0.973236 0.048859
0.632904 1.000000 0.115448
0.851746 1.000000 0.158691
0.984680 1.000000 0.377167
1.000000 0.988342 0.473083
0.000000 0.918121 0.222839
0.000000 0.918121 0.080017
0.018066 0.938110 0.000000
0.160461 1.000000 0.000000
0.371307 1.000000 0.122559
0.560822 1.000000 0.241211
0.758728 1.000000 0.342163
0.886749 1.000000 0.377167
0.961090 1.000000 0.473083
0.000000 1.000000 0.250793
0.000000 1.000000 0.110718
0.000000 1.000000 0.000000
0.183716 1.000000 0.075714
0.367828 1.000000 0.190491
0.538818 1.000000 0.298431
0.692932 1.000000 0.395416
0.839050 1.000000 0.466064
0.902771 1.000000 0.473083
0.009033 0.021637 0.117859
0.104248 0.000000 0.103668
0.282257 0.000000 0.123077
0.508850 0.000000 0.116913
0.725433 0.000000 0.088867
0.942780 0.000000 0.061981
1.000000 0.146301 0.199066
1.000000 0.305054 0.346130
1.000000 0.395142 0.428375
0.000000 0.114685 0.103668
0.104248 0.114685 0.103668
0.301880 0.121277 0.084808
0.508453 0.127655 0.065704
0.728088 0.134552 0.045410
0.966187 0.141815 0.022980
1.000000 0.308716 0.239746
1.000000 0.443085 0.398407
1.000000 0.525452 0.491760
0.000000 0.237976 0.141876
0.090546 0.253235 0.131714
0.237671 0.278351 0.132568
0.458405 0.353363 0.129181
0.696899 0.372070 0.090485
0.956329 0.373260 0.045410
1.000000 0.461243 0.244476
1.000000 0.545471 0.399323
1.000000 0.602905 0.491760
0.000000 0.363220 0.195801
0.077026 0.393951 0.159058
0.178833 0.413055 0.111908
0.376007 0.445190 0.160706
0.612366 0.550598 0.178284
0.865601 0.602875 0.148682
1.000000 0.628021 0.251617
1.000000 0.663422 0.417786
1.000000 0.690247 0.504120
0.000000 0.494446 0.246643
0.063293 0.541443 0.186798
0.113373 0.552979 0.070160
0.310089 0.588104 0.151733
0.522614 0.620178 0.189362
0.786896 0.751221 0.216064
1.000000 0.802277 0.247375
1.000000 0.787445 0.438995
1.000000 0.786530 0.520416
0.000000 0.634888 0.283997
0.048950 0.699615 0.215698
0.048950 0.699615 0.031067
0.246918 0.737823 0.114960
0.445496 0.771729 0.192230
0.681213 0.807556 0.219238
0.976990 0.965515 0.249573
1.000000 0.910614 0.455597
1.000000 0.883209 0.537750
0.000000 0.780701 0.321930
0.034485 0.863495 0.245178
0.034485 0.863495 0.065247
0.175049 0.893188 0.070343
0.383392 0.930817 0.154846
0.606323 0.969421 0.225647
0.847015 1.000000 0.249573
1.000000 1.000000 0.440094
1.000000 0.975433 0.542175
0.000000 0.918121 0.357208
0.021362 1.000000 0.272430
0.021362 1.000000 0.095581
0.117340 1.000000 0.042725
0.345398 1.000000 0.175201
0.553925 1.000000 0.294922
0.755188 1.000000 0.397980
0.897217 1.000000 0.440094
0.973053 1.000000 0.542389
0.000000 1.000000 0.384003
0.104248 1.000000 0.351196
0.104248 1.000000 0.214478
0.153137 1.000000 0.134308
0.354187 1.000000 0.248932
0.538879 1.000000 0.357849
0.696716 1.000000 0.459167
0.845673 1.000000 0.529877
0.914612 1.000000 0.542389
0.019226 0.045105 0.273041
0.102844 0.000000 0.275665
0.221527 0.000000 0.246552
0.368439 0.000000 0.259674
0.600403 0.000000 0.282928
0.858368 0.000000 0.282318
1.000000 0.114319 0.338470
1.000000 0.294891 0.444550
1.000000 0.391876 0.505371
0.000000 0.139252 0.273254
0.116028 0.139252 0.260071
0.236084 0.100159 0.263428
0.450928 0.077179 0.264771
0.715851 0.062866 0.234039
0.964905 0.052826 0.183319
1.000000 0.231842 0.316284
1.000000 0.379822 0.437256
1.000000 0.470856 0.514374
0.000000 0.237976 0.246552
0.090546 0.253235 0.263428
0.221527 0.237976 0.246552
0.424805 0.244751 0.229431
0.642120 0.251801 0.211517
0.878387 0.259003 0.192413
1.000000 0.361511 0.303131
1.000000 0.512543 0.477203
1.000000 0.595062 0.569214
0.000000 0.363220 0.265381
0.077026 0.393951 0.290375
0.207123 0.378662 0.272522
0.359283 0.403992 0.273315
0.592102 0.481018 0.269196
0.849304 0.498932 0.230286
1.000000 0.537262 0.310944
1.000000 0.621124 0.480774
1.000000 0.673370 0.570129
0.000000 0.494446 0.318329
0.063293 0.541443 0.338898
0.192322 0.525909 0.299011
0.296509 0.544830 0.252960
0.505554 0.578400 0.300873
0.760437 0.689667 0.316925
1.000000 0.736298 0.311371
1.000000 0.751007 0.501373
1.000000 0.766541 0.584564
0.000000 0.634888 0.373596
0.048950 0.699615 0.384674
0.176727 0.683929 0.326996
0.223938 0.694489 0.212189
0.434723 0.730560 0.291168
0.663849 0.765350 0.329468
0.939331 0.901276 0.355804
1.000000 0.884583 0.523193
1.000000 0.866486 0.601562
0.000000 0.780701 0.429688
0.034485 0.863495 0.412628
0.160828 0.847717 0.355255
0.160828 0.847717 0.185944
0.367340 0.886719 0.254395
0.582977 0.922363 0.332367
0.829315 0.959503 0.358795
1.000000 1.000000 0.502930
1.000000 0.960968 0.611603
0.000000 0.918121 0.481628
0.021362 1.000000 0.438660
0.145966 1.000000 0.381927
0.145966 1.000000 0.213959
0.303101 1.000000 0.224854
0.538757 1.000000 0.347443
0.747833 1.000000 0.454193
0.907867 1.000000 0.502930
0.985138 1.000000 0.612183
0.000000 1.000000 0.514954
0.104248 1.000000 0.483368
0.221527 1.000000 0.450500
0.221527 1.000000 0.318329
0.330231 1.000000 0.305054
0.534088 1.000000 0.416168
0.704712 1.000000 0.519104
0.852325 1.000000 0.593964
0.926666 1.000000 0.612183
0.029785 0.068787 0.419464
0.101868 0.023621 0.420654
0.223541 0.000000 0.396454
0.342773 0.000000 0.381104
0.471130 0.000000 0.381073
0.712158 0.000000 0.419098
0.976685 0.000000 0.434937
1.000000 0.202271 0.501892
1.000000 0.327972 0.552429
0.017242 0.173035 0.421051
0.127808 0.164062 0.406738
0.220184 0.113586 0.409821
0.372711 0.085541 0.413147
0.556152 0.065826 0.413239
0.852875 0.038330 0.413696
1.000000 0.158997 0.441895
1.000000 0.360931 0.535370
1.000000 0.458588 0.586456
0.000000 0.251221 0.393219
0.101074 0.263519 0.410065
0.233856 0.263306 0.394012
0.357666 0.223083 0.397247
0.584564 0.199799 0.397980
0.868042 0.185699 0.366486
1.000000 0.289642 0.405823
1.000000 0.456329 0.527130
1.000000 0.548004 0.598724
0.000000 0.363220 0.381104
0.077026 0.393951 0.413147
0.207123 0.378662 0.397247
0.342773 0.363220 0.381104
0.557465 0.370270 0.364166
0.791718 0.377808 0.346008
1.000000 0.414154 0.365021
1.000000 0.581604 0.554260
1.000000 0.664795 0.645050
0.000000 0.494446 0.384888
0.063293 0.541443 0.420898
0.192322 0.525909 0.424683
0.327423 0.510284 0.406860
0.488556 0.536987 0.407867
0.740631 0.618439 0.402069
1.000000 0.637207 0.372101
1.000000 0.703247 0.561096
1.000000 0.747314 0.648254
0.000000 0.634888 0.439301
0.048950 0.699615 0.470764
0.176727 0.683929 0.474609
0.311218 0.668121 0.434113
0.420197 0.687744 0.386353
0.646515 0.723450 0.435699
0.912506 0.839508 0.452301
1.000000 0.850647 0.583130
1.000000 0.848419 0.664490
0.000000 0.780701 0.494659
0.034485 0.863495 0.521393
0.160828 0.847717 0.517548
0.294647 0.831757 0.461914
0.343903 0.841919 0.346832
0.572327 0.881287 0.426788
0.811737 0.917206 0.464386
1.000000 0.987030 0.564606
1.000000 0.946564 0.679626
0.000000 0.918121 0.545837
0.021362 1.000000 0.568817
0.145966 1.000000 0.543030
0.279114 0.986664 0.487732
0.279114 0.986664 0.319214
0.510010 1.000000 0.397400
0.734131 1.000000 0.509430
0.918488 1.000000 0.564606
0.997101 1.000000 0.680756
0.000000 1.000000 0.585175
0.104248 1.000000 0.600494
0.221527 1.000000 0.579376
0.342773 1.000000 0.547455
0.342773 1.000000 0.413696
0.520630 1.000000 0.471649
0.709595 1.000000 0.577118
0.858368 1.000000 0.657135
0.938629 1.000000 0.680756
0.040924 0.093719 0.565674
0.105164 0.046326 0.565674
0.218658 0.000000 0.570435
0.343536 0.000000 0.519379
0.471130 0.000000 0.515717
0.609924 0.000000 0.515778
0.829590 0.000000 0.547211
1.000000 0.065765 0.571075
1.000000 0.217072 0.594940
0.039490 0.211975 0.565826
0.140076 0.189606 0.553284
0.218872 0.141205 0.554749
0.352814 0.087036 0.560760
0.517548 0.070831 0.562775
0.674225 0.055145 0.545837
0.985229 0.022675 0.572113
1.000000 0.231049 0.588593
1.000000 0.367767 0.625031
0.000000 0.289307 0.566101
0.125580 0.298584 0.555145
0.246613 0.289276 0.540955
0.341064 0.237915 0.543854
0.502106 0.207520 0.547089
0.705933 0.184021 0.548920
1.000000 0.168579 0.548676
1.000000 0.395874 0.610779
1.000000 0.520294 0.665497
0.000000 0.363190 0.515717
0.075439 0.389526 0.561096
0.219147 0.390045 0.544128
0.355835 0.389740 0.528381
0.486847 0.347565 0.531616
0.734131 0.321533 0.531860
1.000000 0.334686 0.514465
1.000000 0.532104 0.621155
1.000000 0.625061 0.684387
0.000000 0.494446 0.515717
0.063293 0.541443 0.562775
0.192322 0.525909 0.547089
0.327423 0.510284 0.531616
0.471130 0.494446 0.515717
0.703064 0.502075 0.498108
0.947174 0.509674 0.479980
1.000000 0.653412 0.632843
1.000000 0.736969 0.722717
0.000000 0.634888 0.515778
0.048950 0.699615 0.553192
0.176727 0.683929 0.556976
0.311218 0.668121 0.560608
0.454498 0.652100 0.542175
0.628754 0.680389 0.542999
0.890961 0.766022 0.538818
1.000000 0.800751 0.642395
1.000000 0.826904 0.728577
0.000000 0.780701 0.560638
0.034485 0.863495 0.603088
0.160828 0.847717 0.606934
0.294647 0.831757 0.610748
0.437439 0.815582 0.569427
0.557434 0.836487 0.522217
0.793640 0.873688 0.571075
1.000000 0.956421 0.634094
1.000000 0.930603 0.745758
0.000000 0.918121 0.611694
0.021362 1.000000 0.649750
0.145966 1.000000 0.653564
0.279114 0.986664 0.651031
0.421509 0.970154 0.594788
0.484497 0.982758 0.485840
0.721497 1.000000 0.564758
0.929382 1.000000 0.627808
1.000000 1.000000 0.750824
0.000000 1.000000 0.650421
0.104248 1.000000 0.665558
0.221527 1.000000 0.681000
0.342773 1.000000 0.678009
0.471130 1.000000 0.645447
0.489136 1.000000 0.524872
0.708679 1.000000 0.635529
0.863464 1.000000 0.721588
0.950958 1.000000 0.750824
0.052979 0.120392 0.716888
0.105591 0.059418 0.716888
0.214996 0.025482 0.720856
0.344971 0.000000 0.700012
0.471191 0.000000 0.654694
0.609924 0.000000 0.654694
0.754913 0.000000 0.654663
0.924469 0.000000 0.669617
1.000000 0.094086 0.673920
0.052979 0.241119 0.716888
0.153137 0.216980 0.704834
0.222595 0.166412 0.704834
0.339081 0.116028 0.710449
0.498688 0.061005 0.716766
0.674225 0.055145 0.717377
0.837891 0.039215 0.700287
1.000000 0.086060 0.696411
1.000000 0.245087 0.687042
0.016907 0.325928 0.721466
0.152008 0.340698 0.705109
0.260162 0.317108 0.692719
0.340424 0.267914 0.693726
0.480438 0.210571 0.700012
0.658508 0.191315 0.702240
0.821960 0.174530 0.685211
1.000000 0.248016 0.696899
1.000000 0.401245 0.707184
0.000000 0.408569 0.694824
0.101013 0.418915 0.710968
0.246460 0.428436 0.694122
0.369751 0.417908 0.680450
0.469177 0.363953 0.683350
0.642914 0.330811 0.686920
0.854401 0.305847 0.688416
1.000000 0.415222 0.702759
1.000000 0.556427 0.736847
0.000000 0.494507 0.654694
0.050262 0.525696 0.717224
0.191803 0.522156 0.700378
0.340973 0.523346 0.683624
0.485291 0.522827 0.668030
0.626892 0.477417 0.671387
0.882660 0.451172 0.672180
1.000000 0.593048 0.719666
1.000000 0.700104 0.771881
0.000000 0.634888 0.654694
0.048950 0.699615 0.717377
0.176727 0.683929 0.702240
0.311218 0.668121 0.686920
0.454498 0.652100 0.671387
0.609924 0.634888 0.654694
0.851929 0.642792 0.636993
1.000000 0.715240 0.699402
1.000000 0.813721 0.803955
0.000000 0.780701 0.654663
0.034485 0.863495 0.700287
0.160828 0.847717 0.692596
0.294647 0.831757 0.696228
0.437439 0.815582 0.699921
0.592529 0.798218 0.681458
0.774506 0.827728 0.682281
1.000000 0.905670 0.702972
1.000000 0.910614 0.813293
0.000000 0.918121 0.680298
0.021362 1.000000 0.734711
0.145966 1.000000 0.738434
0.279114 0.986664 0.742126
0.421509 0.970154 0.745880
0.576233 0.952911 0.706451
0.706604 0.975494 0.664398
0.931152 1.000000 0.708008
1.000000 1.000000 0.824280
0.000000 1.000000 0.719025
0.104248 1.000000 0.733917
0.221527 1.000000 0.749084
0.342773 1.000000 0.764252
0.471130 1.000000 0.779663
0.609924 1.000000 0.748230
0.693298 1.000000 0.693726
0.867981 1.000000 0.788574
0.964081 1.000000 0.824402
0.065582 0.147858 0.869293
0.106110 0.073242 0.869293
0.217041 0.054108 0.871521
0.336792 0.003174 0.877533
0.475464 0.000000 0.830780
0.609894 0.000000 0.794952
0.754913 0.000000 0.794952
0.892670 0.000000 0.794983
1.000000 0.000000 0.795044
0.065582 0.269440 0.869293
0.166595 0.245239 0.857605
0.222961 0.180695 0.857605
0.335938 0.145935 0.861359
0.475128 0.090271 0.867523
0.656616 0.039215 0.873260
0.837891 0.039215 0.873260
0.993469 0.024750 0.857574
1.000000 0.114685 0.794861
0.041107 0.366699 0.872314
0.166595 0.370544 0.857605
0.274139 0.345764 0.845490
0.343872 0.292572 0.845490
0.466766 0.241241 0.851074
0.638794 0.180725 0.857605
0.821960 0.174530 0.858215
0.977356 0.158813 0.842590
1.000000 0.268005 0.798431
0.000000 0.448334 0.874939
0.127716 0.456573 0.862000
0.274139 0.471802 0.845490
0.384125 0.446686 0.833710
0.468719 0.395264 0.834686
0.620300 0.333344 0.841248
0.806122 0.313873 0.843414
0.961334 0.297760 0.827637
1.000000 0.426300 0.806030
0.000000 0.530212 0.824524
0.075928 0.550171 0.868134
0.219635 0.553314 0.851593
0.369873 0.563110 0.835114
0.499908 0.551880 0.821289
0.608032 0.494263 0.824402
0.789825 0.460236 0.827911
0.978821 0.438751 0.825958
1.000000 0.590607 0.821350
0.000000 0.634857 0.794952
0.034485 0.681824 0.873260
0.162231 0.667358 0.858063
0.310120 0.663940 0.841614
0.468262 0.664673 0.824646
0.624756 0.664337 0.808258
0.772583 0.617249 0.811554
1.000000 0.603210 0.814453
1.000000 0.762604 0.853027
0.000000 0.780701 0.794952
0.034485 0.863495 0.873260
0.160828 0.847717 0.858215
0.294647 0.831757 0.843414
0.437439 0.815582 0.827911
0.592529 0.798218 0.811554
0.754913 0.780701 0.794952
0.984680 0.787903 0.778564
1.000000 0.892792 0.886963
0.000000 0.918121 0.794983
0.021362 1.000000 0.857574
0.145966 1.000000 0.842590
0.279114 0.986664 0.828552
0.421509 0.970154 0.832245
0.576233 0.952911 0.836304
0.738312 0.934967 0.819550
0.911255 0.962860 0.820251
1.000000 0.985352 0.897949
0.000000 1.000000 0.795044
0.104248 1.000000 0.803528
0.221527 1.000000 0.818787
0.342773 1.000000 0.833679
0.471130 1.000000 0.848877
0.609924 1.000000 0.865234
0.754913 1.000000 0.852295
0.872620 1.000000 0.851379
0.977570 1.000000 0.899475
0.077515 0.174011 1.000000
0.106506 0.086029 1.000000
0.221619 0.081512 1.000000
0.333008 0.028961 1.000000
0.471893 0.000000 0.998779
0.614166 0.000000 0.945679
0.754974 0.000000 0.924377
0.892670 0.000000 0.924377
1.000000 0.000000 0.924469
0.077515 0.296173 1.000000
0.179352 0.271790 0.998657
0.223389 0.194000 0.998657
0.338074 0.174377 1.000000
0.464844 0.118073 1.000000
0.630402 0.059662 1.000000
0.821198 0.024750 1.000000
0.993469 0.024750 1.000000
1.000000 0.114685 0.924286
0.064850 0.407349 1.000000
0.179352 0.397644 0.998657
0.287323 0.372589 0.986755
0.344269 0.306274 0.986755
0.463928 0.270020 0.990509
0.615753 0.209167 0.996918
0.805267 0.158813 1.000000
0.977356 0.158813 1.000000
1.000000 0.237976 0.924286
0.017944 0.483795 1.000000
0.153107 0.495728 1.000000
0.287323 0.498871 0.986755
0.397583 0.473969 0.975067
0.472260 0.419525 0.975067
0.606201 0.362640 0.980804
0.788940 0.299347 0.987396
0.961334 0.297760 0.987579
1.000000 0.363220 0.924377
0.000000 0.571503 0.991150
0.100647 0.581116 1.000000
0.246033 0.589294 0.991150
0.397217 0.604980 0.975128
0.513641 0.579407 0.962891
0.606750 0.524048 0.964172
0.768677 0.459717 0.970795
0.944855 0.443878 0.972534
1.000000 0.494446 0.924408
0.000000 0.653259 0.938660
0.046967 0.691010 1.000000
0.188141 0.690094 0.997528
0.337128 0.692505 0.981445
0.495972 0.701843 0.964813
0.638702 0.691833 0.949951
0.753693 0.631836 0.953217
0.927368 0.600952 0.956360
1.000000 0.637268 0.924500
0.000000 0.780762 0.924377
0.021362 0.846985 1.000000
0.145966 0.830933 1.000000
0.279114 0.815277 0.987579
0.433258 0.808411 0.971191
0.604187 0.808289 0.953461
0.768982 0.808319 0.936646
0.909424 0.763947 0.939789
1.000000 0.820343 0.933899
0.000000 0.918121 0.924377
0.021362 1.000000 1.000000
0.145966 1.000000 1.000000
0.279114 0.986664 0.987579
0.421509 0.970154 0.972534
0.576233 0.952911 0.956360
0.738312 0.934967 0.939789
0.892670 0.918121 0.924377
1.000000 0.967377 0.963867
0.000000 1.000000 0.924469
0.104248 1.000000 0.924286
0.221527 1.000000 0.924286
0.342773 1.000000 0.924377
0.471130 1.000000 0.924408
0.609924 1.000000 0.929626
0.754913 1.000000 0.946259
0.892670 1.000000 0.949066
0.990234 1.000000 0.969391
0.177124 0.272308 1.000000
0.193939 0.191742 1.000000
0.290497 0.191742 1.000000
0.375366 0.148743 1.000000
0.476990 0.098816 1.000000
0.604095 0.047211 1.000000
0.755035 0.000000 1.000000
0.892792 0.000000 1.000000
1.000000 0.000000 1.000000
0.177124 0.371704 1.000000
0.271729 0.361755 1.000000
0.300262 0.290039 1.000000
0.395691 0.283020 1.000000
0.488098 0.231812 1.000000
0.606903 0.177582 1.000000
0.752899 0.123016 1.000000
0.892548 0.114685 1.000000
1.000000 0.114685 1.000000
0.174225 0.470825 1.000000
0.271729 0.464020 1.000000
0.370239 0.453705 1.000000
0.408752 0.391479 1.000000
0.504700 0.369659 1.000000
0.612854 0.314667 1.000000
0.751251 0.258392 1.000000
0.892548 0.237976 1.000000
1.000000 0.237976 1.000000
0.128143 0.524719 1.000000
0.256927 0.550262 1.000000
0.370239 0.556152 1.000000
0.470001 0.545837 1.000000
0.522461 0.493347 1.000000
0.623871 0.453125 1.000000
0.751129 0.395966 1.000000
0.892670 0.363220 1.000000
1.000000 0.363220 1.000000
0.081757 0.591278 1.000000
0.208008 0.610138 1.000000
0.342072 0.633423 1.000000
0.470001 0.652100 1.000000
0.574524 0.641449 1.000000
0.644135 0.598022 1.000000
0.755005 0.540161 1.000000
0.892731 0.494446 1.000000
1.000000 0.494446 1.000000
0.034851 0.674011 1.000000
0.156891 0.687347 1.000000
0.289032 0.703369 1.000000
0.424957 0.722504 1.000000
0.568451 0.748413 1.000000
0.686798 0.743317 1.000000
0.766998 0.694733 1.000000
0.891418 0.640228 1.000000
1.000000 0.634888 1.000000
0.000000 0.780823 1.000000
0.105743 0.781708 1.000000
0.235260 0.792511 1.000000
0.369629 0.804504 1.000000
0.511871 0.819183 1.000000
0.665802 0.840210 1.000000
0.803528 0.848785 1.000000
0.892242 0.799713 1.000000
1.000000 0.780701 1.000000
0.000000 0.918243 1.000000
0.104248 0.918030 1.000000
0.221527 0.918030 1.000000
0.342773 0.918121 1.000000
0.471130 0.918182 1.000000
0.612091 0.920044 1.000000
0.772034 0.933777 1.000000
0.914062 0.948059 1.000000
1.000000 0.918121 1.000000
0.000000 1.000000 1.000000
0.104248 1.000000 1.000000
0.221527 1.000000 1.000000
0.342773 1.000000 1.000000
0.471130 1.000000 1.000000
0.609924 1.000000 1.000000
0.754913 1.000000 1.000000
0.892670 1.000000 1.000000
1.000000 1.000000 1.000000
