src/assets/luts/大师配方/大师·驭.cube
#Created by: Adobe Photoshop Export Color Lookup Plugin
#Copyright: (C) Copyright 2025 aaa
TITLE "暗黑清冷发光.psd"
#LUT size
LUT_3D_SIZE 8
#data domain
#LUT data points
DOMAIN_MIN 0.000000 0.000000 0.000000
DOMAIN_MAX 0.903226 0.903226 0.903226
0.000000 0.000000 0.000000
0.011108 0.003815 0.004578
0.092560 0.028870 0.032318
0.211456 0.062531 0.068359
0.383606 0.107422 0.115723
0.591614 0.158600 0.169128
0.753052 0.201813 0.213806
0.856232 0.232147 0.245148
0.001831 0.013885 0.003479
0.011444 0.014404 0.004791
0.092377 0.039001 0.032135
0.211090 0.072662 0.068024
0.383026 0.117737 0.115204
0.590912 0.169220 0.168488
0.752380 0.212524 0.213257
0.855591 0.243195 0.244476
0.014832 0.102234 0.022675
0.024384 0.102234 0.022675
0.094330 0.106598 0.034027
0.211090 0.139709 0.068024
0.383026 0.186798 0.115204
0.590912 0.240356 0.168488
0.752350 0.285675 0.213196
0.855499 0.317444 0.244385
0.032715 0.222839 0.046173
0.042725 0.222839 0.046173
0.113861 0.225616 0.051971
0.214111 0.232819 0.070770
0.383026 0.279449 0.115204
0.590912 0.336029 0.168488
0.752350 0.383575 0.213196
0.855499 0.417084 0.244385
0.056763 0.390564 0.075897
0.067230 0.390564 0.075867
0.135834 0.390564 0.075897
0.248627 0.402008 0.097687
0.386658 0.408966 0.118286
0.590912 0.465607 0.168488
0.752350 0.516205 0.213196
0.855499 0.550690 0.244385
0.084167 0.587158 0.108337
0.095093 0.587158 0.108337
0.165894 0.587158 0.108337
0.275543 0.593750 0.120880
0.437042 0.609375 0.156433
0.594055 0.613678 0.171265
0.752350 0.658234 0.213196
0.855499 0.690125 0.244385
0.107208 0.737579 0.134766
0.118317 0.737579 0.134857
0.191162 0.737579 0.134827
0.296356 0.739777 0.139893
0.465454 0.755676 0.174744
0.642120 0.768066 0.215332
0.754547 0.768066 0.215332
0.855499 0.795990 0.244385
0.123352 0.833282 0.153076
0.134766 0.833282 0.153015
0.208618 0.833282 0.153046
0.310699 0.833282 0.153046
0.483459 0.848785 0.187317
0.666260 0.862122 0.230682
0.784943 0.865814 0.245941
0.856934 0.865814 0.245941
0.003937 0.005432 0.017517
0.010681 0.002625 0.016876
0.092499 0.028778 0.043915
0.211456 0.062531 0.079926
0.383606 0.107422 0.127350
0.591614 0.158600 0.180969
0.753052 0.201813 0.225891
0.856232 0.232147 0.257355
0.001831 0.013885 0.016876
0.012848 0.016510 0.019928
0.094452 0.041199 0.046265
0.213593 0.075104 0.082214
0.386108 0.120392 0.129700
0.594208 0.171967 0.183319
0.755463 0.215546 0.228333
0.858490 0.246124 0.259827
0.014832 0.102234 0.035400
0.026611 0.104950 0.038330
0.096130 0.108582 0.047913
0.213165 0.141815 0.081787
0.385468 0.188965 0.129150
0.593445 0.242706 0.182678
0.754700 0.288025 0.227600
0.857758 0.319794 0.259003
0.032715 0.222839 0.058716
0.045044 0.225769 0.061615
0.114258 0.227417 0.064545
0.216187 0.234985 0.084534
0.385468 0.281708 0.129150
0.593445 0.338348 0.182678
0.754700 0.386078 0.227600
0.857758 0.419556 0.259003
0.056763 0.390564 0.088409
0.069672 0.393799 0.091278
0.138519 0.393799 0.091278
0.249756 0.403687 0.110687
0.389069 0.411407 0.132263
0.593445 0.468140 0.182678
0.754700 0.518921 0.227600
0.857758 0.553162 0.259003
0.084167 0.587158 0.120972
0.097565 0.590363 0.123810
0.168701 0.590363 0.123810
0.276093 0.595856 0.133484
0.438629 0.611206 0.169617
0.596619 0.616058 0.185486
0.754700 0.660370 0.227600
0.857758 0.692535 0.259003
0.107208 0.737579 0.147461
0.120972 0.740570 0.150421
0.193970 0.740570 0.150421
0.296722 0.741638 0.152649
0.467010 0.757294 0.188110
0.644531 0.770264 0.229706
0.756836 0.770264 0.229706
0.857758 0.798096 0.259003
0.123352 0.833282 0.165863
0.137360 0.836121 0.168732
0.211426 0.836121 0.168732
0.313751 0.836121 0.168732
0.484772 0.850281 0.200775
0.667664 0.863434 0.244537
0.787231 0.867950 0.260529
0.859131 0.867950 0.260529
0.032043 0.039032 0.117889
0.039978 0.039032 0.117889
0.088745 0.018890 0.113647
0.205170 0.044830 0.140686
0.380310 0.096741 0.192017
0.590973 0.157715 0.254730
0.753052 0.201813 0.301971
0.856232 0.232147 0.334381
0.032043 0.048187 0.117889
0.041870 0.050262 0.120209
0.091248 0.032806 0.116547
0.208069 0.060028 0.144287
0.383759 0.112305 0.196381
0.594208 0.171967 0.258026
0.755463 0.215546 0.304443
0.858490 0.246124 0.336884
0.014832 0.102234 0.113647
0.026611 0.104950 0.116547
0.107147 0.122131 0.134766
0.227203 0.155701 0.168243
0.401611 0.203430 0.217316
0.610138 0.257782 0.272949
0.770294 0.303619 0.319672
0.872498 0.335754 0.352325
0.032715 0.222839 0.136932
0.045044 0.225769 0.139923
0.127899 0.244202 0.158173
0.229492 0.248901 0.170471
0.400696 0.296051 0.216522
0.609222 0.353302 0.272064
0.769409 0.401550 0.318726
0.871643 0.435150 0.351471
0.056763 0.390564 0.167023
0.069672 0.393799 0.170074
0.155212 0.413971 0.188446
0.255371 0.415375 0.191620
0.404327 0.426727 0.219788
0.609222 0.484100 0.272064
0.769409 0.534760 0.318726
0.871643 0.568970 0.351471
0.084167 0.587158 0.200134
0.097565 0.590363 0.203186
0.185913 0.610413 0.221863
0.285980 0.610413 0.221893
0.448730 0.623779 0.251984
0.612213 0.631042 0.274902
0.769409 0.675323 0.318726
0.871643 0.707153 0.351471
0.107208 0.737579 0.227539
0.120972 0.740570 0.230560
0.211517 0.759003 0.249451
0.313812 0.759003 0.249420
0.474976 0.768494 0.271149
0.657776 0.782898 0.316376
0.771454 0.783997 0.320923
0.871643 0.811707 0.351471
0.123352 0.833282 0.246277
0.137360 0.836121 0.249420
0.229340 0.853455 0.268402
0.332977 0.853455 0.268402
0.492126 0.860260 0.284851
0.678802 0.874939 0.329193
0.801422 0.880859 0.352905
0.872925 0.880859 0.352905
0.071198 0.083008 0.248810
0.079712 0.083008 0.248810
0.123871 0.064453 0.244843
0.202362 0.039825 0.239594
0.367432 0.069580 0.272491
0.580902 0.127106 0.330139
0.745605 0.178040 0.382294
0.851715 0.213104 0.419647
0.071198 0.092377 0.248810
0.081696 0.094543 0.251221
0.128113 0.080048 0.248169
0.205139 0.053894 0.242615
0.371155 0.084717 0.276215
0.584564 0.143097 0.334381
0.749878 0.193634 0.386749
0.854858 0.229828 0.424530
0.052765 0.138916 0.244446
0.066925 0.143433 0.247772
0.150513 0.168457 0.266449
0.222900 0.144440 0.261566
0.394012 0.182770 0.299835
0.606720 0.246185 0.362213
0.769775 0.300751 0.417816
0.872498 0.335754 0.454193
0.032715 0.222839 0.239594
0.045044 0.225769 0.242615
0.127899 0.244202 0.261566
0.246094 0.268188 0.286072
0.421753 0.315948 0.332825
0.630493 0.373871 0.391388
0.789154 0.422607 0.440582
0.890289 0.456757 0.474823
0.056763 0.390564 0.270813
0.069672 0.393799 0.273804
0.155212 0.413971 0.292969
0.276428 0.440063 0.317810
0.424316 0.446747 0.335266
0.629486 0.504791 0.390350
0.788208 0.555206 0.439484
0.889404 0.589111 0.473816
0.084167 0.587158 0.305206
0.097565 0.590363 0.308411
0.185913 0.610413 0.327759
0.310303 0.635834 0.352936
0.459625 0.639435 0.361420
0.632385 0.650299 0.393311
0.788208 0.694336 0.439484
0.889404 0.725800 0.473816
0.107208 0.737579 0.333679
0.120972 0.740570 0.336731
0.211517 0.759003 0.356445
0.338501 0.782288 0.381775
0.483459 0.782288 0.381897
0.672791 0.798431 0.427887
0.790131 0.801605 0.441650
0.889404 0.829376 0.473816
0.123352 0.833282 0.353210
0.137360 0.836121 0.356384
0.229340 0.853455 0.376190
0.358063 0.875336 0.401794
0.504730 0.875336 0.401733
0.691803 0.889008 0.441772
0.819885 0.897308 0.475220
0.890503 0.897308 0.475220
0.124939 0.141205 0.426483
0.134033 0.141235 0.426483
0.190125 0.137817 0.425751
0.244904 0.090942 0.415375
0.366180 0.067017 0.409973
0.565277 0.097229 0.446320
0.732056 0.141174 0.491852
0.838898 0.175629 0.527252
0.124939 0.150940 0.426483
0.136139 0.153198 0.429108
0.194946 0.153168 0.429108
0.248962 0.106873 0.418915
0.369415 0.081299 0.413208
0.568634 0.111786 0.449615
0.735962 0.156769 0.496216
0.842560 0.191620 0.531586
0.118500 0.207214 0.424988
0.133850 0.213196 0.428558
0.209015 0.229828 0.445312
0.276733 0.209686 0.441132
0.389374 0.173431 0.433441
0.590973 0.208710 0.472260
0.756897 0.260681 0.522675
0.862762 0.297089 0.558990
0.075684 0.265228 0.414703
0.090271 0.269470 0.418243
0.187378 0.297943 0.440613
0.309418 0.333069 0.466309
0.415405 0.299347 0.459534
0.621460 0.345184 0.505035
0.783844 0.402405 0.558228
0.887115 0.443024 0.595947
0.056763 0.390564 0.409973
0.069672 0.393829 0.413208
0.155212 0.413971 0.433441
0.276428 0.440033 0.459534
0.449432 0.474060 0.493439
0.656403 0.532471 0.549316
0.813202 0.582275 0.598236
0.912933 0.615753 0.631134
0.084167 0.587158 0.446289
0.097565 0.590363 0.449493
0.185913 0.610413 0.470123
0.310303 0.635834 0.496552
0.487305 0.667877 0.530457
0.658234 0.674896 0.551239
0.812347 0.718475 0.597321
0.912201 0.749603 0.630249
0.107208 0.737579 0.476227
0.120972 0.740570 0.479645
0.211517 0.759003 0.500183
0.338501 0.782288 0.526703
0.518555 0.811737 0.560059
0.689484 0.817566 0.575592
0.813995 0.824097 0.599182
0.912201 0.851593 0.630249
0.123352 0.833282 0.496857
0.137360 0.836121 0.500183
0.229340 0.853455 0.520966
0.358063 0.875336 0.547028
0.539795 0.903015 0.579987
0.705750 0.906830 0.589325
0.842133 0.917694 0.628662
0.913086 0.918427 0.631256
0.187317 0.207184 0.626648
0.197021 0.207123 0.626648
0.259125 0.207153 0.626648
0.318604 0.172638 0.619690
0.409668 0.111572 0.606903
0.565277 0.097229 0.603821
0.722412 0.122223 0.632141
0.823242 0.139526 0.651245
0.187317 0.217316 0.626648
0.199249 0.219574 0.629150
0.261475 0.219604 0.629150
0.323822 0.189270 0.623108
0.413788 0.127563 0.610352
0.568634 0.111786 0.606964
0.725525 0.136993 0.635193
0.826233 0.154572 0.654266
0.187317 0.281616 0.626648
0.199249 0.284058 0.629150
0.276337 0.299286 0.644531
0.359985 0.297424 0.644135
0.440613 0.231750 0.631531
0.589417 0.205688 0.626373
0.744904 0.232391 0.654297
0.847595 0.256714 0.677338
0.149841 0.338837 0.618683
0.165710 0.344208 0.622101
0.270172 0.380768 0.643341
0.381958 0.406494 0.663971
0.479279 0.374786 0.658325
0.615906 0.333984 0.650940
0.769440 0.362579 0.678467
0.874084 0.397156 0.706726
0.093384 0.432098 0.606018
0.108337 0.436249 0.609436
0.207245 0.463165 0.630798
0.347473 0.501770 0.657776
0.528137 0.551331 0.688599
0.649384 0.511719 0.681915
0.803619 0.550079 0.713715
0.906464 0.590027 0.745422
0.084167 0.587158 0.603821
0.097565 0.590332 0.606964
0.185913 0.610413 0.626373
0.310303 0.635834 0.650940
0.487305 0.667908 0.681915
0.685303 0.702240 0.715057
0.839081 0.745361 0.755920
0.937256 0.775940 0.785797
0.107208 0.737579 0.632202
0.120972 0.740570 0.635071
0.211517 0.759003 0.654388
0.338501 0.782288 0.678467
0.518555 0.811737 0.708893
0.714111 0.843231 0.741425
0.839905 0.848450 0.756775
0.936768 0.875763 0.785278
0.123352 0.833282 0.651337
0.137360 0.836121 0.654236
0.229340 0.853455 0.673248
0.358063 0.875336 0.697052
0.539795 0.903015 0.727051
0.733551 0.932495 0.759247
0.861176 0.937866 0.773193
0.937347 0.941132 0.785919
0.240845 0.262817 0.774994
0.250854 0.262787 0.774994
0.315887 0.262756 0.774994
0.387024 0.242157 0.771362
0.468719 0.178467 0.759735
0.595703 0.122223 0.749023
0.722443 0.122223 0.749023
0.823242 0.139526 0.766785
0.240845 0.273102 0.774994
0.253265 0.275574 0.777252
0.318237 0.275604 0.777252
0.393036 0.259460 0.774414
0.473694 0.195190 0.762848
0.598877 0.136993 0.751892
0.725494 0.136993 0.751892
0.826233 0.154480 0.769592
0.240845 0.339661 0.774994
0.253265 0.342102 0.777252
0.333710 0.357727 0.791199
0.422333 0.357758 0.791199
0.505920 0.303711 0.782104
0.619537 0.232391 0.769623
0.744934 0.232391 0.769623
0.844543 0.250885 0.787048
0.214539 0.406281 0.770172
0.231323 0.412354 0.773254
0.333710 0.447083 0.791199
0.443542 0.468140 0.808838
0.552185 0.452240 0.806366
0.651031 0.374908 0.794006
0.769409 0.362579 0.791962
0.867706 0.382416 0.809235
0.154449 0.489502 0.758667
0.170380 0.494415 0.761749
0.275299 0.526154 0.781158
0.422699 0.571106 0.805634
0.591370 0.612305 0.831177
0.694580 0.571899 0.824799
0.800476 0.542053 0.820221
0.897034 0.562561 0.837006
0.107208 0.616425 0.749023
0.120972 0.619507 0.751892
0.211517 0.639404 0.769623
0.346558 0.667725 0.793335
0.546417 0.709595 0.824371
0.744324 0.758392 0.855164
0.833740 0.729675 0.850342
0.930237 0.752838 0.869629
0.107208 0.737549 0.749023
0.120972 0.740509 0.751892
0.211517 0.759064 0.769623
0.338501 0.782257 0.791962
0.518555 0.811737 0.820221
0.714111 0.843231 0.850342
0.860291 0.868347 0.874359
0.956818 0.895447 0.900208
0.123352 0.833282 0.766815
0.137360 0.836121 0.769531
0.229340 0.853455 0.786957
0.358063 0.875336 0.809235
0.539795 0.903015 0.837006
0.733551 0.932495 0.866791
0.878204 0.956055 0.890533
0.956940 0.959442 0.900360
0.278809 0.301819 0.868439
0.289215 0.301788 0.868439
0.355774 0.301788 0.868439
0.436981 0.291229 0.866730
0.514465 0.225830 0.855927
0.624939 0.157104 0.843994
0.741852 0.139526 0.840851
0.823303 0.139526 0.840851
0.278809 0.312469 0.868439
0.291626 0.314941 0.870544
0.358429 0.314880 0.870544
0.443573 0.309082 0.869598
0.519897 0.243073 0.858826
0.629120 0.173645 0.846924
0.744904 0.154480 0.843536
0.826202 0.154480 0.843536
0.278809 0.380219 0.868439
0.291626 0.382721 0.870544
0.374298 0.398743 0.883575
0.465088 0.398743 0.883575
0.554504 0.354462 0.876770
0.654816 0.280731 0.865021
0.763977 0.250885 0.860107
0.844574 0.250885 0.860107
0.260895 0.455292 0.865479
0.278351 0.461700 0.868378
0.374298 0.489716 0.883575
0.486908 0.511414 0.900055
0.603333 0.506897 0.899414
0.689240 0.427582 0.887878
0.788452 0.382416 0.881073
0.867767 0.382416 0.881073
0.198517 0.533478 0.854706
0.215179 0.538635 0.857697
0.323883 0.572174 0.875702
0.476196 0.619263 0.898560
0.633698 0.652924 0.920929
0.737885 0.624298 0.916626
0.819031 0.562561 0.907501
0.897034 0.562561 0.907501
0.134003 0.641571 0.842896
0.149658 0.645538 0.845856
0.252655 0.670410 0.864105
0.397644 0.703430 0.887115
0.599792 0.749908 0.916016
0.783569 0.795715 0.943268
0.860138 0.764313 0.938232
0.928314 0.748169 0.935638
0.123352 0.756165 0.840851
0.137360 0.759033 0.843536
0.229340 0.777130 0.860107
0.358063 0.800262 0.881073
0.539795 0.829315 0.907501
0.748444 0.867279 0.937897
0.897034 0.903046 0.961182
0.953308 0.885284 0.958099
0.123352 0.833313 0.840851
0.137360 0.836151 0.843536
0.229340 0.853516 0.860107
0.358063 0.875366 0.881073
0.539795 0.903015 0.907501
0.733551 0.932495 0.935638
0.878204 0.956055 0.958099
0.970154 0.971893 0.973236
