src/assets/luts/大师配方/大师·真.cube
#Created by: Adobe Photoshop Export Color Lookup Plugin
#Copyright: (C) Copyright 2025 aaa
TITLE "通用-鲜明人像提亮.psd"
#LUT size
LUT_3D_SIZE 5
#data domain
#LUT data points
DOMAIN_MIN 0.000000 0.000000 0.000000
DOMAIN_MAX 0.903226 0.903226 0.903226
0.000000 0.000000 0.000000
0.414551 0.038940 0.038940
0.740997 0.069611 0.069611
0.973022 0.091431 0.091431
1.000000 0.199951 0.199951
0.000000 0.362885 0.000000
0.381287 0.381287 0.083679
0.722290 0.414673 0.111847
0.964020 0.394409 0.110321
1.000000 0.396057 0.196838
0.000000 0.651489 0.000000
0.334503 0.673462 0.056946
0.686493 0.686493 0.150696
0.939270 0.725433 0.196350
1.000000 0.710999 0.272858
0.000000 0.863464 0.000000
0.175018 0.860657 0.000000
0.691162 0.920258 0.177856
0.915588 0.915588 0.200989
1.000000 0.895203 0.296356
0.000000 0.983704 0.000000
0.000000 0.982391 0.000000
0.623871 1.000000 0.168579
0.886749 1.000000 0.287476
1.000000 1.000000 0.281128
0.000000 0.000000 0.387848
0.377930 0.000000 0.377930
0.707031 0.024536 0.384277
0.954987 0.063354 0.388367
1.000000 0.180786 0.411987
0.000000 0.362885 0.362885
0.352295 0.352295 0.352295
0.705017 0.345581 0.345581
0.946381 0.313599 0.313599
1.000000 0.340118 0.340118
0.000000 0.651489 0.303467
0.229248 0.655701 0.229248
0.680115 0.680115 0.294861
0.932404 0.702179 0.295654
1.000000 0.695740 0.269501
0.000000 0.863464 0.194794
0.000000 0.864838 0.000000
0.672913 0.922089 0.168854
0.919373 0.919373 0.201813
1.000000 0.891418 0.297394
0.000000 0.983704 0.000000
0.000000 0.983276 0.000000
0.589111 1.000000 0.149994
0.881500 1.000000 0.288391
1.000000 1.000000 0.281830
0.000000 0.000000 0.691101
0.377930 0.000000 0.686188
0.675568 0.000000 0.675568
0.887085 0.000000 0.660339
1.000000 0.036743 0.655487
0.000000 0.362976 0.678864
0.311615 0.311615 0.686371
0.674255 0.281067 0.674255
0.903198 0.250793 0.654236
1.000000 0.237549 0.642792
0.000000 0.651489 0.651489
0.229248 0.655701 0.655701
0.634277 0.634277 0.634277
0.896454 0.633606 0.633606
1.000000 0.646545 0.646545
0.000000 0.863464 0.610077
0.000000 0.864838 0.588867
0.542236 0.861633 0.542236
0.879364 0.879364 0.596985
1.000000 0.881226 0.639374
0.000000 0.983704 0.557892
0.000000 0.983276 0.522858
0.455200 0.981384 0.455200
0.859924 1.000000 0.557983
1.000000 1.000000 0.550446
0.000000 0.000000 0.901794
0.377930 0.000000 0.899445
0.675568 0.000000 0.894348
0.887085 0.000000 0.887085
1.000000 0.000000 0.878662
0.000000 0.362885 0.895935
0.300720 0.300720 0.899017
0.653351 0.271149 0.893616
0.885834 0.224060 0.885834
0.998535 0.163910 0.868744
0.000000 0.651398 0.882904
0.220947 0.635071 0.885345
0.597809 0.597809 0.884216
0.875336 0.576172 0.875336
0.999969 0.558777 0.855530
0.000000 0.863464 0.863464
0.000000 0.864838 0.864838
0.542236 0.861633 0.861633
0.845947 0.845947 0.845947
0.997589 0.847198 0.847198
0.000000 0.983704 0.839600
0.000000 0.983276 0.830841
0.455200 0.981384 0.813873
0.798676 0.977081 0.798676
0.987152 0.987152 0.829681
0.000000 0.000000 1.000000
0.377930 0.000000 1.000000
0.675537 0.000000 1.000000
0.887207 0.000000 1.000000
1.000000 0.000000 1.000000
0.000000 0.362793 1.000000
0.296387 0.296387 1.000000
0.645050 0.267212 1.000000
0.877686 0.220764 1.000000
0.998627 0.153717 0.998627
0.000000 0.651611 1.000000
0.217682 0.626801 1.000000
0.579742 0.579742 1.000000
0.856293 0.558563 0.998016
0.993958 0.533447 0.993958
0.000000 0.863525 0.993805
0.000000 0.856445 0.993774
0.525299 0.842255 0.992645
0.829193 0.829193 0.989044
0.984375 0.817230 0.984375
0.000000 0.983704 0.983704
0.000000 0.983276 0.983276
0.455200 0.981384 0.981384
0.798676 0.977081 0.977081
0.970581 0.970581 0.970581
