src/assets/luts/大师配方/大师·兰.cube
#Generated with IWLTBAP LUT Generator
#Website: http://luts.iwltbap.com
TITLE "3"
#LUT size
LUT_3D_SIZE 8
#LUT data points
0.007843 0.000000 0.015686
0.121569 0.000000 0.011765
0.266667 0.000000 0.000000
0.447059 0.000000 0.000000
0.623529 0.000000 0.000000
0.752941 0.000000 0.000000
0.870588 0.000000 0.000000
0.941176 0.011765 0.000000
0.023529 0.125490 0.003922
0.137255 0.121569 0.000000
0.278431 0.125490 0.000000
0.462745 0.117647 0.000000
0.635294 0.113725 0.000000
0.764706 0.101961 0.000000
0.882353 0.101961 0.000000
0.941176 0.109804 0.000000
0.054902 0.282353 0.000000
0.168627 0.286275 0.000000
0.305882 0.282353 0.000000
0.474510 0.274510 0.000000
0.647059 0.282353 0.000000
0.772549 0.266667 0.000000
0.886275 0.254902 0.000000
0.952941 0.254902 0.000000
0.094118 0.450980 0.000000
0.172549 0.466667 0.000000
0.309804 0.454902 0.000000
0.494118 0.447059 0.000000
0.658824 0.447059 0.000000
0.776471 0.439216 0.000000
0.898039 0.423529 0.000000
0.968627 0.419608 0.000000
0.109804 0.607843 0.000000
0.184314 0.619608 0.000000
0.313725 0.611765 0.000000
0.509804 0.607843 0.000000
0.670588 0.600000 0.000000
0.792157 0.584314 0.000000
0.898039 0.580392 0.000000
0.976471 0.580392 0.000000
0.149020 0.733333 0.000000
0.207843 0.733333 0.000000
0.317647 0.737255 0.000000
0.509804 0.733333 0.000000
0.658824 0.729412 0.000000
0.796078 0.713725 0.000000
0.905882 0.705882 0.000000
0.972549 0.701961 0.000000
0.188235 0.847059 0.000000
0.239216 0.850980 0.000000
0.337255 0.850980 0.000000
0.521569 0.847059 0.000000
0.666667 0.850980 0.000000
0.796078 0.843137 0.000000
0.905882 0.839216 0.000000
0.972549 0.839216 0.000000
0.211765 0.933333 0.000000
0.258824 0.937255 0.000000
0.345098 0.933333 0.000000
0.513725 0.937255 0.000000
0.662745 0.933333 0.000000
0.792157 0.937255 0.000000
0.901961 0.929412 0.000000
0.964706 0.929412 0.000000
0.027451 0.003922 0.098039
0.105882 0.003922 0.105882
0.247059 0.000000 0.109804
0.427451 0.000000 0.098039
0.600000 0.000000 0.090196
0.737255 0.000000 0.074510
0.862745 0.000000 0.070588
0.937255 0.000000 0.078431
0.031373 0.094118 0.101961
0.121569 0.101961 0.113725
0.270588 0.098039 0.109804
0.443137 0.082353 0.105882
0.619608 0.062745 0.094118
0.745098 0.054902 0.086275
0.874510 0.058824 0.074510
0.941176 0.082353 0.090196
0.050980 0.243137 0.094118
0.125490 0.266667 0.105882
0.290196 0.262745 0.101961
0.458824 0.262745 0.105882
0.631373 0.262745 0.101961
0.764706 0.250980 0.090196
0.882353 0.239216 0.086275
0.956863 0.243137 0.098039
0.074510 0.415686 0.070588
0.129412 0.439216 0.090196
0.290196 0.431373 0.078431
0.486275 0.435294 0.027451
0.650980 0.431373 0.039216
0.776471 0.431373 0.090196
0.890196 0.423529 0.101961
0.964706 0.419608 0.113725
0.090196 0.580392 0.015686
0.145098 0.607843 0.031373
0.282353 0.607843 0.015686
0.494118 0.607843 0.000000
0.658824 0.596078 0.000000
0.784314 0.584314 0.000000
0.898039 0.576471 0.047059
0.972549 0.580392 0.125490
0.109804 0.721569 0.000000
0.176471 0.729412 0.027451
0.298039 0.733333 0.023529
0.498039 0.729412 0.007843
0.662745 0.721569 0.000000
0.792157 0.713725 0.000000
0.901961 0.698039 0.000000
0.968627 0.698039 0.031373
0.152941 0.843137 0.039216
0.211765 0.847059 0.050980
0.313725 0.850980 0.050980
0.501961 0.847059 0.047059
0.658824 0.843137 0.043137
0.788235 0.847059 0.015686
0.905882 0.839216 0.000000
0.968627 0.835294 0.000000
0.172549 0.933333 0.078431
0.227451 0.933333 0.086275
0.325490 0.933333 0.078431
0.486275 0.941176 0.086275
0.654902 0.937255 0.082353
0.788235 0.937255 0.078431
0.894118 0.933333 0.062745
0.964706 0.929412 0.027451
0.039216 0.000000 0.196078
0.101961 0.003922 0.215686
0.235294 0.000000 0.219608
0.411765 0.000000 0.227451
0.588235 0.000000 0.219608
0.725490 0.000000 0.203922
0.858824 0.000000 0.200000
0.933333 0.000000 0.207843
0.047059 0.062745 0.207843
0.094118 0.070588 0.219608
0.247059 0.074510 0.239216
0.419608 0.047059 0.235294
0.600000 0.015686 0.223529
0.737255 0.003922 0.211765
0.858824 0.007843 0.211765
0.945098 0.015686 0.219608
0.062745 0.207843 0.215686
0.082353 0.219608 0.223529
0.254902 0.243137 0.250980
0.443137 0.247059 0.254902
0.611765 0.235294 0.239216
0.756863 0.223529 0.227451
0.874510 0.219608 0.227451
0.949020 0.227451 0.239216
0.078431 0.376471 0.219608
0.082353 0.384314 0.227451
0.243137 0.415686 0.247059
0.454902 0.423529 0.239216
0.635294 0.431373 0.247059
0.768627 0.427451 0.250980
0.886275 0.419608 0.250980
0.968627 0.415686 0.250980
0.086275 0.545098 0.211765
0.094118 0.556863 0.215686
0.215686 0.584314 0.243137
0.454902 0.592157 0.231373
0.647059 0.588235 0.192157
0.780392 0.576471 0.196078
0.898039 0.584314 0.243137
0.976471 0.592157 0.278431
0.090196 0.694118 0.192157
0.105882 0.701961 0.207843
0.239216 0.725490 0.235294
0.462745 0.725490 0.231373
0.643137 0.717647 0.196078
0.784314 0.709804 0.137255
0.901961 0.698039 0.145098
0.968627 0.701961 0.196078
0.101961 0.819608 0.196078
0.149020 0.831373 0.207843
0.274510 0.843137 0.215686
0.474510 0.843137 0.192157
0.650980 0.843137 0.180392
0.784314 0.843137 0.156863
0.905882 0.835294 0.141176
0.968627 0.831373 0.133333
0.133333 0.921569 0.172549
0.188235 0.929412 0.184314
0.294118 0.933333 0.192157
0.454902 0.937255 0.188235
0.639216 0.937255 0.180392
0.780392 0.937255 0.176471
0.901961 0.937255 0.172549
0.964706 0.933333 0.164706
0.058824 0.003922 0.337255
0.086275 0.000000 0.352941
0.211765 0.000000 0.376471
0.372549 0.000000 0.372549
0.568627 0.000000 0.360784
0.725490 0.000000 0.349020
0.850980 0.007843 0.349020
0.929412 0.015686 0.345098
0.058824 0.027451 0.352941
0.078431 0.027451 0.368627
0.215686 0.031373 0.396078
0.388235 0.015686 0.384314
0.584314 0.000000 0.372549
0.729412 0.003922 0.360784
0.862745 0.019608 0.356863
0.937255 0.019608 0.356863
0.066667 0.160784 0.356863
0.070588 0.168627 0.364706
0.203922 0.196078 0.403922
0.392157 0.215686 0.415686
0.600000 0.219608 0.403922
0.745098 0.196078 0.392157
0.870588 0.188235 0.372549
0.949020 0.192157 0.372549
0.078431 0.329412 0.376471
0.078431 0.337255 0.388235
0.156863 0.364706 0.403922
0.403922 0.400000 0.439216
0.619608 0.419608 0.443137
0.752941 0.411765 0.423529
0.878431 0.400000 0.400000
0.960784 0.396078 0.400000
0.082353 0.505882 0.376471
0.082353 0.513725 0.388235
0.117647 0.529412 0.407843
0.392157 0.576471 0.435294
0.623529 0.592157 0.435294
0.764706 0.592157 0.439216
0.886275 0.592157 0.439216
0.972549 0.596078 0.443137
0.086275 0.666667 0.384314
0.086275 0.670588 0.392157
0.133333 0.686275 0.407843
0.380392 0.717647 0.439216
0.627451 0.721569 0.423529
0.772549 0.709804 0.400000
0.898039 0.709804 0.380392
0.968627 0.721569 0.435294
0.090196 0.796078 0.380392
0.098039 0.800000 0.384314
0.184314 0.815686 0.403922
0.392157 0.847059 0.415686
0.623529 0.854902 0.411765
0.772549 0.850980 0.380392
0.898039 0.839216 0.329412
0.968627 0.835294 0.301961
0.094118 0.894118 0.349020
0.101961 0.898039 0.352941
0.223529 0.913725 0.372549
0.396078 0.937255 0.388235
0.611765 0.945098 0.380392
0.764706 0.945098 0.360784
0.890196 0.941176 0.325490
0.968627 0.937255 0.290196
0.058824 0.000000 0.490196
0.074510 0.000000 0.505882
0.180392 0.003922 0.521569
0.329412 0.000000 0.525490
0.541176 0.000000 0.501961
0.713725 0.000000 0.501961
0.854902 0.015686 0.494118
0.941176 0.039216 0.505882
0.058824 0.007843 0.501961
0.066667 0.007843 0.517647
0.168627 0.007843 0.529412
0.333333 0.011765 0.533333
0.541176 0.007843 0.517647
0.717647 0.000000 0.513725
0.858824 0.027451 0.509804
0.949020 0.047059 0.509804
0.062745 0.113725 0.501961
0.070588 0.117647 0.517647
0.145098 0.141176 0.537255
0.352941 0.176471 0.556863
0.564706 0.176471 0.549020
0.737255 0.172549 0.549020
0.878431 0.160784 0.537255
0.960784 0.168627 0.533333
0.070588 0.274510 0.509804
0.078431 0.290196 0.525490
0.098039 0.301961 0.533333
0.337255 0.352941 0.572549
0.572549 0.400000 0.596078
0.741176 0.423529 0.588235
0.878431 0.400000 0.580392
0.968627 0.384314 0.560784
0.074510 0.462745 0.533333
0.074510 0.478431 0.545098
0.086275 0.486275 0.552941
0.294118 0.525490 0.580392
0.592157 0.584314 0.623529
0.752941 0.596078 0.619608
0.882353 0.588235 0.603922
0.972549 0.576471 0.592157
0.074510 0.639216 0.549020
0.074510 0.643137 0.549020
0.086275 0.647059 0.549020
0.254902 0.674510 0.576471
0.596078 0.729412 0.619608
0.756863 0.729412 0.615686
0.890196 0.741176 0.627451
0.972549 0.749020 0.631373
0.086275 0.776471 0.529412
0.086275 0.776471 0.537255
0.098039 0.784314 0.545098
0.286275 0.819608 0.580392
0.572549 0.862745 0.615686
0.760784 0.866667 0.603922
0.894118 0.858824 0.572549
0.972549 0.854902 0.564706
0.090196 0.878431 0.521569
0.094118 0.882353 0.529412
0.129412 0.890196 0.537255
0.321569 0.913725 0.564706
0.580392 0.952941 0.600000
0.752941 0.956863 0.572549
0.882353 0.949020 0.549020
0.960784 0.945098 0.533333
0.062745 0.000000 0.611765
0.062745 0.000000 0.611765
0.145098 0.003922 0.631373
0.290196 0.007843 0.639216
0.490196 0.003922 0.647059
0.686275 0.000000 0.654902
0.835294 0.003922 0.635294
0.933333 0.039216 0.639216
0.062745 0.000000 0.615686
0.062745 0.000000 0.623529
0.125490 0.007843 0.635294
0.298039 0.011765 0.647059
0.494118 0.019608 0.658824
0.698039 0.015686 0.654902
0.839216 0.023529 0.639216
0.937255 0.054902 0.647059
0.058824 0.066667 0.619608
0.062745 0.054902 0.631373
0.082353 0.082353 0.643137
0.309804 0.125490 0.670588
0.521569 0.145098 0.686275
0.709804 0.137255 0.690196
0.854902 0.121569 0.674510
0.956863 0.109804 0.678431
0.070588 0.239216 0.623529
0.066667 0.243137 0.635294
0.070588 0.254902 0.643137
0.294118 0.313725 0.678431
0.541176 0.372549 0.713725
0.721569 0.380392 0.709804
0.862745 0.388235 0.705882
0.960784 0.388235 0.713725
0.066667 0.427451 0.647059
0.070588 0.427451 0.643137
0.070588 0.439216 0.662745
0.203922 0.470588 0.682353
0.537255 0.545098 0.729412
0.721569 0.576471 0.749020
0.870588 0.584314 0.745098
0.972549 0.576471 0.745098
0.062745 0.603922 0.666667
0.062745 0.603922 0.670588
0.066667 0.607843 0.670588
0.121569 0.635294 0.690196
0.513725 0.690196 0.737255
0.733333 0.733333 0.772549
0.878431 0.741176 0.772549
0.968627 0.729412 0.760784
0.058824 0.756863 0.674510
0.058824 0.756863 0.682353
0.062745 0.764706 0.678431
0.117647 0.780392 0.690196
0.458824 0.827451 0.741176
0.733333 0.874510 0.768627
0.882353 0.874510 0.764706
0.968627 0.878431 0.784314
0.058824 0.866667 0.658824
0.058824 0.866667 0.662745
0.066667 0.870588 0.662745
0.125490 0.890196 0.678431
0.478431 0.937255 0.737255
0.737255 0.968627 0.768627
0.882353 0.968627 0.760784
0.964706 0.964706 0.752941
0.039216 0.000000 0.717647
0.039216 0.000000 0.721569
0.094118 0.000000 0.733333
0.262745 0.007843 0.756863
0.454902 0.019608 0.772549
0.647059 0.027451 0.796078
0.815686 0.027451 0.792157
0.921569 0.043137 0.788235
0.035294 0.000000 0.721569
0.035294 0.003922 0.729412
0.070588 0.003922 0.741176
0.262745 0.011765 0.760784
0.454902 0.027451 0.784314
0.650980 0.047059 0.800000
0.819608 0.054902 0.800000
0.925490 0.066667 0.800000
0.035294 0.007843 0.725490
0.035294 0.011765 0.741176
0.039216 0.023529 0.745098
0.258824 0.062745 0.780392
0.486275 0.094118 0.800000
0.670588 0.078431 0.819608
0.839216 0.094118 0.819608
0.941176 0.109804 0.815686
0.035294 0.200000 0.741176
0.031373 0.207843 0.756863
0.035294 0.219608 0.752941
0.227451 0.270588 0.788235
0.498039 0.333333 0.823529
0.678431 0.360784 0.839216
0.843137 0.356863 0.847059
0.956863 0.341176 0.847059
0.031373 0.388235 0.752941
0.035294 0.392157 0.760784
0.031373 0.400000 0.772549
0.082353 0.423529 0.788235
0.486275 0.498039 0.835294
0.690196 0.545098 0.866667
0.858824 0.552941 0.870588
0.968627 0.552941 0.866667
0.027451 0.556863 0.776471
0.027451 0.560784 0.772549
0.027451 0.560784 0.780392
0.035294 0.584314 0.796078
0.396078 0.635294 0.835294
0.686275 0.698039 0.878431
0.858824 0.725490 0.890196
0.968627 0.729412 0.894118
0.011765 0.729412 0.800000
0.007843 0.729412 0.796078
0.015686 0.729412 0.800000
0.039216 0.749020 0.807843
0.258824 0.784314 0.835294
0.658824 0.847059 0.882353
0.866667 0.874510 0.905882
0.968627 0.878431 0.905882
0.000000 0.850980 0.788235
0.000000 0.854902 0.796078
0.007843 0.858824 0.792157
0.035294 0.870588 0.803922
0.215686 0.898039 0.827451
0.666667 0.952941 0.878431
0.866667 0.980392 0.901961
0.964706 0.976471 0.909804
0.000000 0.000000 0.811765
0.000000 0.000000 0.815686
0.027451 0.000000 0.827451
0.254902 0.011765 0.850980
0.439216 0.031373 0.878431
0.615686 0.054902 0.894118
0.784314 0.082353 0.909804
0.905882 0.086275 0.913725
0.000000 0.000000 0.819608
0.000000 0.000000 0.823529
0.015686 0.000000 0.827451
0.247059 0.011765 0.858824
0.443137 0.035294 0.882353
0.623529 0.066667 0.901961
0.788235 0.094118 0.917647
0.913725 0.098039 0.921569
0.000000 0.000000 0.823529
0.000000 0.000000 0.831373
0.000000 0.003922 0.843137
0.211765 0.031373 0.870588
0.454902 0.082353 0.898039
0.631373 0.101961 0.913725
0.800000 0.121569 0.929412
0.933333 0.129412 0.929412
0.000000 0.152941 0.843137
0.000000 0.156863 0.843137
0.000000 0.180392 0.850980
0.152941 0.219608 0.874510
0.466667 0.278431 0.905882
0.643137 0.309804 0.929412
0.819608 0.309804 0.949020
0.949020 0.270588 0.949020
0.000000 0.352941 0.850980
0.000000 0.352941 0.854902
0.000000 0.368627 0.866667
0.027451 0.384314 0.878431
0.435294 0.450980 0.925490
0.650980 0.501961 0.949020
0.823529 0.517647 0.960784
0.960784 0.513725 0.968627
0.000000 0.509804 0.866667
0.000000 0.517647 0.870588
0.000000 0.517647 0.874510
0.019608 0.541176 0.886275
0.305882 0.584314 0.917647
0.650980 0.654902 0.952941
0.835294 0.698039 0.972549
0.956863 0.701961 0.976471
0.000000 0.670588 0.882353
0.000000 0.674510 0.882353
0.000000 0.678431 0.878431
0.023529 0.686275 0.890196
0.090196 0.721569 0.898039
0.584314 0.792157 0.952941
0.843137 0.850980 0.976471
0.964706 0.878431 0.984314
0.000000 0.823529 0.890196
0.000000 0.823529 0.886275
0.000000 0.831373 0.886275
0.019608 0.843137 0.890196
0.070588 0.870588 0.901961
0.576471 0.929412 0.949020
0.854902 0.968627 0.976471
0.968627 0.976471 0.984314
