src/assets/luts/大师配方/大师·暮.cube
#Created by: Adobe Photoshop Export Color Lookup Plugin
#Copyright: (C) Copyright 2025 avin.hua
TITLE "大师-幕-傍晚"
#LUT size
LUT_3D_SIZE 5
#data domain
#LUT data points
DOMAIN_MIN 0.000000 0.000000 0.000000
DOMAIN_MAX 0.903226 0.903226 0.903226
0.023346 0.007996 0.000000
0.246155 0.000000 0.000000
0.545959 0.000000 0.000000
0.850006 0.000000 0.000000
1.000000 0.000000 0.000000
0.000000 0.201935 0.000000
0.235443 0.208527 0.000000
0.548431 0.132690 0.000000
0.846161 0.000000 0.000000
1.000000 0.000000 0.000000
0.000000 0.479553 0.000000
0.000000 0.489655 0.000000
0.510132 0.480743 0.000000
0.830017 0.427948 0.000000
1.000000 0.378601 0.000000
0.000000 0.767883 0.000000
0.000000 0.768158 0.000000
0.376740 0.778870 0.000000
0.784882 0.759369 0.000000
1.000000 0.730438 0.000000
0.000000 0.966797 0.000000
0.000000 0.966034 0.000000
0.100922 0.980927 0.000000
0.725159 0.966431 0.000000
0.972290 0.951569 0.000000
0.014954 0.000671 0.212158
0.241180 0.000000 0.199158
0.541992 0.000000 0.151794
0.850006 0.000000 0.000000
1.000000 0.000000 0.000000
0.000000 0.201935 0.186737
0.218842 0.192566 0.177216
0.538025 0.110016 0.094482
0.843658 0.000000 0.000000
1.000000 0.000000 0.000000
0.000000 0.479553 0.077667
0.000000 0.480621 0.000000
0.516113 0.486847 0.000000
0.841827 0.414917 0.000000
1.000000 0.358582 0.000000
0.000000 0.767883 0.000000
0.000000 0.767975 0.000000
0.346558 0.784485 0.000000
0.812103 0.787231 0.000000
1.000000 0.744446 0.000000
0.000000 0.966797 0.000000
0.000000 0.966156 0.000000
0.000000 0.975983 0.000000
0.733246 1.000000 0.000000
1.000000 0.995239 0.000000
0.008606 0.000000 0.528717
0.238739 0.000000 0.522675
0.534485 0.000000 0.499023
0.836182 0.000000 0.466766
1.000000 0.000000 0.426270
0.000000 0.199554 0.517242
0.189423 0.164001 0.519623
0.532410 0.109131 0.496674
0.836731 0.000000 0.452515
1.000000 0.000000 0.404968
0.000000 0.479553 0.472229
0.000000 0.480621 0.473267
0.490265 0.460876 0.452881
0.820892 0.402191 0.391937
1.000000 0.333832 0.321472
0.000000 0.767883 0.395966
0.000000 0.767975 0.391785
0.343506 0.764313 0.332886
0.793274 0.767853 0.114075
1.000000 0.715454 0.000000
0.000000 0.966797 0.302765
0.000000 0.966156 0.294220
0.065948 0.962067 0.173187
0.689697 0.977905 0.000000
0.992584 0.972656 0.000000
0.002563 0.000000 0.863678
0.231445 0.000000 0.861938
0.535248 0.000000 0.838654
0.831696 0.000000 0.816467
1.000000 0.000000 0.797546
0.000000 0.192596 0.859741
0.179321 0.154327 0.855835
0.523071 0.095978 0.840210
0.830170 0.000000 0.814575
1.000000 0.000000 0.791809
0.000000 0.480225 0.824493
0.000000 0.471436 0.828186
0.453766 0.424347 0.828918
0.817169 0.389404 0.800598
1.000000 0.339081 0.766541
0.000000 0.767883 0.774658
0.000000 0.767975 0.774750
0.343506 0.764313 0.771027
0.765594 0.739502 0.744720
0.993774 0.709686 0.713379
0.000000 0.966797 0.724335
0.000000 0.966156 0.721710
0.065948 0.962067 0.712860
0.693878 0.949097 0.684113
0.970581 0.949799 0.601105
0.000000 0.000000 1.000000
0.227997 0.000000 1.000000
0.534027 0.000000 1.000000
0.831635 0.000000 1.000000
1.000000 0.000000 1.000000
0.000000 0.189270 1.000000
0.174316 0.149384 1.000000
0.517517 0.083832 1.000000
0.827515 0.000000 1.000000
1.000000 0.000000 1.000000
0.000000 0.478973 1.000000
0.000000 0.466339 1.000000
0.440704 0.411285 1.000000
0.803497 0.376465 1.000000
1.000000 0.330963 1.000000
0.000000 0.767792 1.000000
0.000000 0.764526 1.000000
0.329315 0.750458 1.000000
0.744019 0.717560 1.000000
0.991211 0.700806 0.990356
0.000000 0.966797 0.985809
0.000000 0.966156 0.984894
0.065948 0.962067 0.980743
0.693878 0.949097 0.966797
0.952911 0.931732 0.948364
