src/assets/luts/大师配方/大师·璨.cube
#Created by: Adobe Photoshop Export Color Lookup Plugin
#Copyright: (C) Copyright 2026 aaa
TITLE "HG224大师滤镜.psd"
#LUT size
LUT_3D_SIZE 33
#data domain
DOMAIN_MIN 0.0 0.0 0.0
DOMAIN_MAX 1.0 1.0 1.0
#LUT data points
0.000000 0.000000 0.000000
0.000000 0.000000 0.000000
0.000000 0.000000 0.000000
0.010590 0.000000 0.000000
0.051514 0.000000 0.000000
0.095795 0.000000 0.000000
0.141785 0.000000 0.000000
0.189178 0.000000 0.000000
0.237366 0.000000 0.000000
0.285797 0.000000 0.000000
0.334290 0.000000 0.000000
0.382507 0.000000 0.000000
0.429932 0.000000 0.000000
0.476349 0.000000 0.000000
0.521149 0.000000 0.000000
0.563721 0.000183 0.000000
0.605133 0.000671 0.000000
0.645996 0.001282 0.000000
0.687378 0.001953 0.000000
0.729950 0.002502 0.000000
0.773499 0.003235 0.000000
0.818359 0.003845 0.000000
0.863617 0.004578 0.000000
0.908264 0.005219 0.000000
0.951599 0.005981 0.000000
0.992950 0.006561 0.000000
1.000000 0.027740 0.000000
1.000000 0.053467 0.021118
1.000000 0.078033 0.055878
1.000000 0.100647 0.085571
1.000000 0.120850 0.111023
1.000000 0.138184 0.132202
1.000000 0.152344 0.149170
0.000000 0.000000 0.000000
0.000000 0.000000 0.000000
0.000000 0.000000 0.000000
0.010590 0.000000 0.000000
0.051514 0.000000 0.000000
0.095795 0.000000 0.000000
0.141785 0.000000 0.000000
0.189178 0.000000 0.000000
0.237366 0.000000 0.000000
0.285797 0.000000 0.000000
0.334290 0.000000 0.000000
0.382507 0.000214 0.000000
0.429932 0.000824 0.000000
0.476349 0.001587 0.000000
0.521149 0.002258 0.000000
0.563721 0.002991 0.000000
0.605133 0.003571 0.000000
0.645996 0.004120 0.000000
0.687378 0.004822 0.000000
0.729950 0.005371 0.000000
0.773499 0.006104 0.000000
0.818359 0.006836 0.000000
0.863617 0.007599 0.000000
0.908264 0.008575 0.000000
0.951599 0.009277 0.000000
0.992950 0.009766 0.000000
1.000000 0.031189 0.000000
1.000000 0.056732 0.021118
1.000000 0.081299 0.055878
1.000000 0.104095 0.085571
1.000000 0.124207 0.111023
1.000000 0.141266 0.132202
1.000000 0.155426 0.149170
0.000000 0.015106 0.000000
0.000000 0.015106 0.000000
0.000000 0.019836 0.000000
0.010590 0.020691 0.000000
0.051514 0.021545 0.000000
0.095795 0.022369 0.000000
0.141785 0.023315 0.000000
0.189178 0.024231 0.000000
0.237366 0.025085 0.000000
0.285797 0.026245 0.000000
0.334290 0.027161 0.000000
0.382507 0.028015 0.000000
0.429932 0.028961 0.000000
0.476349 0.029816 0.000000
0.521149 0.030579 0.000000
0.563721 0.031464 0.000000
0.605133 0.032196 0.000000
0.645996 0.032990 0.000000
0.687378 0.033661 0.000000
0.729950 0.034363 0.000000
0.773499 0.035339 0.000000
0.818359 0.036285 0.000000
0.863617 0.036896 0.000000
0.908264 0.037750 0.000000
0.951599 0.038666 0.000000
0.992950 0.039368 0.000000
1.000000 0.060913 0.000000
1.000000 0.086273 0.021118
1.000000 0.109924 0.055878
1.000000 0.131622 0.085571
1.000000 0.151123 0.111023
1.000000 0.167786 0.132202
1.000000 0.180939 0.149170
0.000000 0.042084 0.000000
0.000000 0.042084 0.000000
0.000000 0.048920 0.000000
0.010590 0.052368 0.000000
0.051514 0.053345 0.000000
0.095795 0.054291 0.000000
0.141785 0.055237 0.000000
0.189178 0.056244 0.000000
0.237366 0.057220 0.000000
0.285797 0.058167 0.000000
0.334290 0.059265 0.000000
0.382507 0.060150 0.000000
0.429932 0.061127 0.000000
0.476349 0.062042 0.000000
0.521149 0.062897 0.000000
0.563721 0.063995 0.000000
0.605133 0.064819 0.000000
0.645996 0.065643 0.000000
0.687378 0.066528 0.000000
0.729950 0.067322 0.000000
0.773499 0.068298 0.000000
0.818359 0.069244 0.000000
0.863617 0.069977 0.000000
0.908264 0.070801 0.000000
0.951599 0.071960 0.000000
0.992950 0.072540 0.000000
1.000000 0.093231 0.000000
1.000000 0.117401 0.021118
1.000000 0.140106 0.055878
1.000000 0.160767 0.085571
1.000000 0.179321 0.111023
1.000000 0.194885 0.132202
1.000000 0.207886 0.149170
0.000000 0.072083 0.000000
0.000000 0.072083 0.000000
0.000000 0.076538 0.000000
0.010437 0.086792 0.000000
0.051514 0.088165 0.000000
0.095795 0.089203 0.000000
0.141785 0.090149 0.000000
0.189178 0.091217 0.000000
0.237366 0.092285 0.000000
0.285797 0.093323 0.000000
0.334290 0.094330 0.000000
0.382507 0.095367 0.000000
0.429932 0.096344 0.000000
0.476349 0.097321 0.000000
0.521149 0.098145 0.000000
0.563721 0.099060 0.000000
0.605133 0.100067 0.000000
0.645996 0.100891 0.000000
0.687378 0.101746 0.000000
0.729950 0.102905 0.000000
0.773499 0.103729 0.000000
0.818359 0.104797 0.000000
0.863617 0.105713 0.000000
0.908264 0.106567 0.000000
0.951599 0.107574 0.000000
0.992950 0.108307 0.000000
1.000000 0.127747 0.000000
1.000000 0.150604 0.021118
1.000000 0.171936 0.055878
1.000000 0.191315 0.085571
1.000000 0.208862 0.111023
1.000000 0.223480 0.132202
1.000000 0.235626 0.149170
0.000000 0.104095 0.000000
0.000000 0.104095 0.000000
0.000000 0.105530 0.000000
0.006714 0.117523 0.000000
0.052399 0.126160 0.000000
0.095795 0.126312 0.000000
0.141785 0.127350 0.000000
0.189178 0.128448 0.000000
0.237366 0.129486 0.000000
0.285797 0.130676 0.000000
0.334290 0.131683 0.000000
0.382507 0.132721 0.000000
0.429932 0.133759 0.000000
0.476349 0.134827 0.000000
0.521149 0.135681 0.000000
0.563721 0.136749 0.000000
0.605133 0.137451 0.000000
0.645996 0.138489 0.000000
0.687378 0.139313 0.000000
0.729950 0.140167 0.000000
0.773499 0.141083 0.000000
0.818359 0.142365 0.000000
0.863617 0.143311 0.000000
0.908264 0.144470 0.000000
0.951599 0.145416 0.000000
0.992950 0.146118 0.000000
1.000000 0.164154 0.000000
1.000000 0.185120 0.021118
1.000000 0.204987 0.055878
1.000000 0.222961 0.085571
1.000000 0.239197 0.111023
1.000000 0.252869 0.132202
1.000000 0.264435 0.149170
0.000000 0.137482 0.000000
0.000000 0.137482 0.000000
0.000000 0.137482 0.000000
0.004089 0.148651 0.000000
0.048492 0.159973 0.000000
0.096710 0.166260 0.000000
0.141785 0.166412 0.000000
0.189178 0.167450 0.000000
0.237366 0.168640 0.000000
0.285797 0.169769 0.000000
0.334290 0.170868 0.000000
0.382507 0.171967 0.000000
0.429932 0.173065 0.000000
0.476349 0.174133 0.000000
0.521149 0.175018 0.000000
0.563721 0.175903 0.000000
0.605133 0.176941 0.000000
0.645996 0.177917 0.000000
0.687378 0.178833 0.000000
0.729950 0.179779 0.000000
0.773499 0.180695 0.000000
0.818359 0.181641 0.000000
0.863617 0.182892 0.000000
0.908264 0.183990 0.000000
0.951599 0.184845 0.000000
0.992950 0.185791 0.000000
1.000000 0.201691 0.000000
1.000000 0.220886 0.021118
1.000000 0.238983 0.055878
1.000000 0.255737 0.085571
1.000000 0.270447 0.111023
1.000000 0.283325 0.132202
1.000000 0.293762 0.149170
0.000000 0.172455 0.000000
0.000000 0.172455 0.000000
0.000000 0.172455 0.000000
0.002380 0.180542 0.000000
0.044525 0.193207 0.000000
0.094666 0.204315 0.000000
0.142944 0.207825 0.000000
0.189178 0.208008 0.000000
0.237366 0.209167 0.000000
0.285797 0.210358 0.000000
0.334290 0.211426 0.000000
0.382507 0.212616 0.000000
0.429932 0.213654 0.000000
0.476349 0.214813 0.000000
0.521149 0.215820 0.000000
0.563721 0.216705 0.000000
0.605133 0.217651 0.000000
0.645996 0.218597 0.000000
0.687378 0.219666 0.000000
0.729950 0.220428 0.000000
0.773499 0.221527 0.000000
0.818359 0.222778 0.000000
0.863617 0.223755 0.000000
0.908264 0.225006 0.000000
0.951599 0.225891 0.000000
0.992950 0.226624 0.000000
1.000000 0.240784 0.000000
1.000000 0.257660 0.021118
1.000000 0.274170 0.055878
1.000000 0.289215 0.085571
1.000000 0.302490 0.111023
1.000000 0.314362 0.132202
1.000000 0.324097 0.149170
0.000000 0.208435 0.000000
0.000000 0.208435 0.000000
0.000000 0.208435 0.000000
0.001221 0.213165 0.000000
0.041168 0.226929 0.000000
0.089874 0.239197 0.000000
0.143250 0.249939 0.000000
0.190186 0.250732 0.000000
0.237366 0.250977 0.000000
0.285797 0.252106 0.000000
0.334290 0.253296 0.000000
0.382507 0.254395 0.000000
0.429932 0.255524 0.000000
0.476349 0.256592 0.000000
0.521149 0.257690 0.000000
0.563721 0.258606 0.000000
0.605133 0.259735 0.000000
0.645996 0.260681 0.000000
0.687378 0.261627 0.000000
0.729950 0.262573 0.000000
0.773499 0.263763 0.000000
0.818359 0.264893 0.000000
0.863617 0.266022 0.000000
0.908264 0.266876 0.000000
0.951599 0.268005 0.000000
0.992950 0.268799 0.000000
1.000000 0.280914 0.000000
1.000000 0.295624 0.021118
1.000000 0.309753 0.055878
1.000000 0.323059 0.085571
1.000000 0.335419 0.111023
1.000000 0.346222 0.132202
1.000000 0.354797 0.149170
0.000000 0.245209 0.000000
0.000000 0.245209 0.000000
0.000000 0.245209 0.000000
0.000366 0.246429 0.000000
0.038696 0.260712 0.000000
0.085785 0.274200 0.000000
0.137848 0.285706 0.000000
0.191467 0.294556 0.000000
0.238342 0.294525 0.000000
0.285797 0.294800 0.000000
0.334290 0.295929 0.000000
0.382507 0.297089 0.000000
0.429932 0.298248 0.000000
0.476349 0.299347 0.000000
0.521149 0.300476 0.000000
0.563721 0.301514 0.000000
0.605133 0.302429 0.000000
0.645996 0.303467 0.000000
0.687378 0.304657 0.000000
0.729950 0.305664 0.000000
0.773499 0.306702 0.000000
0.818359 0.307770 0.000000
0.863617 0.308899 0.000000
0.908264 0.309967 0.000000
0.951599 0.310669 0.000000
0.992950 0.311798 0.000000
1.000000 0.321808 0.000000
1.000000 0.334106 0.021118
1.000000 0.346313 0.055878
1.000000 0.358032 0.085571
1.000000 0.368713 0.111023
1.000000 0.377991 0.132202
1.000000 0.385803 0.149170
0.000000 0.282288 0.000000
0.000000 0.282288 0.000000
0.000000 0.282288 0.000000
0.000183 0.282288 0.000000
0.036804 0.294647 0.000000
0.082336 0.308868 0.000000
0.133148 0.321136 0.000000
0.187469 0.333344 0.000000
0.239624 0.339050 0.000000
0.286804 0.339050 0.000000
0.334290 0.339325 0.000000
0.382507 0.340515 0.000000
0.429932 0.341583 0.000000
0.476349 0.342682 0.000000
0.521149 0.343842 0.000000
0.563721 0.344818 0.000000
0.605133 0.346039 0.000000
0.645996 0.346985 0.000000
0.687378 0.348114 0.000000
0.729950 0.349182 0.000000
0.773499 0.350128 0.000000
0.818359 0.351135 0.000000
0.863617 0.352264 0.000000
0.908264 0.353363 0.000000
0.951599 0.354340 0.000000
0.992950 0.355316 0.000000
1.000000 0.362976 0.000000
1.000000 0.372803 0.021118
1.000000 0.382812 0.055878
1.000000 0.392914 0.085571
1.000000 0.401917 0.111023
1.000000 0.410339 0.132202
1.000000 0.417023 0.149170
0.000000 0.319824 0.000000
0.000000 0.319824 0.000000
0.000000 0.319824 0.000000
0.000153 0.319824 0.000000
0.035461 0.328674 0.000000
0.079468 0.343628 0.000000
0.128998 0.357483 0.000000
0.182159 0.369141 0.000000
0.238037 0.380554 0.000000
0.288147 0.383728 0.000000
0.335419 0.383728 0.000000
0.382507 0.383911 0.000000
0.429932 0.385132 0.000000
0.476349 0.386322 0.000000
0.521149 0.387573 0.000000
0.563721 0.388702 0.000000
0.605133 0.389679 0.000000
0.645996 0.390686 0.000000
0.687378 0.391693 0.000000
0.729950 0.392578 0.000000
0.773499 0.393829 0.000000
0.818359 0.395020 0.000000
0.863617 0.395905 0.000000
0.908264 0.397034 0.000000
0.951599 0.398041 0.000000
0.992950 0.398865 0.000000
1.000000 0.404358 0.000000
1.000000 0.411713 0.021118
1.000000 0.419708 0.055878
1.000000 0.427490 0.085571
1.000000 0.435486 0.111023
1.000000 0.442383 0.132202
1.000000 0.448303 0.149170
0.000000 0.357330 0.000000
0.000000 0.357330 0.000000
0.000000 0.357330 0.000000
0.000153 0.357330 0.000000
0.034149 0.362305 0.000000
0.077332 0.377563 0.000000
0.125671 0.391815 0.000000
0.177979 0.405457 0.000000
0.232697 0.417328 0.000000
0.288788 0.427826 0.000000
0.336639 0.428375 0.000000
0.383484 0.428375 0.000000
0.429932 0.428650 0.000000
0.476349 0.430054 0.000000
0.521149 0.431244 0.000000
0.563721 0.432220 0.000000
0.605133 0.433258 0.000000
0.645996 0.434113 0.000000
0.687378 0.435303 0.000000
0.729950 0.436462 0.000000
0.773499 0.437378 0.000000
0.818359 0.438477 0.000000
0.863617 0.439575 0.000000
0.908264 0.440704 0.000000
0.951599 0.441742 0.000000
0.992950 0.442657 0.000000
1.000000 0.445496 0.000000
1.000000 0.450500 0.021118
1.000000 0.456299 0.055878
1.000000 0.462463 0.085571
1.000000 0.468536 0.111023
1.000000 0.474548 0.132202
1.000000 0.479492 0.149170
0.000000 0.394348 0.000000
0.000000 0.394348 0.000000
0.000000 0.394348 0.000000
0.000183 0.394348 0.000000
0.033325 0.395844 0.000000
0.075439 0.411346 0.000000
0.122711 0.426819 0.000000
0.173920 0.440308 0.000000
0.228027 0.453461 0.000000
0.283630 0.464508 0.000000
0.337708 0.472748 0.000000
0.384766 0.472748 0.000000
0.431061 0.472687 0.000000
0.476349 0.473022 0.000000
0.521149 0.474030 0.000000
0.563721 0.475098 0.000000
0.605133 0.476166 0.000000
0.645996 0.477234 0.000000
0.687378 0.478241 0.000000
0.729950 0.479370 0.000000
0.773499 0.480316 0.000000
0.818359 0.481537 0.000000
0.863617 0.482788 0.000000
0.908264 0.483917 0.000000
0.951599 0.484741 0.000000
0.992950 0.485687 0.000000
1.000000 0.486542 0.000000
1.000000 0.488586 0.021118
1.000000 0.492310 0.055878
1.000000 0.496918 0.085571
1.000000 0.501465 0.111023
1.000000 0.506104 0.132202
1.000000 0.509888 0.149170
0.000000 0.430573 0.000000
0.000000 0.430573 0.000000
0.000000 0.430573 0.000000
0.000153 0.430573 0.000000
0.032898 0.430573 0.000000
0.074097 0.443726 0.000000
0.120331 0.459961 0.000000
0.170532 0.474304 0.000000
0.223724 0.488220 0.000000
0.278961 0.500427 0.000000
0.335052 0.511414 0.000000
0.385834 0.515869 0.000000
0.432312 0.515869 0.000000
0.477203 0.515839 0.000000
0.521149 0.516022 0.000000
0.563721 0.517181 0.000000
0.605133 0.518188 0.000000
0.645996 0.519348 0.000000
0.687378 0.520264 0.000000
0.729950 0.521332 0.000000
0.773499 0.522461 0.000000
0.818359 0.523529 0.000000
0.863617 0.524689 0.000000
0.908264 0.525909 0.000000
0.951599 0.526947 0.000000
0.992950 0.527924 0.000000
1.000000 0.526031 0.000000
1.000000 0.526031 0.021118
1.000000 0.527527 0.055878
1.000000 0.530029 0.085571
1.000000 0.533142 0.111023
1.000000 0.536713 0.132202
1.000000 0.539764 0.149170
0.000000 0.464874 0.000000
0.000000 0.464874 0.000000
0.000000 0.464874 0.000000
0.000153 0.464874 0.000000
0.032898 0.464874 0.000000
0.072662 0.475311 0.000000
0.118286 0.490936 0.000000
0.167786 0.505829 0.000000
0.220184 0.520721 0.000000
0.274597 0.533417 0.000000
0.330383 0.545380 0.000000
0.386261 0.556183 0.000000
0.433228 0.557037 0.000000
0.478363 0.557037 0.000000
0.521851 0.557098 0.000000
0.563721 0.557220 0.000000
0.605133 0.558350 0.000000
0.645996 0.559357 0.000000
0.687378 0.560455 0.000000
0.729950 0.561523 0.000000
0.773499 0.562561 0.000000
0.818359 0.563782 0.000000
0.863617 0.564941 0.000000
0.908264 0.566040 0.000000
0.951599 0.566925 0.000000
0.992950 0.568054 0.000000
1.000000 0.563934 0.000000
1.000000 0.561401 0.021118
1.000000 0.560944 0.055878
1.000000 0.562103 0.085571
1.000000 0.563782 0.111023
1.000000 0.565826 0.132202
1.000000 0.567932 0.149170
0.000000 0.498474 0.000000
0.000000 0.498474 0.000000
0.000000 0.498474 0.000000
0.000183 0.498474 0.000000
0.032806 0.498474 0.000000
0.071747 0.505402 0.000000
0.116608 0.521729 0.000000
0.165131 0.537567 0.000000
0.216919 0.551636 0.000000
0.270599 0.565033 0.000000
0.325989 0.578491 0.000000
0.381836 0.589844 0.000000
0.434418 0.596802 0.000000
0.479431 0.596802 0.000000
0.523132 0.596802 0.000000
0.564514 0.596863 0.000000
0.605133 0.597046 0.000000
0.645996 0.598022 0.000000
0.687378 0.599487 0.000000
0.729950 0.600555 0.000000
0.773499 0.601776 0.000000
0.818359 0.602692 0.000000
0.863617 0.603790 0.000000
0.908264 0.605133 0.000000
0.951599 0.606140 0.000000
0.992950 0.607117 0.000000
1.000000 0.601196 0.000000
1.000000 0.595917 0.021118
1.000000 0.593262 0.055878
1.000000 0.592621 0.085571
1.000000 0.593109 0.111023
1.000000 0.594116 0.132202
1.000000 0.595276 0.149170
0.000000 0.531708 0.000000
0.000000 0.531708 0.000000
0.000000 0.531708 0.000000
0.000153 0.531708 0.000000
0.032745 0.531708 0.000000
0.070862 0.535461 0.000000
0.115234 0.551788 0.000000
0.162903 0.568085 0.000000
0.213959 0.582611 0.000000
0.267181 0.597137 0.000000
0.321808 0.609955 0.000000
0.377075 0.621918 0.000000
0.432190 0.632843 0.000000
0.480499 0.636597 0.000000
0.524200 0.636597 0.000000
0.565796 0.636597 0.000000
0.605896 0.636566 0.000000
0.645996 0.636871 0.000000
0.687378 0.638000 0.000000
0.729950 0.639008 0.000000
0.773499 0.640045 0.000000
0.818359 0.641266 0.000000
0.863617 0.642792 0.000000
0.908264 0.643890 0.000000
0.951599 0.644897 0.000000
0.992950 0.645813 0.000000
1.000000 0.637329 0.000000
1.000000 0.630249 0.021118
1.000000 0.625671 0.055878
1.000000 0.623474 0.085571
1.000000 0.622345 0.111023
1.000000 0.622284 0.132202
1.000000 0.622742 0.149170
0.000000 0.565643 0.000000
0.000000 0.565643 0.000000
0.000000 0.565643 0.000000
0.000183 0.565643 0.000000
0.032745 0.565643 0.000000
0.070251 0.565643 0.000000
0.113831 0.582642 0.000000
0.160919 0.599030 0.000000
0.211243 0.614136 0.000000
0.263977 0.629089 0.000000
0.317871 0.641998 0.000000
0.372681 0.655121 0.000000
0.427521 0.666534 0.000000
0.481537 0.677032 0.000000
0.525055 0.677032 0.000000
0.566772 0.677032 0.000000
0.606903 0.677032 0.000000
0.646820 0.677002 0.000000
0.687378 0.677277 0.000000
0.729950 0.678253 0.000000
0.773499 0.679535 0.000000
0.818359 0.680634 0.000000
0.863617 0.681854 0.000000
0.908264 0.682983 0.000000
0.951599 0.684082 0.000000
0.992950 0.685364 0.000000
1.000000 0.674316 0.000000
1.000000 0.664948 0.021118
1.000000 0.658386 0.055878
1.000000 0.654144 0.085571
1.000000 0.651794 0.111023
1.000000 0.650665 0.132202
1.000000 0.650024 0.149170
0.000000 0.600616 0.000000
0.000000 0.600616 0.000000
0.000000 0.600616 0.000000
0.000183 0.600616 0.000000
0.032867 0.600616 0.000000
0.069946 0.600616 0.000000
0.112579 0.613739 0.000000
0.159027 0.630707 0.000000
0.208862 0.646210 0.000000
0.260681 0.662201 0.000000
0.314209 0.675232 0.000000
0.368652 0.688660 0.000000
0.423218 0.701080 0.000000
0.476837 0.712006 0.000000
0.526367 0.718689 0.000000
0.567871 0.718689 0.000000
0.608063 0.718689 0.000000
0.648102 0.718689 0.000000
0.688385 0.718689 0.000000
0.729950 0.718964 0.000000
0.773499 0.719910 0.000000
0.818359 0.721191 0.000000
0.863617 0.722443 0.000000
0.908264 0.723389 0.000000
0.951599 0.724548 0.000000
0.992950 0.725800 0.000000
1.000000 0.712677 0.000000
1.000000 0.700714 0.021118
1.000000 0.692169 0.055878
1.000000 0.686127 0.085571
1.000000 0.682281 0.111023
1.000000 0.679840 0.132202
1.000000 0.678436 0.149170
0.000000 0.636566 0.000000
0.000000 0.636566 0.000000
0.000000 0.636566 0.000000
0.000153 0.636566 0.000000
0.032806 0.636566 0.000000
0.069885 0.636566 0.000000
0.111420 0.646698 0.000000
0.157593 0.662811 0.000000
0.206421 0.679840 0.000000
0.257324 0.696106 0.000000
0.310425 0.710297 0.000000
0.364197 0.723480 0.000000
0.418427 0.736237 0.000000
0.471710 0.746857 0.000000
0.524261 0.758392 0.000000
0.568939 0.761749 0.000000
0.609161 0.761749 0.000000
0.649078 0.761749 0.000000
0.689606 0.761749 0.000000
0.730713 0.761749 0.000000
0.773499 0.762054 0.000000
0.818359 0.763123 0.000000
0.863617 0.764221 0.000000
0.908264 0.765533 0.000000
0.951599 0.766632 0.000000
0.992950 0.767822 0.000000
1.000000 0.752655 0.000000
1.000000 0.737549 0.021118
1.000000 0.726746 0.055878
1.000000 0.719025 0.085571
1.000000 0.713745 0.111023
1.000000 0.710175 0.132202
1.000000 0.707855 0.149170
0.000000 0.674072 0.000000
0.000000 0.674072 0.000000
0.000000 0.674072 0.000000
0.000183 0.674072 0.000000
0.032898 0.674072 0.000000
0.069977 0.674072 0.000000
0.110443 0.680023 0.000000
0.155914 0.697296 0.000000
0.204254 0.714417 0.000000
0.254425 0.730591 0.000000
0.307098 0.744354 0.000000
0.360352 0.759033 0.000000
0.413788 0.771698 0.000000
0.467194 0.783539 0.000000
0.518768 0.795044 0.000000
0.567932 0.803375 0.000000
0.610199 0.806396 0.000000
0.650177 0.806396 0.000000
0.690796 0.806396 0.000000
0.731964 0.806396 0.000000
0.774292 0.806396 0.000000
0.818359 0.806732 0.000000
0.863617 0.807739 0.000000
0.908264 0.808960 0.000000
0.951599 0.810272 0.000000
0.992950 0.811279 0.000000
1.000000 0.793518 0.000000
1.000000 0.776001 0.021118
1.000000 0.762878 0.055878
1.000000 0.753265 0.085571
1.000000 0.746216 0.111023
1.000000 0.741302 0.132202
1.000000 0.737976 0.149170
0.000000 0.712433 0.000000
0.000000 0.712433 0.000000
0.000000 0.712433 0.000000
0.000183 0.712433 0.000000
0.032898 0.712433 0.000000
0.069824 0.712433 0.000000
0.109283 0.715088 0.000000
0.154480 0.732056 0.000000
0.202026 0.748871 0.000000
0.252075 0.764893 0.000000
0.303894 0.780029 0.000000
0.356262 0.794525 0.000000
0.409515 0.808075 0.000000
0.462036 0.819946 0.000000
0.513733 0.832397 0.000000
0.563354 0.843323 0.000000
0.611481 0.852203 0.000000
0.651733 0.852081 0.000000
0.691925 0.852081 0.000000
0.733154 0.852081 0.000000
0.775787 0.852081 0.000000
0.819336 0.852081 0.000000
0.863617 0.852234 0.000000
0.908264 0.853699 0.000000
0.951599 0.854553 0.000000
0.992950 0.855591 0.000000
1.000000 0.835205 0.000000
1.000000 0.815338 0.021118
1.000000 0.799835 0.055878
1.000000 0.787994 0.085571
1.000000 0.779663 0.111023
1.000000 0.773590 0.132202
1.000000 0.768799 0.149170
0.000000 0.750763 0.000000
0.000000 0.750763 0.000000
0.000000 0.750763 0.000000
0.000214 0.750763 0.000000
0.032654 0.750763 0.000000
0.069977 0.750763 0.000000
0.108673 0.750763 0.000000
0.153137 0.766632 0.000000
0.200043 0.783783 0.000000
0.249481 0.800079 0.000000
0.300781 0.816315 0.000000
0.352875 0.830200 0.000000
0.405518 0.845123 0.000000
0.457642 0.857971 0.000000
0.509003 0.870178 0.000000
0.558197 0.880707 0.000000
0.605835 0.889252 0.000000
0.652588 0.897705 0.000000
0.693146 0.897705 0.000000
0.734467 0.897705 0.000000
0.776642 0.897705 0.000000
0.820526 0.897705 0.000000
0.864624 0.897705 0.000000
0.908264 0.897827 0.000000
0.951599 0.899170 0.000000
0.992950 0.900238 0.000000
1.000000 0.877045 0.000000
1.000000 0.854218 0.021118
1.000000 0.836639 0.055878
1.000000 0.823090 0.085571
1.000000 0.812714 0.111023
1.000000 0.805023 0.132202
1.000000 0.799927 0.149170
0.000000 0.787964 0.000000
0.000000 0.787964 0.000000
0.000000 0.787964 0.000000
0.000183 0.787964 0.000000
0.032990 0.787964 0.000000
0.069916 0.787964 0.000000
0.108551 0.787964 0.000000
0.151764 0.800354 0.000000
0.198730 0.817719 0.000000
0.247314 0.834869 0.000000
0.298157 0.850708 0.000000
0.349670 0.865814 0.000000
0.401733 0.880310 0.000000
0.453369 0.892395 0.000000
0.504425 0.905823 0.000000
0.553406 0.917084 0.000000
0.601166 0.926697 0.000000
0.649231 0.937073 0.000000
0.694336 0.942352 0.000000
0.735413 0.942352 0.000000
0.778198 0.942352 0.000000
0.821686 0.942352 0.000000
0.865875 0.942352 0.000000
0.909363 0.942352 0.000000
0.951599 0.942688 0.000000
0.992950 0.943481 0.000000
1.000000 0.917938 0.000000
1.000000 0.892426 0.021118
1.000000 0.872253 0.055878
1.000000 0.856781 0.085571
1.000000 0.845154 0.111023
1.000000 0.836548 0.132202
1.000000 0.829956 0.149170
0.000000 0.824066 0.000000
0.000000 0.824066 0.000000
0.000000 0.824066 0.000000
0.000275 0.824066 0.000000
0.032867 0.824066 0.000000
0.069885 0.824066 0.000000
0.108795 0.824066 0.000000
0.151001 0.832855 0.000000
0.197144 0.850159 0.000000
0.245819 0.866516 0.000000
0.295471 0.884888 0.000000
0.346802 0.900635 0.000000
0.398560 0.914398 0.000000
0.449707 0.927673 0.000000
0.500549 0.940216 0.000000
0.548615 0.951050 0.000000
0.596680 0.962738 0.000000
0.643402 0.971222 0.000000
0.692535 0.982025 0.000000
0.736450 0.985321 0.000000
0.779083 0.985321 0.000000
0.822723 0.985321 0.000000
0.866791 0.985321 0.000000
0.910309 0.985321 0.000000
0.952454 0.985321 0.000000
0.992950 0.985565 0.000000
1.000000 0.957397 0.000000
1.000000 0.929230 0.021118
1.000000 0.906952 0.055878
1.000000 0.889862 0.085571
1.000000 0.876251 0.111023
1.000000 0.866302 0.132202
1.000000 0.858978 0.149170
0.000000 0.857971 0.000000
0.000000 0.857971 0.000000
0.000000 0.857971 0.000000
0.000214 0.857971 0.000000
0.032745 0.857971 0.000000
0.069916 0.857971 0.000000
0.108673 0.857971 0.000000
0.150177 0.863556 0.000000
0.195984 0.880920 0.000000
0.243774 0.898224 0.000000
0.293732 0.914246 0.000000
0.344147 0.931152 0.000000
0.395477 0.945801 0.000000
0.446350 0.959564 0.000000
0.496399 0.971497 0.000000
0.544830 0.984497 0.000000
0.592224 0.995667 0.000000
0.637726 1.000000 0.000000
0.681396 1.000000 0.000000
0.725586 1.000000 0.000000
0.766327 1.000000 0.000000
0.807831 1.000000 0.000000
