src/assets/luts/大师配方/大师·瞰.cube
#Created by: Adobe Photoshop Export Color Lookup Plugin
#Copyright: (C) Copyright 2026 aaa
TITLE "HG224大师滤镜.psd"
#LUT size
LUT_3D_SIZE 5
#data domain
DOMAIN_MIN 0.0 0.0 0.0
DOMAIN_MAX 1.0 1.0 1.0
#LUT data points
0.000000 0.000000 0.000000
0.342438 0.033112 0.000000
0.728210 0.068481 0.000000
1.000000 0.230652 0.141815
1.000000 0.457031 0.414520
0.000000 0.237976 0.027069
0.253662 0.318359 0.007965
0.711426 0.470520 0.000000
1.000000 0.528320 0.166473
1.000000 0.616791 0.424255
0.000000 0.494446 0.106201
0.136444 0.589691 0.000000
0.539490 0.661438 0.073181
1.000000 0.849396 0.178009
1.000000 0.804688 0.456757
0.000000 0.780701 0.186127
0.050354 0.825165 0.000000
0.396271 0.973236 0.048859
0.851746 1.000000 0.158691
1.000000 0.988342 0.473083
0.000000 1.000000 0.250793
0.000000 1.000000 0.000000
0.367828 1.000000 0.190491
0.692932 1.000000 0.395416
0.902771 1.000000 0.473083
0.019226 0.045105 0.273041
0.221527 0.000000 0.246552
0.600403 0.000000 0.282928
1.000000 0.114319 0.338470
1.000000 0.391876 0.505371
0.000000 0.237976 0.246552
0.221527 0.237976 0.246552
0.642120 0.251801 0.211517
1.000000 0.361511 0.303131
1.000000 0.595062 0.569214
0.000000 0.494446 0.318329
0.192322 0.525909 0.299011
0.505554 0.578400 0.300873
1.000000 0.736298 0.311371
1.000000 0.766541 0.584564
0.000000 0.780701 0.429688
0.160828 0.847717 0.355255
0.367340 0.886719 0.254395
0.829315 0.959503 0.358795
1.000000 0.960968 0.611603
0.000000 1.000000 0.514954
0.221527 1.000000 0.450500
0.330231 1.000000 0.305054
0.704712 1.000000 0.519104
0.926666 1.000000 0.612183
0.040924 0.093719 0.565674
0.218658 0.000000 0.570435
0.471130 0.000000 0.515717
0.829590 0.000000 0.547211
1.000000 0.217072 0.594940
0.000000 0.289307 0.566101
0.246613 0.289276 0.540955
0.502106 0.207520 0.547089
1.000000 0.168579 0.548676
1.000000 0.520294 0.665497
0.000000 0.494446 0.515717
0.192322 0.525909 0.547089
0.471130 0.494446 0.515717
0.947174 0.509674 0.479980
1.000000 0.736969 0.722717
0.000000 0.780701 0.560638
0.160828 0.847717 0.606934
0.437439 0.815582 0.569427
0.793640 0.873688 0.571075
1.000000 0.930603 0.745758
0.000000 1.000000 0.650421
0.221527 1.000000 0.681000
0.471130 1.000000 0.645447
0.708679 1.000000 0.635529
0.950958 1.000000 0.750824
0.065582 0.147858 0.869293
0.217041 0.054108 0.871521
0.475464 0.000000 0.830780
0.754913 0.000000 0.794952
1.000000 0.000000 0.795044
0.041107 0.366699 0.872314
0.274139 0.345764 0.845490
0.466766 0.241241 0.851074
0.821960 0.174530 0.858215
1.000000 0.268005 0.798431
0.000000 0.530212 0.824524
0.219635 0.553314 0.851593
0.499908 0.551880 0.821289
0.789825 0.460236 0.827911
1.000000 0.590607 0.821350
0.000000 0.780701 0.794952
0.160828 0.847717 0.858215
0.437439 0.815582 0.827911
0.754913 0.780701 0.794952
1.000000 0.892792 0.886963
0.000000 1.000000 0.795044
0.221527 1.000000 0.818787
0.471130 1.000000 0.848877
0.754913 1.000000 0.852295
0.977570 1.000000 0.899475
0.177124 0.272308 1.000000
0.290497 0.191742 1.000000
0.476990 0.098816 1.000000
0.755035 0.000000 1.000000
1.000000 0.000000 1.000000
0.174225 0.470825 1.000000
0.370239 0.453705 1.000000
0.504700 0.369659 1.000000
0.751251 0.258392 1.000000
1.000000 0.237976 1.000000
0.081757 0.591278 1.000000
0.342072 0.633423 1.000000
0.574524 0.641449 1.000000
0.755005 0.540161 1.000000
1.000000 0.494446 1.000000
0.000000 0.780823 1.000000
0.235260 0.792511 1.000000
0.511871 0.819183 1.000000
0.803528 0.848785 1.000000
1.000000 0.780701 1.000000
0.000000 1.000000 1.000000
0.221527 1.000000 1.000000
0.471130 1.000000 1.000000
0.754913 1.000000 1.000000
1.000000 1.000000 1.000000
