src/assets/luts/大师配方/大师·韵.cube
#Created by: Adobe Photoshop Export Color Lookup Plugin
#Copyright: (C) Copyright 2026 aaa
TITLE "HG224大师滤镜.psd"
#LUT size
LUT_3D_SIZE 5
#data domain
DOMAIN_MIN 0.0 0.0 0.0
DOMAIN_MAX 1.0 1.0 1.0
#LUT data points
0.083069 0.116394 0.083069
0.264618 0.114227 0.075592
0.595581 0.080078 0.015015
0.899170 0.022339 0.022339
1.000000 0.072632 0.072632
0.044617 0.272644 0.044617
0.259552 0.289154 0.058655
0.589203 0.295654 0.036377
0.896759 0.265961 0.025940
1.000000 0.270294 0.070923
0.000000 0.551331 0.000000
0.206818 0.561523 0.012451
0.571777 0.588226 0.065521
0.878815 0.606018 0.084106
1.000000 0.603180 0.109406
0.000000 0.811951 0.000000
0.073669 0.811310 0.000000
0.558807 0.859039 0.069702
0.862305 0.865875 0.096466
1.000000 0.869293 0.125214
0.000000 0.941071 0.000000
0.000000 0.940552 0.000000
0.531494 0.982025 0.056091
0.862823 1.000000 0.119415
1.000000 1.000000 0.115326
0.077728 0.112366 0.251434
0.248993 0.102814 0.248993
0.580872 0.065369 0.247986
0.899384 0.021118 0.231903
1.000000 0.072662 0.239746
0.044617 0.272644 0.192871
0.236450 0.270416 0.236450
0.573425 0.260742 0.224548
0.881592 0.236298 0.192932
1.000000 0.245636 0.198669
0.000000 0.551331 0.174042
0.179962 0.552002 0.179962
0.560577 0.577423 0.204529
0.872314 0.592987 0.174713
1.000000 0.595673 0.149384
0.000000 0.811951 0.082672
0.018982 0.812012 0.018982
0.555298 0.859894 0.068268
0.863007 0.866577 0.096527
1.000000 0.868469 0.125488
0.000000 0.941071 0.000000
0.000000 0.940826 0.000000
0.526459 0.982422 0.054199
0.862030 1.000000 0.119690
1.000000 1.000000 0.115540
0.075897 0.110260 0.551544
0.244141 0.099792 0.550781
0.545349 0.054443 0.545349
0.837067 0.002808 0.543762
0.993469 0.006775 0.548767
0.043732 0.315399 0.548401
0.226288 0.259033 0.549408
0.544220 0.242065 0.544220
0.847809 0.218140 0.544189
1.000000 0.200958 0.545258
0.000000 0.551331 0.414978
0.179962 0.552002 0.454102
0.526306 0.545258 0.526306
0.841919 0.539795 0.520569
0.992004 0.532806 0.513031
0.000000 0.811951 0.378632
0.018982 0.812012 0.382385
0.484711 0.810516 0.484711
0.826813 0.830627 0.512207
0.976410 0.837524 0.519897
0.000000 0.941071 0.382538
0.000000 0.940826 0.379456
0.460541 0.938995 0.460541
0.824097 0.968994 0.499054
0.969543 0.969543 0.497498
0.075684 0.110046 0.832458
0.243378 0.099396 0.831940
0.543793 0.054138 0.828796
0.822906 0.000000 0.822906
0.957733 0.000000 0.818390
0.043579 0.285889 0.830627
0.223724 0.256195 0.830902
0.537720 0.238861 0.827942
0.821991 0.209106 0.821991
0.956635 0.186523 0.816010
0.000000 0.702545 0.822632
0.178101 0.639435 0.822815
0.513153 0.531708 0.821899
0.815735 0.519989 0.815735
0.956604 0.514435 0.810425
0.000000 0.811951 0.632355
0.018982 0.812012 0.636597
0.484711 0.810516 0.736053
0.797974 0.801941 0.797974
0.951294 0.801300 0.797241
0.000000 0.941071 0.594147
0.000000 0.940826 0.592834
0.460541 0.938995 0.701050
0.782410 0.933899 0.782410
0.942474 0.942474 0.796234
0.075623 0.109863 0.968872
0.243164 0.099304 0.968414
0.543335 0.054077 0.965820
0.822357 0.000000 0.961029
0.957764 0.000000 0.957764
0.043549 0.271790 0.967377
0.223206 0.255737 0.967285
0.536407 0.238190 0.964813
0.819977 0.208496 0.959961
0.956635 0.185181 0.956635
0.000000 0.688019 0.960846
0.177643 0.624054 0.960724
0.509216 0.527557 0.959412
0.809479 0.515869 0.954468
0.951050 0.508209 0.951050
0.000000 0.949188 0.881073
0.018921 0.948975 0.886078
0.481079 0.896027 0.947357
0.793121 0.797058 0.942413
0.938904 0.792694 0.938904
0.000000 0.941071 0.737274
0.000000 0.940826 0.737091
0.460541 0.938995 0.835388
0.782410 0.933899 0.901093
0.929413 0.929413 0.929413
