src/assets/luts/大师配方/大师·真.cube
#Created by: Adobe Photoshop Export Color Lookup Plugin
#Copyright: (C) Copyright 2025 aaa
TITLE "通用-鲜明人像提亮.psd"
#LUT size
LUT_3D_SIZE 8
#data domain
#LUT data points
DOMAIN_MIN 0.000000 0.000000 0.000000
DOMAIN_MAX 0.903226 0.903226 0.903226
0.000000 0.000000 0.000000
0.241455 0.022675 0.022675
0.467896 0.043976 0.043976
0.659210 0.061951 0.061951
0.815552 0.076630 0.076630
0.945251 0.088806 0.088806
1.000000 0.138794 0.138794
1.000000 0.199951 0.199951
0.000000 0.210907 0.000000
0.221222 0.221222 0.048553
0.456543 0.240845 0.065277
0.652679 0.226105 0.065186
0.811340 0.203644 0.076202
0.942413 0.156921 0.088531
1.000000 0.136841 0.136841
1.000000 0.198883 0.198883
0.000000 0.409637 0.000000
0.180756 0.419128 0.025604
0.430542 0.430542 0.094482
0.630890 0.460815 0.124237
0.795410 0.467194 0.125916
0.931427 0.460266 0.125610
1.000000 0.452942 0.155090
1.000000 0.457245 0.210815
0.000000 0.578339 0.000000
0.072144 0.575958 0.000000
0.432495 0.611511 0.104736
0.608551 0.608551 0.133606
0.776093 0.637238 0.170349
0.916412 0.649994 0.175049
1.000000 0.647003 0.194977
1.000000 0.639923 0.255096
0.000000 0.718658 0.000000
0.000000 0.717041 0.000000
0.381866 0.745300 0.067139
0.622711 0.765686 0.168091
0.758514 0.758514 0.166504
0.902039 0.783081 0.197998
1.000000 0.793213 0.224396
1.000000 0.772949 0.288452
0.000000 0.837524 0.000000
0.000000 0.836395 0.000000
0.303711 0.850525 0.029816
0.594696 0.885773 0.137787
0.770416 0.893311 0.196106
0.887207 0.887207 0.194763
0.998383 0.906128 0.219177
1.000000 0.873932 0.298431
0.000000 0.928009 0.000000
0.000000 0.927277 0.000000
0.203796 0.925446 0.000000
0.545532 0.971039 0.106537
0.764984 0.993164 0.201111
0.896332 0.991760 0.217712
0.987152 0.987152 0.216705
1.000000 0.949707 0.289764
0.000000 0.983704 0.000000
0.000000 0.983215 0.000000
0.094696 0.982025 0.000000
0.495239 1.000000 0.101074
0.724640 1.000000 0.227448
0.862213 1.000000 0.288361
0.947449 1.000000 0.284698
1.000000 1.000000 0.281128
0.000000 0.000000 0.226196
0.220123 0.000000 0.220123
0.449768 0.020233 0.226288
0.652466 0.052185 0.234070
0.815552 0.076630 0.227081
0.945251 0.088806 0.191681
1.000000 0.138794 0.143829
1.000000 0.199951 0.199951
0.000000 0.210907 0.210907
0.204407 0.204407 0.204407
0.448883 0.198334 0.198334
0.646667 0.178986 0.178986
0.808563 0.142395 0.142395
0.944946 0.088776 0.088776
1.000000 0.138214 0.138214
1.000000 0.199402 0.199402
0.000000 0.409637 0.168304
0.114746 0.414032 0.114746
0.431366 0.431366 0.156494
0.633545 0.452362 0.151947
0.799805 0.456177 0.123138
0.934296 0.443542 0.121460
1.000000 0.433746 0.151947
1.000000 0.436462 0.205963
0.000000 0.578339 0.087128
0.000000 0.581940 0.000000
0.422058 0.615845 0.099457
0.614166 0.614166 0.134827
0.779907 0.636200 0.171204
0.918915 0.644287 0.173492
1.000000 0.638336 0.194000
1.000000 0.630280 0.252869
0.000000 0.718658 0.000000
0.000000 0.720856 0.000000
0.359222 0.746155 0.058258
0.620544 0.769531 0.168915
0.762115 0.762115 0.167297
0.904236 0.782257 0.198486
1.000000 0.789307 0.224640
1.000000 0.768280 0.287476
0.000000 0.837524 0.000000
0.000000 0.838501 0.000000
0.270050 0.846710 0.019379
0.584229 0.887238 0.132294
0.769287 0.895355 0.196564
0.889191 0.889191 0.195190
0.999390 0.905304 0.219391
1.000000 0.871979 0.298889
0.000000 0.928009 0.000000
0.000000 0.928253 0.000000
0.164886 0.926422 0.000000
0.529297 0.971008 0.099091
0.758972 0.993286 0.198151
0.895447 0.992676 0.217896
0.987976 0.987976 0.216888
1.000000 0.949066 0.290192
0.000000 0.983704 0.000000
0.000000 0.983582 0.000000
0.000000 0.982391 0.000000
0.475159 1.000000 0.091400
0.716675 1.000000 0.222687
0.859711 1.000000 0.288757
0.946594 1.000000 0.285034
1.000000 1.000000 0.281403
0.000000 0.000000 0.437714
0.220123 0.000000 0.434509
0.426575 0.000000 0.426575
0.606750 0.004425 0.421173
0.775696 0.025208 0.431610
0.913910 0.046478 0.435089
1.000000 0.081207 0.435852
1.000000 0.154907 0.448090
0.000000 0.210876 0.429749
0.176605 0.176605 0.436646
0.427612 0.154297 0.427612
0.617432 0.137115 0.417725
0.782593 0.102478 0.419800
0.918945 0.050507 0.416229
1.000000 0.091431 0.416626
1.000000 0.166382 0.430756
0.000000 0.409637 0.409637
0.114746 0.414032 0.414032
0.397797 0.397797 0.397797
0.608154 0.399658 0.399658
0.774384 0.390015 0.390015
0.910034 0.373810 0.373810
1.000000 0.362335 0.362335
1.000000 0.398254 0.398254
0.000000 0.578339 0.381378
0.000000 0.581940 0.369690
0.328552 0.581146 0.328552
0.593170 0.593170 0.373352
0.758942 0.601929 0.391876
0.900909 0.597900 0.365936
1.000000 0.589233 0.341766
1.000000 0.597168 0.374512
0.000000 0.718658 0.344940
0.000000 0.720856 0.324524
0.265137 0.722137 0.265137
0.571167 0.746857 0.318237
0.748932 0.748932 0.336060
0.890045 0.763458 0.358826
0.998047 0.770081 0.335846
1.000000 0.756104 0.360809
0.000000 0.837524 0.294861
0.000000 0.838501 0.266327
0.181366 0.839386 0.181366
0.526123 0.867249 0.220367
0.756073 0.889679 0.282928
0.890045 0.890045 0.217987
1.000000 0.902985 0.220947
1.000000 0.868683 0.299652
0.000000 0.928009 0.225433
0.000000 0.928253 0.183807
0.000000 0.928253 0.000000
0.490540 0.967834 0.084412
0.744720 0.993530 0.191101
0.893005 0.994385 0.218292
0.989532 0.989532 0.217224
1.000000 0.947388 0.290955
0.000000 0.983704 0.133057
0.000000 0.983582 0.042267
0.000000 0.983093 0.000000
0.425964 1.000000 0.068054
0.697876 1.000000 0.211761
0.853943 1.000000 0.289520
0.944885 1.000000 0.285706
1.000000 1.000000 0.282013
0.000000 0.000000 0.615692
0.220184 0.000000 0.613495
0.426605 0.000000 0.608185
0.600983 0.000000 0.600983
0.743530 0.000000 0.592316
0.873260 0.009125 0.592041
0.978821 0.021515 0.595062
1.000000 0.071167 0.587952
0.000000 0.210846 0.610321
0.170349 0.170349 0.615753
0.413757 0.148682 0.610107
0.602417 0.114471 0.602417
0.743958 0.062897 0.585663
0.876282 0.010223 0.583435
0.979919 0.025482 0.583313
1.000000 0.077179 0.575775
0.000000 0.409607 0.596863
0.110260 0.400574 0.601624
0.367371 0.367371 0.603485
0.594604 0.352142 0.594604
0.753326 0.350342 0.580353
0.893890 0.342865 0.578949
0.997375 0.326050 0.572876
1.000000 0.362762 0.582123
0.000000 0.578339 0.578339
0.000000 0.581940 0.581940
0.328552 0.581146 0.581146
0.562256 0.562256 0.562256
0.738678 0.565552 0.565552
0.880432 0.558105 0.558105
0.983948 0.543915 0.543915
1.000000 0.573334 0.573334
0.000000 0.718658 0.555145
0.000000 0.720856 0.549957
0.265137 0.722137 0.532898
0.504425 0.717010 0.504425
0.726990 0.726990 0.542755
0.867798 0.733795 0.560486
0.976624 0.729034 0.539703
1.000000 0.729462 0.561157
0.000000 0.837524 0.525085
0.000000 0.838501 0.514252
0.181366 0.839386 0.486115
0.447510 0.837585 0.447510
0.703491 0.857697 0.492798
0.860046 0.860046 0.513062
0.967987 0.868896 0.534760
1.000000 0.860016 0.564270
0.000000 0.928009 0.488251
0.000000 0.928253 0.473419
0.000000 0.928253 0.436707
0.388702 0.927216 0.388702
0.658356 0.947357 0.421722
0.860504 0.966644 0.487885
0.963623 0.963623 0.468658
1.000000 0.944366 0.499298
0.000000 0.983704 0.451019
0.000000 0.983582 0.433197
0.000000 0.983093 0.389313
0.331909 0.982086 0.331909
0.619934 1.000000 0.361725
0.836761 1.000000 0.465576
0.941620 1.000000 0.464966
1.000000 1.000000 0.440948
0.000000 0.000000 0.759399
0.220184 0.000000 0.757904
0.426514 0.000000 0.754303
0.601044 0.000000 0.749420
0.743530 0.000000 0.743530
0.861755 0.000000 0.736145
0.949036 0.000000 0.727753
1.000000 0.005981 0.721161
0.000000 0.210876 0.755737
0.167786 0.167786 0.759186
0.408081 0.146393 0.755432
0.594635 0.112549 0.750336
0.744202 0.054535 0.744202
0.861633 0.000000 0.732056
0.948608 0.000000 0.720490
1.000000 0.009094 0.713318
0.000000 0.409607 0.746643
0.108459 0.395142 0.749786
0.353699 0.353699 0.753387
0.573639 0.339020 0.747803
0.741058 0.320709 0.741058
0.858948 0.302734 0.720154
0.961609 0.284363 0.717407
1.000000 0.284607 0.708496
0.000000 0.578400 0.734161
0.000000 0.574463 0.736908
0.316223 0.560486 0.739471
0.536041 0.536041 0.735992
0.728455 0.523529 0.728455
0.863861 0.522369 0.715546
0.970306 0.515991 0.712646
1.000000 0.537689 0.714447
0.000000 0.718658 0.718658
0.000000 0.720856 0.720856
0.265137 0.722137 0.722137
0.504425 0.717010 0.717010
0.700806 0.700806 0.700806
0.850861 0.704224 0.704224
0.959137 0.698792 0.698792
1.000000 0.712189 0.712189
0.000000 0.837524 0.698883
0.000000 0.838501 0.695618
0.181366 0.839386 0.686462
0.447510 0.837585 0.672272
0.654663 0.832031 0.654663
0.840454 0.840454 0.686646
0.948914 0.846863 0.701599
1.000000 0.845184 0.704926
0.000000 0.928009 0.674927
0.000000 0.928253 0.668304
0.000000 0.928253 0.651764
0.388702 0.927216 0.630096
0.607697 0.924622 0.607697
0.824097 0.942108 0.647522
0.943268 0.943268 0.661072
1.000000 0.941010 0.683380
0.000000 0.983704 0.651093
0.000000 0.983582 0.642120
0.000000 0.983093 0.620209
0.331909 0.982086 0.593018
0.566376 0.980438 0.566376
0.793976 0.998840 0.598328
0.936462 1.000000 0.652924
1.000000 1.000000 0.639160
0.000000 0.000000 0.876892
0.220062 0.000000 0.875946
0.426575 0.000000 0.873596
0.600952 0.000000 0.870392
0.743622 0.000000 0.866547
0.861755 0.000000 0.861755
0.949036 0.000000 0.856110
1.000000 0.000000 0.850830
0.000000 0.210938 0.874512
0.166382 0.166382 0.876312
0.405090 0.145142 0.873901
0.590424 0.111542 0.870636
0.739471 0.053894 0.866669
0.861725 0.000000 0.861725
0.948608 0.000000 0.853424
0.999573 0.000000 0.846313
0.000000 0.409668 0.868561
0.107452 0.392181 0.870239
0.345978 0.345978 0.872711
0.561707 0.331604 0.869232
0.727570 0.313629 0.865021
0.859772 0.290344 0.859772
0.946655 0.266815 0.845917
0.997986 0.238708 0.835785
0.000000 0.578308 0.860443
0.000000 0.570282 0.861969
0.309265 0.548706 0.864014
0.518677 0.518677 0.863770
0.708008 0.506470 0.859222
0.853546 0.491089 0.853546
0.942322 0.478729 0.835266
1.000000 0.467804 0.828766
0.000000 0.718750 0.850372
0.000000 0.716309 0.851685
0.259186 0.708771 0.853210
0.487854 0.696594 0.852325
0.681030 0.681030 0.847626
0.841431 0.670563 0.841431
0.944183 0.667847 0.831055
1.000000 0.672729 0.829010
0.000000 0.837524 0.837524
0.000000 0.838501 0.838501
0.181366 0.839386 0.839386
0.447510 0.837585 0.837585
0.654663 0.832031 0.832031
0.819702 0.819702 0.819702
0.934937 0.822693 0.822693
1.000000 0.822144 0.822144
0.000000 0.928009 0.822205
0.000000 0.928253 0.820160
0.000000 0.928253 0.814484
0.388702 0.927216 0.806641
0.607697 0.924622 0.797424
0.787903 0.919800 0.787903
0.926147 0.926147 0.811737
0.994812 0.931702 0.822144
0.000000 0.983704 0.806946
0.000000 0.983582 0.802765
0.000000 0.983093 0.792999
0.331909 0.982086 0.780823
0.566376 0.980438 0.768341
0.758179 0.977905 0.758179
0.919189 0.990936 0.790375
0.990906 0.990906 0.795624
0.000000 0.000000 0.961700
0.220093 0.000000 0.961151
0.426666 0.000000 0.959717
0.600922 0.000000 0.957733
0.743591 0.000000 0.955383
0.861725 0.000000 0.952423
0.949036 0.000000 0.949036
1.000000 0.000000 0.945801
0.000000 0.210999 0.960266
0.165558 0.165558 0.960999
0.403290 0.144409 0.959503
0.587982 0.110992 0.957520
0.736786 0.053497 0.955139
0.859131 0.000000 0.952118
0.948639 0.000000 0.948639
0.999573 0.000000 0.943939
0.000000 0.409668 0.956665
0.106812 0.390442 0.957306
0.341309 0.341309 0.958374
0.554443 0.327087 0.956268
0.719330 0.309357 0.953735
0.851654 0.286346 0.950592
0.946930 0.257904 0.946930
0.998077 0.232452 0.939392
0.000000 0.578278 0.951660
0.000000 0.567719 0.952240
0.305054 0.541595 0.953156
0.507660 0.507660 0.953186
0.694763 0.495636 0.950500
0.840515 0.480591 0.947113
0.943237 0.462982 0.943237
0.995392 0.450653 0.933014
0.000000 0.718567 0.945465
0.000000 0.713379 0.945953
0.255585 0.700470 0.946625
0.477448 0.683533 0.946411
0.665680 0.665680 0.944702
0.825867 0.655273 0.941071
0.936890 0.643188 0.936890
0.991333 0.635162 0.925079
0.000000 0.837494 0.937500
0.000000 0.835785 0.937927
0.178741 0.831116 0.938293
0.437927 0.824493 0.937714
0.639496 0.816406 0.935608
0.807556 0.807556 0.931183
0.926666 0.799774 0.926666
0.989655 0.796112 0.919769
0.000000 0.928009 0.928009
0.000000 0.928253 0.928253
0.000000 0.928253 0.928253
0.388702 0.927216 0.927216
0.607697 0.924622 0.924622
0.787903 0.919800 0.919800
0.912048 0.912048 0.912048
0.984467 0.914246 0.914246
0.000000 0.983704 0.918610
0.000000 0.983582 0.917297
0.000000 0.983093 0.913971
0.331909 0.982086 0.909546
0.566376 0.980438 0.904510
0.758179 0.977905 0.899323
0.895294 0.974396 0.895294
0.978119 0.978119 0.909668
0.000000 0.000000 1.000000
0.220215 0.000000 1.000000
0.426514 0.000000 1.000000
0.601074 0.000000 1.000000
0.743652 0.000000 1.000000
0.861816 0.000000 1.000000
0.948975 0.000000 1.000000
1.000000 0.000000 1.000000
0.000000 0.210938 1.000000
0.165070 0.165070 1.000000
0.402100 0.144012 1.000000
0.586578 0.110626 1.000000
0.735138 0.053284 1.000000
0.857666 0.000000 1.000000
0.947266 0.000000 1.000000
0.999603 0.000000 0.999603
0.000000 0.409668 1.000000
0.106476 0.389404 1.000000
0.338562 0.338562 1.000000
0.550110 0.324493 1.000000
0.714539 0.306885 1.000000
0.847046 0.284027 1.000000
0.942963 0.255798 1.000000
0.998169 0.226257 0.998169
0.000000 0.578369 1.000000
0.000000 0.566406 1.000000
0.302582 0.537384 1.000000
0.501099 0.501099 1.000000
0.686890 0.489258 1.000000
0.832672 0.474426 1.000000
0.936432 0.457031 0.997833
0.995636 0.440094 0.995636
0.000000 0.718689 0.999908
0.000000 0.711914 1.000000
0.253510 0.695831 1.000000
0.471252 0.675751 0.999725
0.655884 0.655884 0.998779
0.815826 0.645599 0.996674
0.928253 0.633606 0.994202
0.991852 0.622009 0.991852
0.000000 0.837494 0.995178
0.000000 0.834381 0.995239
0.177185 0.826385 0.995117
0.432251 0.816559 0.994629
0.629944 0.806305 0.993469
0.797638 0.797638 0.991364
0.917908 0.789825 0.988708
0.986145 0.782257 0.986145
0.000000 0.928101 0.989471
0.000000 0.926880 0.989441
0.000000 0.923950 0.989166
0.383667 0.920197 0.988403
0.598389 0.915649 0.987000
0.777924 0.910919 0.984650
0.906921 0.906921 0.981262
0.978546 0.902283 0.978546
0.000000 0.983704 0.983704
0.000000 0.983582 0.983582
0.000000 0.983093 0.983093
0.331909 0.982086 0.982086
0.566376 0.980438 0.980438
0.758179 0.977905 0.977905
0.895294 0.974396 0.974396
0.970581 0.970581 0.970581
