src/assets/luts/大师配方/大师·绮.cube
#Created by: Adobe Photoshop Export Color Lookup Plugin
#Copyright: (C) Copyright 2026 aaa
TITLE "HG224大师滤镜.psd"
#LUT size
LUT_3D_SIZE 9
#data domain
DOMAIN_MIN 0.0 0.0 0.0
DOMAIN_MAX 1.0 1.0 1.0
#LUT data points
0.000000 0.000000 0.024506
0.147552 0.000000 0.031647
0.302826 0.000000 0.030487
0.461456 0.000000 0.030121
0.620941 0.000000 0.030090
0.774139 0.000000 0.030182
0.869598 0.045959 0.070984
0.934814 0.104431 0.131470
1.000000 0.139038 0.168121
0.000000 0.149658 0.024506
0.145477 0.181671 0.025482
0.313446 0.177521 0.023468
0.475769 0.165680 0.014557
0.638367 0.154907 0.006439
0.798248 0.146820 0.000000
0.869598 0.193878 0.070282
0.934814 0.233276 0.131470
1.000000 0.258240 0.168121
0.000000 0.289917 0.024506
0.126434 0.345490 0.000000
0.312347 0.354767 0.023163
0.489166 0.352753 0.023224
0.655060 0.339294 0.011719
0.804413 0.328674 0.011017
0.869598 0.345825 0.083557
0.934814 0.365875 0.141205
1.000000 0.380676 0.175598
0.000000 0.426971 0.024506
0.115204 0.466553 0.000000
0.302338 0.521362 0.007538
0.485870 0.523193 0.021240
0.665955 0.521759 0.023163
0.804413 0.503815 0.033264
0.869598 0.493866 0.106537
0.934814 0.499573 0.163239
1.000000 0.506958 0.197266
0.000000 0.561035 0.024475
0.108795 0.586609 0.000000
0.281403 0.645203 0.000000
0.482025 0.687317 0.019592
0.662170 0.687317 0.019592
0.804413 0.664948 0.048737
0.869598 0.632172 0.128815
0.934814 0.625031 0.184692
1.000000 0.625641 0.218414
0.000000 0.688202 0.024506
0.107300 0.712708 0.000000
0.268707 0.757782 0.000000
0.459869 0.804413 0.014313
0.639801 0.804413 0.055206
0.796539 0.804413 0.055206
0.869598 0.756042 0.135071
0.934814 0.739044 0.200439
1.000000 0.734497 0.237549
0.000000 0.805603 0.024475
0.106567 0.830109 0.000000
0.260956 0.863617 0.000000
0.446838 0.869598 0.053741
0.612549 0.869598 0.119659
0.747742 0.869598 0.135071
0.869598 0.869598 0.135071
0.934814 0.841309 0.200439
1.000000 0.831268 0.239807
0.000000 0.910492 0.024506
0.106384 0.934814 0.000183
0.268982 0.934814 0.025024
0.441711 0.934814 0.094147
0.597687 0.934814 0.157776
0.727997 0.934814 0.200439
0.836273 0.934814 0.200439
0.934814 0.934814 0.200439
1.000000 0.920227 0.239807
0.000000 1.000000 0.024536
0.126495 1.000000 0.024506
0.275330 1.000000 0.051147
0.442322 1.000000 0.118286
0.593079 1.000000 0.180908
0.722473 1.000000 0.236633
0.824524 1.000000 0.239807
0.917633 1.000000 0.239807
1.000000 1.000000 0.239807
0.000000 0.000000 0.175598
0.126495 0.000000 0.175598
0.280273 0.000000 0.190369
0.448914 0.000000 0.199768
0.618134 0.000000 0.203491
0.774139 0.000000 0.203156
0.869598 0.045959 0.224030
0.934814 0.104431 0.264221
1.000000 0.139038 0.290741
0.000000 0.149628 0.175598
0.116119 0.149048 0.185944
0.281982 0.147339 0.184875
0.447235 0.139252 0.177368
0.614166 0.130676 0.169403
0.774811 0.122375 0.161774
0.869598 0.168335 0.199402
0.934814 0.224731 0.255096
1.000000 0.258179 0.290649
0.000000 0.289917 0.175598
0.105774 0.310608 0.175598
0.276581 0.318817 0.177094
0.449493 0.314667 0.174408
0.613342 0.302277 0.164215
0.769287 0.291931 0.156189
0.869598 0.316345 0.196381
0.934814 0.353241 0.255096
1.000000 0.376068 0.290680
0.000000 0.426971 0.175568
0.090607 0.462860 0.160400
0.257751 0.479004 0.153015
0.449249 0.488190 0.173950
0.627014 0.485260 0.172089
0.786652 0.472443 0.160522
0.869598 0.474823 0.214630
0.934814 0.488403 0.269836
1.000000 0.500183 0.303314
0.000000 0.561035 0.175598
0.076080 0.611450 0.145935
0.233398 0.617645 0.133789
0.440277 0.651398 0.158844
0.625000 0.652924 0.171295
0.796539 0.650391 0.170929
0.869598 0.621887 0.236176
0.934814 0.618744 0.290985
1.000000 0.622162 0.324097
0.000000 0.688202 0.175659
0.065186 0.749512 0.134277
0.216003 0.744446 0.121552
0.415619 0.791992 0.130585
0.621063 0.804413 0.172180
0.791718 0.804413 0.172180
0.869598 0.752319 0.247711
0.934814 0.736603 0.310059
1.000000 0.733063 0.343018
0.000000 0.805603 0.175568
0.065186 0.866882 0.131409
0.205048 0.869598 0.111572
0.411499 0.869598 0.158508
0.596802 0.869598 0.216675
0.743378 0.869598 0.247711
0.869598 0.869598 0.247711
0.934814 0.840424 0.311615
1.000000 0.831329 0.350311
0.000000 0.910492 0.175629
0.102173 0.934814 0.157349
0.239075 0.934814 0.151276
0.417236 0.934814 0.191742
0.584351 0.934814 0.254089
0.725128 0.934814 0.309692
0.835236 0.934814 0.311615
0.934814 0.934814 0.311615
1.000000 0.920227 0.350311
0.000000 1.000000 0.175690
0.126495 1.000000 0.175568
0.260651 1.000000 0.175598
0.421295 1.000000 0.215302
0.581726 1.000000 0.276825
0.717590 1.000000 0.331970
0.824585 1.000000 0.350311
0.917572 1.000000 0.350311
1.000000 1.000000 0.350311
0.000000 0.000000 0.320282
0.126465 0.000000 0.320282
0.260620 0.000000 0.320282
0.406708 0.000000 0.327698
0.575836 0.000000 0.343689
0.738312 0.000000 0.352173
0.869598 0.017761 0.358032
0.934814 0.083099 0.380554
1.000000 0.121674 0.399689
0.000000 0.149658 0.320282
0.099365 0.132294 0.347382
0.257690 0.127411 0.342499
0.437195 0.128510 0.349487
0.609283 0.123718 0.345428
0.773468 0.120239 0.341705
0.869598 0.168335 0.355225
0.934814 0.224731 0.387695
1.000000 0.258179 0.412018
0.000000 0.289917 0.320282
0.099365 0.304230 0.347382
0.248016 0.289673 0.332855
0.419220 0.287659 0.331543
0.585876 0.278717 0.323242
0.746277 0.270111 0.315277
0.869598 0.287140 0.326721
0.934814 0.343353 0.377136
1.000000 0.376038 0.411957
0.000000 0.426971 0.320251
0.090607 0.462860 0.338623
0.239258 0.448303 0.324097
0.413483 0.453766 0.322815
0.587830 0.448792 0.318695
0.744934 0.436920 0.309174
0.869598 0.439880 0.321075
0.934814 0.472717 0.377136
1.000000 0.492828 0.411987
0.000000 0.561035 0.320343
0.076080 0.611450 0.324097
0.224731 0.596893 0.309540
0.395233 0.610199 0.300018
0.588501 0.619110 0.319519
0.758331 0.615448 0.316864
0.869598 0.604675 0.342377
0.934814 0.609283 0.396515
1.000000 0.617035 0.429199
0.000000 0.688202 0.320251
0.065186 0.749512 0.311340
0.211670 0.737152 0.296478
0.372345 0.741730 0.282562
0.581757 0.773193 0.307617
0.757629 0.774170 0.316803
0.869598 0.746796 0.359039
0.934814 0.732056 0.415405
1.000000 0.730896 0.447968
0.000000 0.805603 0.320312
0.065186 0.866882 0.303680
0.200653 0.865540 0.285522
0.356934 0.859161 0.271973
0.566986 0.869598 0.316376
0.735443 0.869598 0.359955
0.868622 0.869598 0.359955
0.934814 0.839142 0.422028
1.000000 0.831268 0.460175
0.000000 0.910492 0.320312
0.102173 0.934814 0.311798
0.236298 0.934814 0.304871
0.375793 0.934814 0.295959
0.564667 0.934814 0.349976
0.716492 0.934814 0.404877
0.833771 0.934814 0.422028
0.934814 0.934814 0.422028
1.000000 0.920166 0.460175
0.000000 1.000000 0.320312
0.126495 1.000000 0.320312
0.260620 1.000000 0.320282
0.397858 1.000000 0.320282
0.565430 1.000000 0.372345
0.710449 1.000000 0.426941
0.824524 1.000000 0.460175
0.917542 1.000000 0.460175
1.000000 1.000000 0.460175
0.000000 0.000000 0.461975
0.126465 0.000000 0.461975
0.260651 0.000000 0.461975
0.397919 0.000000 0.461975
0.536285 0.000000 0.461945
0.695679 0.000000 0.479095
0.844910 0.000000 0.490021
0.934814 0.041687 0.493164
1.000000 0.082001 0.501740
0.000000 0.149628 0.461975
0.083221 0.116119 0.505249
0.241516 0.111267 0.500336
0.409271 0.111267 0.500336
0.583405 0.110107 0.503235
0.752075 0.101807 0.500824
0.869598 0.132111 0.492462
0.934814 0.195221 0.500305
1.000000 0.232513 0.515289
0.000000 0.289917 0.461975
0.083221 0.288116 0.505249
0.231903 0.273529 0.490692
0.393433 0.267365 0.484528
0.575256 0.268707 0.491608
0.740967 0.262939 0.487152
0.869598 0.281708 0.486664
0.934814 0.343262 0.510712
1.000000 0.376038 0.532227
0.000000 0.427002 0.461975
0.083221 0.455475 0.505249
0.231903 0.440918 0.490692
0.384399 0.425751 0.475494
0.558075 0.424011 0.474426
0.718262 0.415192 0.466248
0.866028 0.407471 0.459015
0.934814 0.460754 0.497986
1.000000 0.492828 0.532196
0.000000 0.561035 0.461975
0.076080 0.611450 0.498047
0.224731 0.596893 0.483551
0.377258 0.581696 0.468323
0.552490 0.585571 0.465607
0.719330 0.580139 0.460938
0.864655 0.569550 0.451996
0.934814 0.594025 0.501526
1.000000 0.609192 0.533875
0.000000 0.688202 0.461945
0.065186 0.749512 0.484161
0.211670 0.737152 0.470398
0.364166 0.721924 0.455261
0.536652 0.733917 0.445129
0.721130 0.741058 0.462494
0.869598 0.734894 0.466339
0.934814 0.724701 0.520203
1.000000 0.727509 0.552368
0.000000 0.805603 0.461975
0.065186 0.866882 0.471893
0.200653 0.865540 0.459412
0.353149 0.850342 0.444244
0.516296 0.855804 0.429657
0.715302 0.869598 0.466949
0.864777 0.869598 0.472595
0.934814 0.837036 0.531799
1.000000 0.830994 0.568146
0.000000 0.910492 0.462006
0.102173 0.934814 0.463104
0.236298 0.934814 0.458099
0.373596 0.934814 0.450012
0.526917 0.934814 0.447449
0.702637 0.934814 0.499817
0.831268 0.934814 0.531799
0.934814 0.934814 0.531799
1.000000 0.920197 0.569489
0.000000 1.000000 0.462006
0.126495 1.000000 0.461975
0.260620 1.000000 0.462006
0.397919 1.000000 0.461945
0.540405 1.000000 0.467651
0.699402 1.000000 0.521637
0.823914 1.000000 0.567169
0.917572 1.000000 0.569489
1.000000 1.000000 0.569489
0.000000 0.000000 0.600647
0.126526 0.000000 0.600647
0.260651 0.000000 0.600647
0.397888 0.000000 0.600647
0.536255 0.000000 0.600647
0.670044 0.000000 0.600647
0.802307 0.000000 0.606049
0.932861 0.000000 0.617798
1.000000 0.041168 0.613983
0.000000 0.149658 0.600647
0.067719 0.100616 0.659393
0.226044 0.095764 0.654510
0.393738 0.095764 0.654510
0.563019 0.095764 0.654510
0.724792 0.094879 0.653656
0.869598 0.092438 0.646484
0.934814 0.156433 0.619354
1.000000 0.194733 0.621155
0.000000 0.289948 0.600647
0.067719 0.272552 0.659393
0.216400 0.258026 0.644836
0.377899 0.251862 0.638672
0.547150 0.251862 0.638672
0.713806 0.251526 0.641113
0.869446 0.243164 0.639221
0.934814 0.306427 0.622131
1.000000 0.342804 0.631348
0.000000 0.427002 0.600647
0.067719 0.439972 0.659393
0.216400 0.425446 0.644836
0.368896 0.410248 0.629639
0.532013 0.404083 0.623505
0.706940 0.405762 0.630493
0.859344 0.400299 0.626434
0.934814 0.452667 0.627502
1.000000 0.487946 0.647125
0.000000 0.561066 0.600647
0.067719 0.603119 0.659393
0.216400 0.588531 0.644836
0.368896 0.573364 0.629639
0.522705 0.557922 0.614227
0.690979 0.557373 0.614258
0.838593 0.549561 0.606995
0.934814 0.576385 0.617523
1.000000 0.608124 0.650879
0.000000 0.688202 0.600647
0.065186 0.749512 0.652863
0.211670 0.737152 0.640137
0.364166 0.721924 0.624939
0.517975 0.706512 0.609528
0.685547 0.708618 0.605591
0.838135 0.703003 0.600677
0.934814 0.710999 0.623993
1.000000 0.721741 0.655853
0.000000 0.805603 0.600647
0.065186 0.866882 0.636017
0.200653 0.865540 0.629089
0.353149 0.850342 0.613922
0.506989 0.834900 0.598511
0.672699 0.844543 0.588623
0.840790 0.850006 0.602875
0.934814 0.833008 0.639709
1.000000 0.829193 0.671448
0.000000 0.910492 0.600586
0.102173 0.934814 0.610840
0.236298 0.934814 0.607788
0.373596 0.934814 0.602936
0.511963 0.934814 0.593842
0.672272 0.934814 0.594879
0.826477 0.934814 0.639435
0.934814 0.934814 0.640411
1.000000 0.920227 0.677704
0.000000 1.000000 0.600677
0.126495 1.000000 0.600616
0.260620 1.000000 0.600647
0.397919 1.000000 0.600616
0.536285 1.000000 0.600647
0.680359 1.000000 0.615692
0.817963 1.000000 0.660858
0.917572 1.000000 0.677704
1.000000 1.000000 0.677704
0.000000 0.000000 0.731995
0.126556 0.000000 0.731995
0.260529 0.000000 0.731995
0.397888 0.000000 0.731995
0.536346 0.000000 0.731995
0.670044 0.000000 0.731995
0.794708 0.000000 0.731995
0.906128 0.000000 0.731903
1.000000 0.000000 0.731995
0.000000 0.149658 0.731995
0.065186 0.096588 0.793274
0.212097 0.081818 0.799805
0.379761 0.081818 0.799805
0.549103 0.081818 0.799805
0.711731 0.081818 0.799805
0.861542 0.081818 0.799805
0.934814 0.120972 0.753754
1.000000 0.159210 0.734772
0.000000 0.289886 0.731995
0.065186 0.263519 0.793274
0.202423 0.244080 0.790161
0.363922 0.237885 0.783997
0.533173 0.237885 0.783997
0.695923 0.237885 0.783997
0.845703 0.237885 0.784027
0.934814 0.270660 0.751892
1.000000 0.308990 0.739105
0.000000 0.426941 0.731995
0.065186 0.426147 0.793274
0.202423 0.411438 0.790161
0.354950 0.396301 0.774963
0.518066 0.390137 0.768829
0.680756 0.390137 0.768829
0.832886 0.390564 0.770477
0.934814 0.418182 0.749939
1.000000 0.455170 0.745911
0.000000 0.561035 0.731995
0.065186 0.584808 0.793274
0.202423 0.574554 0.790161
0.354950 0.559357 0.774963
0.508759 0.543945 0.759521
0.666229 0.538727 0.754303
0.827454 0.541138 0.761169
0.934814 0.562256 0.748199
1.000000 0.597931 0.757538
0.000000 0.688171 0.731995
0.065186 0.733948 0.793274
0.202423 0.727936 0.790161
0.354950 0.712646 0.774963
0.508759 0.697266 0.759521
0.656982 0.682800 0.745056
0.813629 0.684113 0.746887
0.934814 0.685822 0.741547
1.000000 0.718719 0.764557
0.000000 0.805603 0.731995
0.065186 0.866882 0.790314
0.200653 0.865540 0.788422
0.353149 0.850342 0.773193
0.506989 0.834900 0.757751
0.655182 0.820435 0.743256
0.807983 0.820618 0.738342
0.934814 0.818817 0.739441
1.000000 0.825806 0.771393
0.000000 0.910492 0.731964
0.102173 0.934814 0.750305
0.236298 0.934814 0.749115
0.373596 0.934814 0.747040
0.511963 0.934814 0.743225
0.646820 0.933685 0.734924
0.803589 0.934814 0.731384
0.934326 0.934814 0.745300
1.000000 0.920197 0.782013
0.000000 1.000000 0.731995
0.126495 1.000000 0.731995
0.260620 1.000000 0.732056
0.397919 1.000000 0.731995
0.536285 1.000000 0.732025
0.670044 1.000000 0.731964
0.806641 1.000000 0.752075
0.917572 1.000000 0.782013
1.000000 1.000000 0.782013
0.000000 0.000000 0.852966
0.126404 0.000000 0.852966
0.260620 0.000000 0.852966
0.397858 0.000000 0.852966
0.536316 0.000000 0.852966
0.670074 0.000000 0.852966
0.794678 0.000000 0.852966
0.906189 0.000000 0.852936
1.000000 0.000000 0.852905
0.000000 0.149658 0.852966
0.109863 0.134949 0.869598
0.248016 0.133026 0.869598
0.391632 0.133026 0.869598
0.536530 0.133026 0.869598
0.676300 0.133026 0.869598
0.806244 0.133026 0.869598
0.921753 0.132965 0.869598
1.000000 0.149658 0.852966
0.000000 0.289917 0.852966
0.109863 0.281464 0.869598
0.243988 0.276215 0.869598
0.385986 0.273285 0.869598
0.532379 0.273285 0.869598
0.673737 0.273285 0.869598
0.804962 0.273285 0.869598
0.921448 0.273285 0.869598
1.000000 0.289917 0.852936
0.000000 0.426941 0.852966
0.109863 0.424408 0.869598
0.243988 0.420441 0.869598
0.381287 0.414093 0.869598
0.526031 0.410339 0.869598
0.669678 0.410339 0.869598
0.802979 0.410339 0.869598
0.921021 0.410339 0.869598
1.000000 0.426971 0.853027
0.000000 0.561005 0.852966
0.109863 0.564270 0.869598
0.243988 0.561432 0.869598
0.381287 0.556976 0.869598
0.519653 0.548798 0.869598
0.662415 0.544403 0.869598
0.799377 0.544403 0.869598
0.920288 0.544403 0.869598
1.000000 0.570374 0.856506
0.000000 0.688232 0.852966
0.109863 0.696503 0.869598
0.243988 0.694855 0.869598
0.381287 0.692047 0.869598
0.519653 0.687012 0.869598
0.653412 0.676727 0.869598
0.791901 0.671570 0.869598
0.922699 0.678314 0.869598
1.000000 0.705811 0.863281
0.000000 0.805634 0.852966
0.109863 0.818237 0.869598
0.243988 0.817505 0.869598
0.381287 0.816162 0.869598
0.519653 0.813751 0.869598
0.653412 0.808868 0.869598
0.782440 0.797882 0.865265
0.919495 0.799683 0.867432
1.000000 0.822327 0.869598
0.000000 0.910461 0.852936
0.109802 0.926544 0.869598
0.243988 0.926331 0.869598
0.381256 0.926147 0.869598
0.519623 0.925751 0.869598
0.653412 0.924927 0.869598
0.782440 0.919525 0.865265
0.915710 0.919525 0.861328
1.000000 0.919312 0.869598
0.000000 1.000000 0.852905
0.126495 1.000000 0.852997
0.260620 1.000000 0.852936
0.397919 1.000000 0.853027
0.536285 1.000000 0.852966
0.670044 1.000000 0.852966
0.794739 1.000000 0.852966
0.914642 1.000000 0.869598
1.000000 1.000000 0.869598
0.000000 0.000000 0.934814
0.126526 0.000000 0.934814
0.260620 0.000000 0.934814
0.397888 0.000000 0.934814
0.536194 0.000000 0.934814
0.669983 0.000000 0.934814
0.794739 0.000000 0.934814
0.906189 0.000000 0.934814
1.000000 0.000000 0.934814
0.000000 0.149658 0.934814
0.126495 0.149597 0.934814
0.260529 0.149658 0.934814
0.397980 0.149658 0.934814
0.536346 0.149658 0.934814
0.670044 0.149658 0.934814
0.794678 0.149658 0.934814
0.906128 0.149658 0.934814
1.000000 0.149658 0.934814
0.000000 0.289948 0.934814
0.126495 0.289856 0.934814
0.260620 0.289948 0.934814
0.397858 0.289917 0.934814
0.536316 0.289917 0.934814
0.670013 0.289917 0.934814
0.794769 0.289917 0.934814
0.906158 0.289917 0.934814
1.000000 0.289917 0.934814
0.000000 0.426971 0.934814
0.126495 0.427063 0.934814
0.260620 0.426971 0.934814
0.397919 0.426971 0.934814
0.536316 0.426971 0.934814
0.670013 0.426971 0.934814
0.794678 0.426971 0.934814
0.906158 0.426971 0.934814
1.000000 0.426971 0.934814
0.000000 0.560974 0.934814
0.126495 0.561096 0.934814
0.260620 0.561035 0.934814
0.397919 0.561035 0.934814
0.536285 0.561066 0.934814
0.670044 0.561035 0.934814
0.794708 0.561035 0.934814
0.906128 0.561035 0.934814
1.000000 0.561035 0.934814
0.000000 0.688202 0.934814
0.126495 0.688202 0.934814
0.260620 0.688202 0.934814
0.397919 0.688202 0.934814
0.536285 0.688232 0.934814
0.670044 0.688232 0.934814
0.794739 0.688202 0.934814
0.906128 0.688202 0.934814
1.000000 0.688202 0.934814
0.000000 0.805603 0.934814
0.126495 0.805542 0.934814
0.260620 0.805603 0.934814
0.397919 0.805573 0.934814
0.536285 0.805603 0.934814
0.670044 0.805603 0.934814
0.794739 0.805603 0.934814
0.906128 0.805603 0.934814
1.000000 0.809479 0.934814
0.000000 0.910522 0.934814
0.126495 0.910461 0.934814
0.260620 0.910492 0.934814
0.397919 0.910461 0.934814
0.536285 0.910492 0.934814
0.670044 0.910492 0.934814
0.794739 0.910492 0.934814
0.906128 0.910492 0.934814
1.000000 0.916809 0.934814
0.000000 1.000000 0.934814
0.126495 1.000000 0.934814
0.260620 1.000000 0.934814
0.397919 1.000000 0.934814
0.536285 1.000000 0.934814
0.670044 1.000000 0.934814
0.794739 1.000000 0.934814
0.906128 1.000000 0.934814
1.000000 1.000000 0.934814
0.000000 0.000000 1.000000
0.126526 0.000000 1.000000
0.260620 0.000000 1.000000
0.398010 0.000000 1.000000
0.536316 0.000000 1.000000
0.669983 0.000000 1.000000
0.794739 0.000000 1.000000
0.906189 0.000000 1.000000
1.000000 0.000000 1.000000
0.000000 0.149750 1.000000
0.126495 0.149597 1.000000
0.260620 0.149658 1.000000
0.397858 0.149658 1.000000
0.536255 0.149658 1.000000
0.670044 0.149658 1.000000
0.794769 0.149658 1.000000
0.906128 0.149658 1.000000
1.000000 0.149658 1.000000
0.000000 0.289948 1.000000
0.126495 0.289948 1.000000
0.260620 0.289948 1.000000
0.397919 0.289917 1.000000
0.536224 0.289917 1.000000
0.670105 0.289917 1.000000
0.794708 0.289917 1.000000
0.906067 0.289917 1.000000
1.000000 0.289917 1.000000
0.000000 0.426971 1.000000
0.126495 0.426941 1.000000
0.260620 0.426971 1.000000
0.397919 0.426971 1.000000
0.536255 0.426971 1.000000
0.670105 0.426971 1.000000
0.794769 0.426971 1.000000
0.906158 0.426971 1.000000
1.000000 0.426971 1.000000
0.000000 0.561096 1.000000
0.126495 0.561005 1.000000
0.260620 0.561035 1.000000
0.397919 0.561035 1.000000
0.536285 0.561066 1.000000
0.670074 0.561035 1.000000
0.794739 0.561035 1.000000
0.906128 0.561035 1.000000
1.000000 0.561035 1.000000
0.000000 0.688202 1.000000
0.126495 0.688202 1.000000
0.260620 0.688202 1.000000
0.397919 0.688202 1.000000
0.536285 0.688232 1.000000
0.670044 0.688232 1.000000
0.794739 0.688202 1.000000
0.906097 0.688202 1.000000
1.000000 0.688202 1.000000
0.000000 0.805603 1.000000
0.126495 0.805664 1.000000
0.260620 0.805603 1.000000
0.397919 0.805634 1.000000
0.536285 0.805603 1.000000
0.670044 0.805603 1.000000
0.794739 0.805603 1.000000
0.906128 0.805603 1.000000
1.000000 0.805603 1.000000
0.000000 0.910522 1.000000
0.126495 0.910461 1.000000
0.260620 0.910400 1.000000
0.397919 0.910461 1.000000
0.536285 0.910492 1.000000
0.670044 0.910461 1.000000
0.794739 0.910492 1.000000
0.906128 0.910492 1.000000
1.000000 0.910492 1.000000
0.000000 1.000000 1.000000
0.126495 1.000000 1.000000
0.260620 1.000000 1.000000
0.397919 1.000000 1.000000
0.536285 1.000000 1.000000
0.670044 1.000000 1.000000
0.794739 1.000000 1.000000
0.906128 1.000000 1.000000
1.000000 1.000000 1.000000
