src/assets/luts/大师配方/大师·驭.cube
#Created by: Adobe Photoshop Export Color Lookup Plugin
#Copyright: (C) Copyright 2025 aaa
TITLE "暗黑清冷发光.psd"
#LUT size
LUT_3D_SIZE 32
#data domain
DOMAIN_MIN 0.0 0.0 0.0
DOMAIN_MAX 1.0 1.0 1.0
#LUT data points
0.000000 0.000000 0.000000
0.000000 0.000000 0.000000
0.000000 0.000000 0.000000
0.000000 0.000000 0.000000
0.011108 0.003815 0.004578
0.029236 0.009644 0.011169
0.048737 0.015717 0.017914
0.069763 0.022095 0.024963
0.092560 0.028870 0.032318
0.117706 0.036255 0.040253
0.145630 0.044250 0.048859
0.176849 0.053009 0.058258
0.211456 0.062531 0.068359
0.249512 0.072723 0.079193
0.290955 0.083679 0.090729
0.335693 0.095276 0.102966
0.383606 0.107422 0.115723
0.434357 0.120026 0.128906
0.487396 0.132935 0.142395
0.540741 0.145935 0.155853
0.591614 0.158600 0.169128
0.638885 0.170776 0.181763
0.681854 0.182159 0.193542
0.719818 0.192535 0.204285
0.753052 0.201813 0.213806
0.782501 0.210236 0.222504
0.809052 0.217987 0.230499
0.833344 0.225220 0.238068
0.856232 0.232147 0.245148
0.878052 0.238922 0.252197
0.884552 0.240967 0.254211
0.884552 0.240967 0.254211
0.000000 0.000000 0.000000
0.000000 0.000000 0.000000
0.000000 0.000000 0.000000
0.000000 0.000000 0.000000
0.011108 0.003815 0.004578
0.029236 0.009644 0.011169
0.048737 0.015717 0.017914
0.069763 0.022095 0.024963
0.092560 0.028870 0.032318
0.117706 0.036255 0.040253
0.145630 0.044250 0.048859
0.176849 0.053009 0.058258
0.211456 0.062531 0.068359
0.249512 0.072723 0.079193
0.290955 0.083679 0.090729
0.335693 0.095276 0.102966
0.383606 0.107422 0.115723
0.434357 0.120026 0.128906
0.487396 0.132935 0.142395
0.540741 0.145935 0.155853
0.591614 0.158600 0.169128
0.638885 0.170776 0.181763
0.681854 0.182159 0.193542
0.719818 0.192535 0.204285
0.753052 0.201813 0.213806
0.782501 0.210236 0.222504
0.809052 0.217987 0.230499
0.833344 0.225220 0.238068
0.856232 0.232147 0.245148
0.878052 0.238922 0.252197
0.884552 0.240967 0.254211
0.884552 0.240967 0.254211
0.000000 0.000000 0.000000
0.000000 0.000000 0.000000
0.000000 0.000000 0.000000
0.000000 0.000000 0.000000
0.011108 0.003815 0.004578
0.029236 0.009644 0.011169
0.048737 0.015717 0.017914
0.069763 0.022095 0.024963
0.092560 0.028870 0.032318
0.117706 0.036255 0.040253
0.145630 0.044250 0.048859
0.176849 0.053009 0.058258
0.211456 0.062531 0.068359
0.249512 0.072723 0.079193
0.290955 0.083679 0.090729
0.335693 0.095276 0.102966
0.383606 0.107422 0.115723
0.434357 0.120026 0.128906
0.487396 0.132935 0.142395
0.540741 0.145935 0.155853
0.591614 0.158600 0.169128
0.638885 0.170776 0.181763
0.681854 0.182159 0.193542
0.719818 0.192535 0.204285
0.753052 0.201813 0.213806
0.782501 0.210236 0.222504
0.809052 0.217987 0.230499
0.833344 0.225220 0.238068
0.856232 0.232147 0.245148
0.878052 0.238922 0.252197
0.884552 0.240967 0.254211
0.884552 0.240967 0.254211
0.000000 0.000000 0.000000
0.000000 0.000000 0.000000
0.000000 0.000000 0.000000
0.000000 0.000000 0.000000
0.011108 0.003815 0.004578
0.029236 0.009644 0.011169
0.048737 0.015717 0.017914
0.069763 0.022095 0.024963
0.092560 0.028870 0.032318
0.117706 0.036255 0.040253
0.145630 0.044250 0.048859
0.176849 0.053009 0.058258
0.211456 0.062531 0.068359
0.249512 0.072723 0.079193
0.290955 0.083679 0.090729
0.335693 0.095276 0.102966
0.383606 0.107422 0.115723
0.434357 0.120026 0.128906
0.487396 0.132935 0.142395
0.540741 0.145935 0.155853
0.591614 0.158600 0.169128
0.638885 0.170776 0.181763
0.681854 0.182159 0.193542
0.719818 0.192535 0.204285
0.753052 0.201813 0.213806
0.782501 0.210236 0.222504
0.809052 0.217987 0.230499
0.833344 0.225220 0.238068
0.856232 0.232147 0.245148
0.878052 0.238922 0.252197
0.884552 0.240967 0.254211
0.884552 0.240967 0.254211
0.001831 0.013885 0.003479
0.001831 0.013885 0.003479
0.001831 0.013885 0.003479
0.001831 0.013885 0.003479
0.011444 0.014404 0.004791
0.029144 0.019806 0.011108
0.048615 0.025848 0.017822
0.069550 0.032227 0.024811
0.092377 0.039001 0.032135
0.117462 0.046326 0.040009
0.145355 0.054352 0.048584
0.176483 0.063110 0.057922
0.211090 0.072662 0.068024
0.249115 0.082886 0.078796
0.290466 0.093903 0.090332
0.335175 0.105499 0.102509
0.383026 0.117737 0.115204
0.433716 0.130402 0.128357
0.486755 0.143463 0.141876
0.540070 0.156433 0.155304
0.590912 0.169220 0.168488
0.638214 0.181305 0.181091
0.681122 0.192810 0.192932
0.719147 0.203217 0.203552
0.752380 0.212524 0.213257
0.781830 0.221039 0.221924
0.808411 0.228790 0.229858
0.832703 0.236145 0.237244
0.855591 0.243195 0.244476
0.877380 0.250000 0.251434
0.883942 0.251984 0.253448
0.883942 0.251984 0.253448
0.004761 0.034546 0.008209
0.004761 0.034546 0.008209
0.004761 0.034546 0.008209
0.004761 0.034546 0.008209
0.013885 0.034546 0.008209
0.030090 0.035919 0.012024
0.048615 0.041077 0.017822
0.069550 0.047485 0.024811
0.092377 0.054321 0.032135
0.117462 0.061768 0.040009
0.145355 0.069885 0.048584
0.176483 0.078735 0.057922
0.211090 0.088379 0.068024
0.249115 0.098755 0.078796
0.290466 0.109863 0.090332
0.335175 0.121613 0.102509
0.383026 0.133911 0.115204
0.433716 0.146637 0.128357
0.486755 0.159882 0.141876
0.540070 0.172852 0.155304
0.590912 0.185791 0.168488
0.638214 0.198151 0.181091
0.681122 0.209717 0.192871
0.719116 0.220306 0.203552
0.752350 0.229706 0.213196
0.781769 0.238281 0.221832
0.808350 0.246155 0.229828
0.832642 0.253479 0.237274
0.855499 0.260345 0.244385
0.877350 0.267181 0.251312
0.883850 0.269470 0.253418
0.883850 0.269470 0.253418
0.007935 0.055817 0.012878
0.007935 0.055817 0.012878
0.007935 0.055817 0.012878
0.007935 0.055817 0.012878
0.017212 0.055817 0.012878
0.033295 0.056854 0.015137
0.049896 0.058105 0.019104
0.069550 0.063293 0.024811
0.092377 0.070190 0.032135
0.117462 0.077728 0.040009
0.145355 0.085907 0.048584
0.176483 0.094849 0.057922
0.211090 0.104614 0.068024
0.249115 0.115082 0.078796
0.290466 0.126343 0.090332
0.335175 0.138184 0.102509
0.383026 0.150574 0.115204
0.433716 0.163452 0.128357
0.486755 0.176758 0.141876
0.540070 0.190063 0.155304
0.590912 0.203094 0.168488
0.638214 0.215546 0.181091
0.681122 0.227173 0.192871
0.719116 0.237915 0.203552
0.752350 0.247437 0.213196
0.781769 0.256042 0.221832
0.808350 0.263977 0.229828
0.832642 0.271423 0.237274
0.855499 0.278442 0.244385
0.877350 0.285461 0.251312
0.883850 0.287598 0.253418
0.883850 0.287598 0.253418
0.011261 0.078247 0.017670
0.011261 0.078247 0.017670
0.011261 0.078247 0.017670
0.011261 0.078247 0.017670
0.020630 0.078247 0.017670
0.035828 0.078613 0.018463
0.054016 0.080383 0.022766
0.071228 0.081543 0.026367
0.092377 0.086884 0.032135
0.117462 0.094482 0.040009
0.145355 0.102692 0.048584
0.176483 0.111786 0.057922
0.211090 0.121613 0.068024
0.249115 0.132233 0.078796
0.290466 0.143555 0.090332
0.335175 0.155579 0.102509
0.383026 0.168121 0.115204
0.433716 0.181244 0.128357
0.486755 0.194641 0.141876
0.540070 0.208008 0.155304
0.590912 0.221191 0.168488
0.638214 0.233795 0.181091
0.681122 0.245544 0.192871
0.719116 0.256317 0.203552
0.752350 0.265961 0.213196
0.781769 0.274628 0.221832
0.808350 0.282654 0.229828
0.832642 0.290253 0.237274
0.855499 0.297302 0.244385
0.877350 0.304382 0.251312
0.883850 0.306519 0.253418
0.883850 0.306519 0.253418
0.014832 0.102234 0.022675
0.014832 0.102234 0.022675
0.014832 0.102234 0.022675
0.014832 0.102234 0.022675
0.024384 0.102234 0.022675
0.038971 0.102234 0.022675
0.057159 0.103882 0.026062
0.076294 0.105652 0.030823
0.094330 0.106598 0.034027
0.117462 0.112274 0.040009
0.145355 0.120605 0.048584
0.176483 0.129730 0.057922
0.211090 0.139709 0.068024
0.249115 0.150452 0.078796
0.290466 0.161957 0.090332
0.335175 0.174103 0.102509
0.383026 0.186798 0.115204
0.433716 0.200012 0.128357
0.486755 0.213562 0.141876
0.540070 0.227081 0.155304
0.590912 0.240356 0.168488
0.638214 0.253235 0.181091
0.681122 0.265106 0.192871
0.719116 0.275879 0.203552
0.752350 0.285675 0.213196
0.781769 0.294495 0.221832
0.808350 0.302643 0.229828
0.832642 0.310272 0.237274
0.855499 0.317444 0.244385
0.877350 0.324524 0.251312
0.883850 0.326599 0.253418
0.883850 0.326599 0.253418
0.018677 0.128265 0.027924
0.018677 0.128265 0.027924
0.018677 0.128265 0.027924
0.018677 0.128265 0.027924
0.028381 0.128265 0.027924
0.043121 0.128265 0.027924
0.060181 0.129242 0.029633
0.080078 0.131195 0.034332
0.100433 0.132996 0.039490
0.119751 0.133820 0.042175
0.145355 0.139954 0.048584
0.176483 0.149200 0.057922
0.211090 0.159332 0.068024
0.249115 0.170197 0.078796
0.290466 0.181763 0.090332
0.335175 0.194031 0.102509
0.383026 0.206970 0.115204
0.433716 0.220337 0.128357
0.486755 0.234009 0.141876
0.540070 0.247772 0.155304
0.590912 0.261200 0.168488
0.638214 0.274078 0.181091
0.681122 0.286224 0.192871
0.719116 0.297119 0.203552
0.752350 0.306915 0.213196
0.781769 0.315918 0.221832
0.808350 0.324127 0.229828
0.832642 0.331818 0.237274
0.855499 0.339172 0.244385
0.877350 0.346313 0.251312
0.883850 0.348419 0.253418
0.883850 0.348419 0.253418
0.022949 0.156738 0.033600
0.022949 0.156738 0.033600
0.022949 0.156738 0.033600
0.022949 0.156738 0.033600
0.032715 0.156738 0.033569
0.047638 0.156738 0.033569
0.063446 0.156738 0.033752
0.083740 0.159088 0.038055
0.105042 0.161194 0.043121
0.127106 0.163147 0.048859
0.147888 0.163605 0.050934
0.176483 0.170380 0.057922
0.211090 0.180664 0.068024
0.249115 0.191650 0.078796
0.290466 0.203400 0.090332
0.335175 0.215851 0.102509
0.383026 0.228912 0.115204
0.433716 0.242493 0.128357
0.486755 0.256409 0.141876
0.540070 0.270264 0.155304
0.590912 0.283905 0.168488
0.638214 0.296875 0.181091
0.681122 0.309204 0.192871
0.719116 0.320221 0.203552
0.752350 0.330231 0.213196
0.781769 0.339355 0.221832
0.808350 0.347565 0.229828
0.832642 0.355255 0.237274
0.855499 0.362762 0.244385
0.877350 0.369934 0.251312
0.883850 0.372253 0.253418
0.883850 0.372253 0.253418
0.027618 0.188232 0.039673
0.027618 0.188232 0.039673
0.027618 0.188232 0.039673
0.027618 0.188232 0.039673
0.037506 0.188232 0.039673
0.052551 0.188232 0.039673
0.068390 0.188232 0.039673
0.087616 0.189728 0.042419
0.109436 0.191895 0.047394
0.132416 0.194061 0.052979
0.156494 0.196167 0.059326
0.179260 0.196564 0.060516
0.211090 0.204132 0.068024
0.249115 0.215332 0.078796
0.290466 0.227234 0.090332
0.335175 0.239838 0.102509
0.383026 0.253052 0.115204
0.433716 0.266815 0.128357
0.486755 0.280853 0.141876
0.540070 0.294922 0.155304
0.590912 0.308807 0.168488
0.638214 0.322083 0.181091
0.681122 0.334381 0.192871
0.719116 0.345612 0.203552
0.752350 0.355804 0.213196
0.781769 0.364899 0.221832
0.808350 0.373291 0.229828
0.832642 0.381134 0.237274
0.855499 0.388824 0.244385
0.877350 0.396210 0.251312
0.883850 0.398285 0.253418
0.883850 0.398285 0.253418
0.032715 0.222839 0.046173
0.032715 0.222839 0.046173
0.032715 0.222839 0.046173
0.032715 0.222839 0.046173
0.042725 0.222839 0.046173
0.057861 0.222839 0.046173
0.073883 0.222839 0.046173
0.091614 0.223206 0.047089
0.113861 0.225616 0.051971
0.137604 0.228119 0.057343
0.162811 0.230682 0.063354
0.189453 0.232819 0.070557
0.214111 0.232819 0.070770
0.249115 0.241058 0.078796
0.290466 0.253235 0.090332
0.335175 0.265991 0.102509
0.383026 0.279449 0.115204
0.433716 0.293427 0.128357
0.486755 0.307617 0.141876
0.540070 0.321960 0.155304
0.590912 0.336029 0.168488
0.638214 0.349487 0.181091
0.681122 0.362030 0.192871
0.719116 0.373383 0.203552
0.752350 0.383575 0.213196
0.781769 0.392822 0.221832
0.808350 0.401367 0.229828
0.832642 0.409393 0.237274
0.855499 0.417084 0.244385
0.877350 0.424438 0.251312
0.883850 0.426758 0.253418
0.883850 0.426758 0.253418
0.038177 0.260437 0.053040
0.038177 0.260437 0.053040
0.038177 0.260437 0.053040
0.038177 0.260437 0.053040
0.048279 0.260437 0.053070
0.063599 0.260437 0.053040
0.079681 0.260437 0.053040
0.096832 0.260437 0.053040
0.118317 0.262543 0.056519
0.142670 0.264893 0.062134
0.168671 0.267792 0.067963
0.196625 0.270294 0.074860
0.225281 0.272247 0.081665
0.252289 0.272247 0.081665
0.290466 0.281342 0.090332
0.335175 0.294281 0.102509
0.383026 0.307983 0.115204
0.433716 0.322083 0.128357
0.486755 0.336609 0.141876
0.540070 0.351074 0.155304
0.590912 0.365387 0.168488
0.638214 0.378998 0.181091
0.681122 0.391785 0.192871
0.719116 0.403351 0.203552
0.752350 0.413818 0.213196
0.781769 0.423187 0.221832
0.808350 0.431915 0.229828
0.832642 0.439850 0.237274
0.855499 0.447662 0.244385
0.877350 0.455200 0.251312
0.883850 0.457489 0.253418
0.883850 0.457489 0.253418
0.044037 0.301025 0.060364
0.044037 0.301025 0.060364
0.044037 0.301025 0.060364
0.044037 0.301025 0.060364
0.054260 0.301025 0.060364
0.069763 0.301025 0.060364
0.085999 0.301025 0.060364
0.103210 0.301025 0.060364
0.122955 0.302032 0.061646
0.147827 0.304413 0.067322
0.174469 0.307556 0.073059
0.203278 0.310364 0.079803
0.233856 0.312897 0.087646
0.264496 0.314880 0.093323
0.293884 0.314880 0.093323
0.335175 0.324615 0.102509
0.383026 0.338440 0.115204
0.433716 0.352875 0.128357
0.486755 0.367676 0.141876
0.540070 0.382355 0.155304
0.590912 0.396790 0.168488
0.638214 0.410767 0.181091
0.681122 0.423737 0.192871
0.719116 0.435455 0.203552
0.752350 0.445984 0.213196
0.781769 0.455566 0.221832
0.808350 0.464294 0.229828
0.832642 0.472504 0.237274
0.855499 0.480316 0.244385
0.877350 0.488190 0.251312
0.883850 0.490479 0.253418
0.883850 0.490479 0.253418
0.050232 0.344482 0.068024
0.050232 0.344482 0.068024
0.050232 0.344482 0.068024
0.050232 0.344482 0.068024
0.060608 0.344482 0.068024
0.076294 0.344482 0.068024
0.092621 0.344482 0.068024
0.109985 0.344482 0.068024
0.128662 0.344482 0.068024
0.152893 0.347351 0.072235
0.180176 0.349976 0.078430
0.209808 0.352966 0.085175
0.241425 0.356171 0.092560
0.274658 0.359009 0.101013
0.306854 0.360474 0.105530
0.338684 0.360474 0.105530
0.383026 0.371002 0.115204
0.433716 0.385590 0.128357
0.486755 0.400696 0.141876
0.540070 0.415680 0.155304
0.590912 0.430298 0.168488
0.638214 0.444397 0.181091
0.681122 0.457550 0.192871
0.719116 0.469574 0.203552
0.752350 0.480225 0.213196
0.781769 0.489929 0.221832
0.808350 0.498962 0.229828
0.832642 0.507202 0.237274
0.855499 0.515137 0.244385
0.877350 0.522675 0.251312
0.883850 0.525116 0.253418
0.883850 0.525116 0.253418
0.056763 0.390564 0.075897
0.056763 0.390564 0.075897
0.056763 0.390564 0.075897
0.056763 0.390564 0.075897
0.067230 0.390564 0.075867
0.083008 0.390564 0.075897
0.099487 0.390564 0.075897
0.117035 0.390564 0.075897
0.135834 0.390564 0.075897
0.158417 0.391907 0.078094
0.186035 0.395081 0.083984
0.216125 0.398071 0.090759
0.248627 0.402008 0.097687
0.283112 0.404999 0.106140
0.319000 0.408173 0.115143
0.352631 0.408966 0.118286
0.386658 0.408966 0.118286
0.433716 0.420197 0.128357
0.486755 0.435425 0.141876
0.540070 0.450653 0.155304
0.590912 0.465607 0.168488
0.638214 0.480072 0.181091
0.681122 0.493439 0.192871
0.719116 0.505524 0.203552
0.752350 0.516205 0.213196
0.781769 0.526001 0.221832
0.808350 0.534790 0.229828
0.832642 0.542908 0.237274
0.855499 0.550690 0.244385
0.877350 0.558289 0.251312
0.883850 0.560455 0.253418
0.883850 0.560455 0.253418
0.063477 0.439026 0.084015
0.063477 0.439026 0.084015
0.063477 0.439026 0.084015
0.063477 0.439026 0.084015
0.074097 0.439026 0.083984
0.089996 0.439026 0.084015
0.106659 0.439026 0.084015
0.124390 0.439026 0.084015
0.143280 0.439026 0.084015
0.163940 0.439026 0.084015
0.191742 0.442780 0.089386
0.222351 0.446289 0.095856
0.255646 0.449554 0.103455
0.290985 0.453217 0.111389
0.328094 0.456543 0.120392
0.366425 0.459473 0.130463
0.401367 0.459961 0.131439
0.437408 0.459961 0.131439
0.486755 0.471741 0.141876
0.540070 0.487244 0.155304
0.590912 0.502502 0.168488
0.638214 0.516907 0.181091
0.681122 0.530243 0.192871
0.719116 0.542267 0.203552
0.752350 0.552826 0.213196
0.781769 0.562286 0.221832
0.808350 0.570984 0.229828
0.832642 0.578949 0.237274
0.855499 0.586548 0.244385
0.877350 0.593933 0.251312
0.883850 0.596222 0.253418
0.883850 0.596222 0.253418
0.070435 0.489319 0.092255
0.070435 0.489319 0.092255
0.070435 0.489319 0.092255
0.070435 0.489319 0.092255
0.081146 0.489319 0.092285
0.097229 0.489319 0.092255
0.113983 0.489319 0.092255
0.131775 0.489319 0.092255
0.150909 0.489319 0.092255
0.171814 0.489319 0.092255
0.197815 0.490997 0.095764
0.228638 0.495117 0.101959
0.262360 0.498932 0.109131
0.298584 0.502533 0.117340
0.336823 0.506561 0.125946
0.376526 0.510193 0.135406
0.416412 0.512878 0.144867
0.452728 0.512878 0.144867
0.490387 0.512878 0.144867
0.540070 0.524780 0.155304
0.590912 0.539734 0.168488
0.638214 0.553925 0.181091
0.681122 0.566925 0.192871
0.719116 0.578735 0.203552
0.752350 0.589050 0.213196
0.781769 0.598419 0.221832
0.808350 0.606995 0.229828
0.832642 0.614807 0.237274
0.855499 0.622437 0.244385
0.877350 0.629578 0.251312
0.883850 0.631775 0.253418
0.883850 0.631775 0.253418
0.077362 0.539490 0.100433
0.077362 0.539490 0.100433
0.077362 0.539490 0.100433
0.077362 0.539490 0.100433
0.088165 0.539490 0.100342
0.104340 0.539490 0.100372
0.121368 0.539490 0.100372
0.139252 0.539490 0.100372
0.158447 0.539490 0.100372
0.179535 0.539490 0.100372
0.203308 0.540405 0.101074
0.234802 0.543976 0.107697
0.269104 0.547363 0.115265
0.305695 0.551361 0.123016
0.344635 0.555023 0.131805
0.385529 0.559235 0.140900
0.427429 0.562286 0.151550
0.467957 0.564575 0.158203
0.506042 0.564575 0.158203
0.543457 0.564575 0.158203
0.590912 0.575958 0.168488
0.638214 0.589813 0.181091
0.681122 0.602722 0.192871
0.719116 0.614227 0.203552
0.752350 0.624420 0.213196
0.781769 0.633667 0.221832
0.808350 0.641937 0.229828
0.832642 0.649689 0.237274
0.855499 0.656921 0.244385
0.877350 0.664093 0.251312
0.883850 0.666290 0.253418
0.883850 0.666290 0.253418
0.084167 0.587158 0.108337
0.084167 0.587158 0.108337
0.084167 0.587158 0.108337
0.084167 0.587158 0.108337
0.095093 0.587158 0.108337
0.111389 0.587158 0.108337
0.128540 0.587158 0.108337
0.146637 0.587158 0.108337
0.165894 0.587158 0.108337
0.187042 0.587158 0.108337
0.210358 0.587158 0.108337
0.240906 0.590027 0.113586
0.275543 0.593750 0.120880
0.312683 0.598083 0.128357
0.352234 0.601288 0.137482
0.393890 0.605927 0.146179
0.437042 0.609375 0.156433
0.480896 0.612457 0.167480
0.521057 0.613678 0.171265
0.558502 0.613678 0.171265
0.594055 0.613678 0.171265
0.638214 0.624176 0.181091
0.681122 0.636871 0.192871
0.719116 0.648071 0.203552
0.752350 0.658234 0.213196
0.781769 0.667206 0.221832
0.808350 0.675415 0.229828
0.832642 0.682831 0.237274
0.855499 0.690125 0.244385
0.877350 0.697113 0.251312
0.883850 0.699188 0.253418
0.883850 0.699188 0.253418
0.090698 0.631287 0.115845
0.090698 0.631287 0.115845
0.090698 0.631287 0.115845
0.090698 0.631287 0.115845
0.101593 0.631287 0.115845
0.118195 0.631287 0.115845
0.135284 0.631287 0.115845
0.153503 0.631287 0.115845
0.173096 0.631287 0.115845
0.194336 0.631287 0.115845
0.217651 0.631287 0.115845
0.246460 0.633301 0.118713
0.281250 0.637238 0.125732
0.318939 0.640961 0.133698
0.359192 0.644440 0.142639
0.401398 0.648560 0.151611
0.445496 0.652374 0.161560
0.490540 0.655884 0.172211
0.535339 0.659058 0.183533
0.572449 0.659058 0.183716
0.607880 0.659058 0.183716
0.641052 0.659058 0.183716
0.681122 0.668640 0.192871
0.719116 0.679688 0.203552
0.752350 0.689545 0.213196
0.781769 0.698425 0.221832
0.808350 0.706390 0.229828
0.832642 0.713928 0.237274
0.855499 0.720917 0.244385
0.877350 0.727875 0.251312
0.883850 0.729919 0.253418
0.883850 0.729919 0.253418
0.096741 0.671356 0.122803
0.096741 0.671356 0.122803
0.096741 0.671356 0.122803
0.096741 0.671356 0.122803
0.107727 0.671356 0.122803
0.124420 0.671356 0.122864
0.141693 0.671356 0.122864
0.160065 0.671356 0.122864
0.179718 0.671356 0.122864
0.201141 0.671356 0.122864
0.224731 0.671356 0.122864
0.251343 0.672424 0.123535
0.286987 0.675507 0.131287
0.324921 0.679474 0.139038
0.365479 0.683197 0.147736
0.408173 0.687653 0.156372
0.453186 0.691772 0.166016
0.499023 0.694702 0.177216
0.544464 0.698242 0.188141
0.585358 0.700165 0.195374
0.620697 0.700165 0.195374
0.653748 0.700165 0.195374
0.683777 0.700165 0.195374
0.719116 0.708344 0.203552
0.752350 0.718140 0.213196
0.781769 0.726746 0.221832
0.808350 0.734772 0.229828
0.832642 0.742188 0.237274
0.855499 0.749176 0.244385
0.877350 0.755951 0.251312
0.883850 0.757843 0.253418
0.883850 0.757843 0.253418
0.102264 0.706665 0.129120
0.102264 0.706665 0.129120
0.102264 0.706665 0.129120
0.102264 0.706665 0.129120
0.113312 0.706665 0.129150
0.130035 0.706665 0.129181
0.147583 0.706665 0.129181
0.165924 0.706665 0.129181
0.185669 0.706665 0.129181
0.207245 0.706665 0.129181
0.230713 0.706665 0.129181
0.256958 0.706665 0.129181
0.291840 0.709900 0.135681
0.330017 0.714081 0.143280
0.371124 0.717957 0.151794
0.414368 0.721680 0.161102
0.459778 0.725128 0.171326
0.506439 0.729248 0.181366
0.552521 0.733063 0.192017
0.595673 0.735718 0.203735
0.632019 0.736389 0.205872
0.664886 0.736389 0.205872
0.694794 0.736389 0.205872
0.721497 0.736389 0.205872
0.752350 0.743530 0.213196
0.781769 0.752045 0.221832
0.808350 0.759949 0.229828
0.832642 0.767242 0.237274
0.855499 0.773987 0.244385
0.877350 0.780670 0.251312
0.883850 0.782623 0.253418
0.883850 0.782623 0.253418
0.107208 0.737579 0.134766
0.107208 0.737579 0.134766
0.107208 0.737579 0.134766
0.107208 0.737579 0.134766
0.118317 0.737579 0.134857
0.135101 0.737579 0.134827
0.152679 0.737579 0.134827
0.171234 0.737579 0.134827
0.191162 0.737579 0.134827
0.212677 0.737579 0.134827
0.236420 0.737579 0.134827
0.262787 0.737579 0.134827
0.296356 0.739777 0.139893
0.334808 0.744110 0.147339
0.375977 0.748199 0.155579
0.419739 0.752075 0.164795
0.465454 0.755676 0.174744
0.512604 0.759064 0.185455
0.559052 0.763123 0.195862
0.602997 0.765991 0.207336
0.642120 0.768066 0.215332
0.674774 0.768066 0.215332
0.704620 0.768066 0.215332
0.731201 0.768066 0.215332
0.754547 0.768066 0.215332
0.781769 0.774292 0.221832
0.808350 0.782104 0.229828
0.832642 0.789215 0.237274
0.855499 0.795990 0.244385
0.877350 0.802460 0.251312
0.883850 0.804443 0.253418
0.883850 0.804443 0.253418
0.111725 0.764923 0.139984
0.111725 0.764923 0.139984
0.111725 0.764923 0.139984
0.111725 0.764923 0.139984
0.122894 0.764923 0.139862
0.139801 0.764923 0.139954
0.157410 0.764923 0.139923
0.176086 0.764923 0.139923
0.196075 0.764923 0.139923
0.217773 0.764923 0.139923
0.241669 0.764923 0.139923
0.267822 0.764923 0.139923
0.299866 0.767242 0.142822
0.338806 0.770538 0.151031
0.380432 0.774750 0.159180
0.424347 0.777710 0.169128
0.470642 0.782562 0.178040
0.518158 0.786102 0.188568
0.564819 0.789368 0.199646
0.609070 0.792419 0.210968
0.650208 0.795288 0.222229
0.683655 0.796021 0.223846
0.713287 0.796021 0.223846
0.739746 0.796021 0.223846
0.763092 0.796021 0.223846
0.783783 0.796021 0.223846
0.808350 0.801636 0.229828
0.832642 0.808716 0.237274
0.855499 0.815460 0.244385
0.877350 0.821899 0.251312
0.883850 0.823853 0.253418
0.883850 0.823853 0.253418
0.115845 0.789551 0.144531
0.115845 0.789551 0.144531
0.115845 0.789551 0.144531
0.115845 0.789551 0.144531
0.127014 0.789551 0.144623
0.144073 0.789551 0.144653
0.161865 0.789551 0.144592
0.180359 0.789551 0.144592
0.200531 0.789551 0.144592
0.222260 0.789551 0.144592
0.246124 0.789551 0.144592
0.272614 0.789551 0.144592
0.303558 0.790741 0.146515
0.342804 0.794128 0.154724
0.384216 0.798492 0.162628
0.428680 0.802643 0.171509
0.475220 0.805511 0.182220
0.523193 0.810211 0.191589
0.570007 0.813660 0.202423
0.614685 0.816864 0.213593
0.656189 0.819885 0.224670
0.691681 0.821228 0.231659
0.721344 0.821228 0.231659
0.747742 0.821228 0.231659
0.770844 0.821228 0.231659
0.791443 0.821228 0.231659
0.810211 0.821228 0.231659
0.832642 0.826324 0.237274
0.855499 0.832977 0.244385
0.877350 0.839417 0.251312
0.883850 0.841187 0.253418
0.883850 0.841187 0.253418
0.119659 0.812103 0.148834
0.119659 0.812103 0.148834
0.119659 0.812103 0.148834
0.119659 0.812103 0.148834
0.131012 0.812103 0.148865
0.148010 0.812103 0.148865
0.165741 0.812103 0.148895
0.184540 0.812103 0.148895
0.204590 0.812103 0.148895
0.226624 0.812103 0.148895
0.250488 0.812103 0.148895
0.277069 0.812103 0.148895
0.307373 0.812103 0.150208
0.346069 0.816742 0.157074
0.388184 0.820068 0.166046
0.432556 0.824341 0.174744
0.479370 0.828369 0.184235
