src/assets/luts/大师配方/大师·兰.cube
#Generated with IWLTBAP LUT Generator
#Website: http://luts.iwltbap.com
TITLE "3"
#LUT size
LUT_3D_SIZE 4
#LUT data points
0.007843 0.000000 0.015686
0.321569 0.000000 0.003922
0.713725 0.000000 0.000000
0.941176 0.011765 0.000000
0.074510 0.333333 0.000000
0.356863 0.325490 0.000000
0.737255 0.329412 0.000000
0.952941 0.309804 0.000000
0.133333 0.690196 0.000000
0.380392 0.698039 0.000000
0.752941 0.682353 0.000000
0.972549 0.658824 0.000000
0.211765 0.933333 0.000000
0.392157 0.933333 0.000000
0.752941 0.937255 0.000000
0.964706 0.929412 0.000000
0.050980 0.000000 0.247059
0.282353 0.000000 0.274510
0.686275 0.000000 0.258824
0.929412 0.000000 0.250980
0.070588 0.247059 0.258824
0.301961 0.290196 0.317647
0.705882 0.282353 0.294118
0.949020 0.282353 0.282353
0.090196 0.643137 0.266667
0.258824 0.674510 0.305882
0.737255 0.670588 0.247059
0.972549 0.670588 0.309804
0.105882 0.905882 0.235294
0.309804 0.933333 0.258824
0.725490 0.937255 0.207843
0.968627 0.933333 0.196078
0.062745 0.000000 0.576471
0.207843 0.003922 0.592157
0.639216 0.000000 0.607843
0.941176 0.039216 0.592157
0.066667 0.137255 0.588235
0.168627 0.176471 0.623529
0.670588 0.239216 0.654902
0.960784 0.243137 0.643137
0.066667 0.560784 0.631373
0.074510 0.576471 0.635294
0.690196 0.686275 0.721569
0.968627 0.686275 0.709804
0.070588 0.870588 0.611765
0.086275 0.882353 0.627451
0.682353 0.960784 0.717647
0.964706 0.960784 0.686275
0.000000 0.000000 0.811765
0.098039 0.003922 0.831373
0.556863 0.043137 0.890196
0.905882 0.086275 0.913725
0.000000 0.007843 0.835294
0.000000 0.039216 0.850980
0.584314 0.121569 0.921569
0.937255 0.149020 0.937255
0.000000 0.458824 0.862745
0.000000 0.474510 0.878431
0.584314 0.592157 0.949020
0.956863 0.643137 0.972549
0.000000 0.823529 0.890196
0.000000 0.835294 0.886275
0.313725 0.898039 0.921569
0.968627 0.976471 0.984314
