src/assets/luts/大师配方/大师·驭.cube
#Created by: Adobe Photoshop Export Color Lookup Plugin
#Copyright: (C) Copyright 2025 aaa
TITLE "暗黑清冷发光.psd"
#LUT size
LUT_3D_SIZE 5
#data domain
#LUT data points
DOMAIN_MIN 0.000000 0.000000 0.000000
DOMAIN_MAX 0.903226 0.903226 0.903226
0.000000 0.000000 0.000000
0.069763 0.022095 0.024963
0.290955 0.083679 0.090729
0.638885 0.170776 0.181763
0.856232 0.232147 0.245148
0.011261 0.078247 0.017670
0.071228 0.081543 0.026367
0.290466 0.143555 0.090332
0.638214 0.233795 0.181091
0.855499 0.297302 0.244385
0.044037 0.301025 0.060364
0.103210 0.301025 0.060364
0.293884 0.314880 0.093323
0.638214 0.410767 0.181091
0.855499 0.480316 0.244385
0.090698 0.631287 0.115845
0.153503 0.631287 0.115845
0.359192 0.644440 0.142639
0.641052 0.659058 0.183716
0.855499 0.720917 0.244385
0.123352 0.833282 0.153076
0.188385 0.833282 0.153046
0.391815 0.840240 0.169373
0.703918 0.864288 0.241882
0.856934 0.865814 0.245941
0.024261 0.030060 0.091248
0.066925 0.014557 0.088043
0.288116 0.075348 0.148865
0.638885 0.170776 0.248596
0.856232 0.232147 0.313721
0.011261 0.078247 0.088043
0.080627 0.093353 0.104187
0.303894 0.156067 0.168213
0.652893 0.247314 0.261963
0.868774 0.311493 0.327515
0.044037 0.301025 0.130280
0.117584 0.318207 0.146576
0.306549 0.327850 0.170654
0.652008 0.424561 0.261078
0.867950 0.494812 0.326599
0.090698 0.631287 0.186615
0.168732 0.648865 0.203217
0.364990 0.654602 0.215820
0.654785 0.672119 0.263794
0.867950 0.733887 0.326599
0.123352 0.833282 0.224548
0.204132 0.848846 0.241577
0.395966 0.849884 0.242554
0.714569 0.874756 0.317413
0.869263 0.877411 0.328064
0.096405 0.110504 0.332092
0.145294 0.108734 0.331726
0.278046 0.052734 0.319489
0.621704 0.124481 0.396149
0.845612 0.195007 0.469269
0.092224 0.160706 0.331116
0.158722 0.177094 0.346130
0.294891 0.133392 0.337006
0.641968 0.214752 0.419403
0.863281 0.289764 0.496063
0.044037 0.301056 0.319489
0.117584 0.318207 0.337006
0.339691 0.363800 0.383026
0.689148 0.462585 0.480560
0.901123 0.533752 0.551178
0.090698 0.631287 0.379974
0.168732 0.648865 0.397705
0.400757 0.693848 0.444824
0.690704 0.706268 0.482269
0.900330 0.767212 0.550140
0.123352 0.833282 0.420807
0.204132 0.848846 0.438904
0.442749 0.888611 0.486786
0.739532 0.900818 0.524353
0.901306 0.907410 0.551392
0.202332 0.222809 0.670410
0.257996 0.222839 0.670410
0.375061 0.162354 0.658539
0.611145 0.104309 0.646576
0.823242 0.139526 0.684998
0.202332 0.280396 0.670410
0.271210 0.293976 0.683807
0.403442 0.257202 0.676971
0.629486 0.187653 0.663544
0.839691 0.224701 0.701660
0.140045 0.396179 0.657532
0.230865 0.424744 0.676056
0.468414 0.492981 0.718201
0.676544 0.425385 0.706970
0.885895 0.479034 0.750610
0.090698 0.631287 0.646576
0.168732 0.648926 0.663544
0.400757 0.693848 0.706970
0.736908 0.751404 0.762299
0.942902 0.811066 0.819427
0.123352 0.833282 0.684937
0.204132 0.848846 0.701630
0.442749 0.888611 0.743988
0.776001 0.939270 0.797943
0.942993 0.946411 0.819550
0.278809 0.301819 0.868439
0.337830 0.301788 0.868439
0.470581 0.259644 0.861572
0.653625 0.141632 0.841217
0.823303 0.139526 0.840851
0.278809 0.361847 0.868439
0.351837 0.376099 0.880096
0.505554 0.360016 0.877625
0.675354 0.235107 0.857483
0.839691 0.224701 0.855713
0.230652 0.489502 0.860352
0.328918 0.523834 0.876526
0.558014 0.580231 0.910034
0.734314 0.504089 0.899048
0.881744 0.467407 0.893768
0.123352 0.670990 0.840851
0.208618 0.690308 0.856506
0.474792 0.746887 0.898376
0.816742 0.827148 0.948364
0.935486 0.788544 0.942108
0.123352 0.833313 0.840851
0.204132 0.848877 0.855713
0.442749 0.888641 0.893768
0.776001 0.939270 0.942108
0.970154 0.971893 0.973236
