src/assets/luts/大师配方/大师·瞰.cube
#Created by: Adobe Photoshop Export Color Lookup Plugin
#Copyright: (C) Copyright 2026 aaa
TITLE "HG224大师滤镜.psd"
#LUT size
LUT_3D_SIZE 33
#data domain
DOMAIN_MIN 0.0 0.0 0.0
DOMAIN_MAX 1.0 1.0 1.0
#LUT data points
0.000000 0.000000 0.000000
0.035797 0.003632 0.000000
0.075806 0.007690 0.000000
0.117798 0.011688 0.000000
0.161133 0.015961 0.000000
0.205536 0.020081 0.000000
0.250580 0.024445 0.000000
0.296326 0.028656 0.000000
0.342438 0.033112 0.000000
0.388763 0.037292 0.000000
0.435394 0.041779 0.000000
0.482330 0.046021 0.000000
0.529785 0.050293 0.000000
0.577942 0.054840 0.000000
0.626892 0.059204 0.000000
0.677002 0.063934 0.000000
0.728210 0.068481 0.000000
0.780548 0.073364 0.000000
0.833710 0.078094 0.000000
0.887848 0.083099 0.000000
0.942780 0.087982 0.000000
0.998383 0.093109 0.000000
1.000000 0.137573 0.011536
1.000000 0.184113 0.079712
1.000000 0.230652 0.141815
1.000000 0.277252 0.200745
1.000000 0.322876 0.256958
1.000000 0.350555 0.290222
1.000000 0.375183 0.319580
1.000000 0.398621 0.346771
1.000000 0.420105 0.371857
1.000000 0.439697 0.394379
1.000000 0.457031 0.414520
0.000000 0.026733 0.000000
0.026489 0.035706 0.000000
0.074097 0.052795 0.000000
0.119171 0.056274 0.000000
0.162720 0.058533 0.000000
0.206482 0.062805 0.000000
0.250885 0.066986 0.000000
0.296326 0.071503 0.000000
0.342438 0.075897 0.000000
0.388763 0.080475 0.000000
0.435394 0.084778 0.000000
0.482330 0.089203 0.000000
0.529785 0.093750 0.000000
0.577942 0.098175 0.000000
0.626892 0.102966 0.000000
0.677002 0.107483 0.000000
0.728210 0.112427 0.000000
0.780548 0.117096 0.000000
0.833710 0.122131 0.000000
0.887848 0.127106 0.000000
0.942780 0.132324 0.000000
0.998383 0.137115 0.000000
1.000000 0.177979 0.011536
1.000000 0.221039 0.079712
1.000000 0.264160 0.141815
1.000000 0.307587 0.200745
1.000000 0.350250 0.256958
1.000000 0.376068 0.290222
1.000000 0.398987 0.319580
1.000000 0.420715 0.346771
1.000000 0.440887 0.371857
1.000000 0.459106 0.394379
1.000000 0.475861 0.414520
0.000000 0.055298 0.000000
0.014404 0.065948 0.000000
0.056183 0.073914 0.000000
0.106567 0.097809 0.000000
0.157379 0.109070 0.000000
0.206177 0.113953 0.000000
0.253448 0.116455 0.000000
0.300629 0.118591 0.000000
0.345764 0.121429 0.000000
0.391479 0.125610 0.000000
0.437469 0.130096 0.000000
0.483765 0.134216 0.000000
0.530548 0.138550 0.000000
0.578033 0.143127 0.000000
0.626892 0.147675 0.000000
0.677002 0.152527 0.000000
0.728210 0.157227 0.000000
0.780548 0.162354 0.000000
0.833710 0.167206 0.000000
0.887848 0.172394 0.000000
0.942780 0.177277 0.000000
0.998383 0.182678 0.000000
1.000000 0.219208 0.011536
1.000000 0.258392 0.079712
1.000000 0.297974 0.141815
1.000000 0.338257 0.200745
1.000000 0.378052 0.256958
1.000000 0.401764 0.290222
1.000000 0.422943 0.319580
1.000000 0.443024 0.346771
1.000000 0.462006 0.371857
1.000000 0.479126 0.394379
1.000000 0.494690 0.414520
0.000000 0.084686 0.000000
0.006042 0.090149 0.000000
0.042297 0.105835 0.000000
0.087341 0.113312 0.000000
0.141266 0.142120 0.000000
0.190582 0.156494 0.000000
0.244781 0.167236 0.000000
0.296875 0.172913 0.000000
0.345154 0.175995 0.000000
0.393250 0.178467 0.000000
0.441650 0.180786 0.000000
0.488495 0.182892 0.000000
0.535065 0.185760 0.000000
0.582550 0.190094 0.000000
0.630890 0.194550 0.000000
0.680267 0.199066 0.000000
0.730743 0.203827 0.000000
0.782318 0.208496 0.000000
0.834747 0.213409 0.000000
0.888000 0.218140 0.000000
0.942780 0.223389 0.000000
0.998383 0.228424 0.000000
1.000000 0.261230 0.011536
1.000000 0.296234 0.079712
1.000000 0.332397 0.141815
1.000000 0.369232 0.200745
1.000000 0.406128 0.256958
1.000000 0.427521 0.290222
1.000000 0.447113 0.319580
1.000000 0.465729 0.346771
1.000000 0.483337 0.371857
1.000000 0.499176 0.394379
1.000000 0.513916 0.414520
0.000000 0.114685 0.000000
0.000031 0.114716 0.000000
0.030304 0.136780 0.000000
0.071442 0.145386 0.000000
0.119385 0.153442 0.000000
0.179535 0.187958 0.000000
0.226746 0.203247 0.000000
0.279572 0.216583 0.000000
0.334503 0.226532 0.000000
0.388550 0.233002 0.000000
0.436829 0.236237 0.000000
0.485596 0.239136 0.000000
0.535889 0.241699 0.000000
0.587097 0.243805 0.000000
0.636078 0.246124 0.000000
0.685089 0.248627 0.000000
0.735382 0.252014 0.000000
0.786957 0.256531 0.000000
0.839386 0.261230 0.000000
0.892700 0.266296 0.000000
0.946960 0.271027 0.000000
1.000000 0.276886 0.000000
1.000000 0.305542 0.015198
1.000000 0.335938 0.081940
1.000000 0.367950 0.143158
1.000000 0.400696 0.201172
1.000000 0.434265 0.256958
1.000000 0.453766 0.290222
1.000000 0.471558 0.319580
1.000000 0.488495 0.346771
1.000000 0.504669 0.371857
1.000000 0.519409 0.394379
1.000000 0.532867 0.414520
0.000000 0.145142 0.000000
0.000000 0.145142 0.000000
0.020569 0.161926 0.000000
0.059387 0.178955 0.000000
0.105164 0.187836 0.000000
0.152283 0.194183 0.000000
0.218872 0.234924 0.000000
0.263214 0.249115 0.000000
0.314392 0.264069 0.000000
0.369720 0.276978 0.000000
0.425323 0.286713 0.000000
0.481781 0.293976 0.000000
0.531067 0.297394 0.000000
0.580383 0.300568 0.000000
0.632263 0.303589 0.000000
0.684814 0.306030 0.000000
0.739624 0.307861 0.000000
0.792511 0.310303 0.000000
0.844666 0.313416 0.000000
0.897644 0.316193 0.000000
0.951660 0.319977 0.000000
1.000000 0.327240 0.000000
1.000000 0.351196 0.021332
1.000000 0.377747 0.087280
1.000000 0.405884 0.148193
1.000000 0.435303 0.206116
1.000000 0.465698 0.261261
1.000000 0.482574 0.293518
1.000000 0.497681 0.321869
1.000000 0.512909 0.348694
1.000000 0.527008 0.372894
1.000000 0.540314 0.394989
1.000000 0.552368 0.414764
0.000000 0.175873 0.004974
0.000000 0.175873 0.000000
0.012543 0.186920 0.000000
0.046936 0.209656 0.000000
0.089813 0.219879 0.000000
0.139862 0.229614 0.000000
0.185608 0.235291 0.000000
0.253540 0.276794 0.000000
0.300232 0.295197 0.007111
0.351746 0.311432 0.006348
0.404144 0.325165 0.004150
0.459961 0.337311 0.000000
0.517303 0.347107 0.000000
0.574860 0.354523 0.000000
0.626892 0.358856 0.000000
0.679230 0.362305 0.000000
0.734009 0.365692 0.000000
0.787506 0.368561 0.000000
0.843445 0.371124 0.000000
0.901672 0.372955 0.000000
0.957703 0.375793 0.000000
1.000000 0.381653 0.000000
1.000000 0.398987 0.027740
1.000000 0.419403 0.092529
1.000000 0.443848 0.153198
1.000000 0.469910 0.211060
1.000000 0.497345 0.266357
1.000000 0.511719 0.298096
1.000000 0.525024 0.325928
1.000000 0.538177 0.352448
1.000000 0.550934 0.376434
1.000000 0.563049 0.398407
1.000000 0.574036 0.417847
0.000000 0.206879 0.016388
0.000000 0.206879 0.000000
0.005341 0.212585 0.000000
0.036865 0.234863 0.000000
0.076752 0.253815 0.000000
0.120728 0.260925 0.000000
0.175354 0.272278 0.000000
0.219513 0.276794 0.000000
0.287872 0.318359 0.007965
0.339600 0.341980 0.016907
0.388214 0.357788 0.019043
0.440430 0.372803 0.018097
0.495819 0.386841 0.012177
0.553223 0.398621 0.001190
0.613190 0.408722 0.000000
0.672028 0.416321 0.000000
0.729218 0.421539 0.000000
0.783936 0.425140 0.000000
0.837250 0.428650 0.000000
0.893768 0.431641 0.000000
0.953064 0.434540 0.000000
1.000000 0.438782 0.000000
1.000000 0.450897 0.035553
1.000000 0.466705 0.099640
1.000000 0.485657 0.159851
1.000000 0.506439 0.216888
1.000000 0.529541 0.271454
1.000000 0.540710 0.302429
1.000000 0.552094 0.330322
1.000000 0.563660 0.356354
1.000000 0.574738 0.380035
1.000000 0.585663 0.401886
1.000000 0.595581 0.420990
0.000000 0.237976 0.027069
0.000000 0.237976 0.000000
0.000000 0.237976 0.000000
0.027710 0.260437 0.000000
0.064270 0.283997 0.000000
0.108154 0.295471 0.000000
0.152161 0.302216 0.000000
0.211639 0.315216 0.003876
0.253662 0.318359 0.007965
0.322388 0.360046 0.016907
0.380310 0.389893 0.025421
0.426147 0.404480 0.029755
0.478516 0.420624 0.029449
0.532532 0.435059 0.028442
0.590363 0.448578 0.020050
0.649567 0.460266 0.010437
0.711426 0.470520 0.000000
0.774780 0.478699 0.000000
0.833282 0.483795 0.000000
0.889954 0.487976 0.000000
0.949188 0.491821 0.000000
1.000000 0.495117 0.000000
1.000000 0.502350 0.043121
1.000000 0.513397 0.106628
1.000000 0.528320 0.166473
1.000000 0.545502 0.223236
1.000000 0.564789 0.277740
1.000000 0.573242 0.308105
1.000000 0.581665 0.335175
1.000000 0.590424 0.360657
1.000000 0.599579 0.384003
1.000000 0.608246 0.405182
1.000000 0.616791 0.424255
0.000000 0.269135 0.037659
0.000000 0.269135 0.000000
0.000000 0.269135 0.000000
0.019623 0.286255 0.000000
0.053619 0.309509 0.000000
0.094940 0.328583 0.000000
0.139893 0.336639 0.000000
0.187805 0.345154 0.002747
0.248108 0.357880 0.014099
0.288025 0.360046 0.016907
0.357056 0.401794 0.025421
0.421387 0.437775 0.033600
0.463684 0.450653 0.040680
0.517242 0.467926 0.040070
0.571411 0.483490 0.039673
0.627655 0.497406 0.037567
0.688812 0.510956 0.027466
0.753052 0.523560 0.015289
0.816040 0.532867 0.004608
0.881287 0.541412 0.000000
0.942200 0.546967 0.000000
0.999023 0.551056 0.000000
1.000000 0.553345 0.050781
1.000000 0.559631 0.113220
1.000000 0.570129 0.172668
1.000000 0.583740 0.229828
1.000000 0.599854 0.284119
1.000000 0.605469 0.313507
1.000000 0.611725 0.340179
1.000000 0.618866 0.365204
1.000000 0.626099 0.388306
1.000000 0.633606 0.409485
1.000000 0.640839 0.428284
0.000000 0.300323 0.047607
0.000000 0.300323 0.006073
0.000000 0.300323 0.000000
0.011871 0.312073 0.000000
0.044006 0.335144 0.000000
0.082336 0.358521 0.000000
0.126892 0.370453 0.000000
0.171936 0.378143 0.000000
0.224060 0.388855 0.011963
0.284943 0.400665 0.023712
0.322571 0.401794 0.025421
0.392151 0.443756 0.033600
0.462830 0.485962 0.041290
0.504852 0.498199 0.049255
0.556915 0.515564 0.050476
0.612610 0.532074 0.049713
0.668610 0.546722 0.049713
0.730469 0.561768 0.042297
0.793518 0.574677 0.033478
0.859924 0.586700 0.020294
0.926117 0.596588 0.008270
0.991150 0.604645 0.000000
1.000000 0.603302 0.057709
1.000000 0.605377 0.120270
1.000000 0.611969 0.179535
1.000000 0.621735 0.236267
1.000000 0.634399 0.290253
1.000000 0.637268 0.319031
1.000000 0.641632 0.345459
1.000000 0.646667 0.370087
1.000000 0.652740 0.393097
1.000000 0.658295 0.413605
1.000000 0.664398 0.432220
0.000000 0.331635 0.057404
0.000000 0.331635 0.017273
0.000000 0.331635 0.000000
0.005188 0.337677 0.000000
0.035065 0.361023 0.000000
0.071350 0.384277 0.000000
0.113098 0.404602 0.000000
0.159027 0.412872 0.000000
0.203979 0.419220 0.010284
0.260468 0.431763 0.021545
0.321747 0.443481 0.032867
0.357361 0.443756 0.033600
0.427612 0.485962 0.041290
0.499329 0.528656 0.049255
0.547668 0.546936 0.057190
0.596985 0.562439 0.061188
0.654114 0.580414 0.060364
0.711456 0.595886 0.060394
0.772461 0.611938 0.057068
0.837646 0.626678 0.047455
0.903992 0.639923 0.035858
0.970978 0.650696 0.024780
1.000000 0.651947 0.060455
1.000000 0.650696 0.126190
1.000000 0.652863 0.186096
1.000000 0.659119 0.242523
1.000000 0.668396 0.296844
1.000000 0.668945 0.324402
1.000000 0.670776 0.350342
1.000000 0.674591 0.374939
1.000000 0.678528 0.397430
1.000000 0.683136 0.417725
1.000000 0.687866 0.436432
0.000000 0.363220 0.067047
0.000000 0.363220 0.028198
0.000000 0.363220 0.000000
0.000092 0.363342 0.000000
0.027191 0.386536 0.000000
0.061401 0.410187 0.000000
0.100616 0.433685 0.000000
0.145660 0.446838 0.000000
0.191437 0.454865 0.000000
0.236694 0.461426 0.021881
0.297119 0.475006 0.030731
0.357605 0.485962 0.041290
0.392517 0.485962 0.041290
0.463745 0.528656 0.049255
0.536652 0.571960 0.057190
0.591400 0.595825 0.065216
0.638580 0.610260 0.071289
0.695923 0.628479 0.071136
0.755768 0.646179 0.070160
0.816589 0.662415 0.069122
0.880676 0.677887 0.062531
0.947815 0.691772 0.051636
1.000000 0.699554 0.059479
1.000000 0.693451 0.125305
1.000000 0.692047 0.187775
1.000000 0.695862 0.247955
1.000000 0.701843 0.302887
1.000000 0.700287 0.329926
1.000000 0.700256 0.355377
1.000000 0.701721 0.379669
1.000000 0.704407 0.401855
1.000000 0.707581 0.422241
1.000000 0.711121 0.440430
0.000000 0.395142 0.076965
0.000000 0.395142 0.038544
0.000000 0.395142 0.000000
0.000000 0.395142 0.000000
0.019226 0.412964 0.000000
0.052063 0.436035 0.000000
0.089203 0.460876 0.000000
0.131714 0.481018 0.000000
0.178009 0.489380 0.000000
0.223877 0.497345 0.011169
0.272552 0.505096 0.030823
0.333862 0.519379 0.038483
0.392761 0.528656 0.049255
0.428162 0.528656 0.049255
0.500641 0.571960 0.057190
0.575165 0.616150 0.065216
0.636108 0.645660 0.073181
0.681793 0.658966 0.081268
0.740631 0.678467 0.080841
0.800415 0.696533 0.080078
0.862457 0.713409 0.078888
0.924957 0.729126 0.076630
0.992828 0.744507 0.066254
1.000000 0.736328 0.124664
1.000000 0.730835 0.187073
1.000000 0.730286 0.246857
1.000000 0.733704 0.305115
1.000000 0.731262 0.335480
1.000000 0.729553 0.360657
1.000000 0.729156 0.384277
1.000000 0.730194 0.406281
1.000000 0.732178 0.426544
1.000000 0.734344 0.444489
0.000000 0.427521 0.086517
0.000000 0.427521 0.048676
0.000000 0.427521 0.006866
0.000000 0.427521 0.000000
0.011871 0.439453 0.000000
0.042603 0.463470 0.000000
0.078857 0.486572 0.000000
0.118866 0.510345 0.000000
0.164246 0.524414 0.000000
0.210541 0.532501 0.000000
0.255859 0.540161 0.023285
0.308685 0.549194 0.039703
0.370636 0.562500 0.048553
0.428467 0.571960 0.057190
0.464478 0.571960 0.057190
0.538666 0.616150 0.065216
0.614807 0.661438 0.073181
0.681793 0.696259 0.081268
0.728333 0.709747 0.089325
0.784363 0.727966 0.091217
0.846832 0.747803 0.089752
0.908325 0.764648 0.089355
0.969757 0.780457 0.089294
1.000000 0.780243 0.123230
1.000000 0.770142 0.186340
1.000000 0.764984 0.245758
1.000000 0.764923 0.304016
1.000000 0.762726 0.340912
1.000000 0.758453 0.365601
1.000000 0.756165 0.389252
1.000000 0.755951 0.411133
1.000000 0.756165 0.430695
1.000000 0.757965 0.448547
0.000000 0.460785 0.096222
0.000000 0.460785 0.058838
0.000000 0.460785 0.018768
0.000000 0.460785 0.000000
0.004761 0.466736 0.000000
0.034302 0.489838 0.000000
0.068359 0.513947 0.000000
0.107056 0.537872 0.000000
0.149292 0.560028 0.000000
0.196533 0.568329 0.000000
0.242676 0.576324 0.013214
0.287781 0.582794 0.035675
0.345093 0.595642 0.046387
0.407898 0.607910 0.056885
0.464661 0.616150 0.065216
0.501587 0.616150 0.065216
0.577423 0.661438 0.073181
0.655151 0.707306 0.081268
0.728333 0.747894 0.089325
0.775543 0.761383 0.097198
0.829803 0.778748 0.101074
0.891815 0.798248 0.100281
0.954010 0.816284 0.099640
1.000000 0.824005 0.117249
1.000000 0.809692 0.184143
1.000000 0.800629 0.244507
1.000000 0.796753 0.302490
1.000000 0.793640 0.346649
1.000000 0.787537 0.371124
1.000000 0.783936 0.394104
1.000000 0.781860 0.415527
1.000000 0.781097 0.434998
1.000000 0.781219 0.452606
0.000000 0.494446 0.106201
0.000000 0.494446 0.069214
0.000000 0.494446 0.029907
0.000000 0.494446 0.000000
0.000000 0.494446 0.000000
0.025574 0.518280 0.000000
0.058929 0.541046 0.000000
0.095947 0.564880 0.000000
0.136444 0.589691 0.000000
0.181763 0.604034 0.000000
0.228424 0.613892 0.000000
0.274628 0.620422 0.025421
0.320129 0.626343 0.047760
0.381500 0.641022 0.055450
0.445770 0.654236 0.064697
0.501740 0.661438 0.073181
0.539490 0.661438 0.073181
0.616913 0.707306 0.081268
0.695984 0.753937 0.089325
0.775543 0.800262 0.097198
0.823578 0.814240 0.105255
0.875336 0.829742 0.111420
0.938354 0.850586 0.110321
0.999451 0.868439 0.110474
1.000000 0.849396 0.178009
1.000000 0.836609 0.241608
1.000000 0.829041 0.301117
1.000000 0.825043 0.352448
1.000000 0.817139 0.376343
1.000000 0.811646 0.398987
1.000000 0.807922 0.420227
1.000000 0.805695 0.439423
1.000000 0.804688 0.456757
0.000000 0.528748 0.115997
0.000000 0.528748 0.079437
0.000000 0.528748 0.040710
0.000000 0.528748 0.000000
0.000000 0.528748 0.000000
0.017883 0.545868 0.000000
0.049561 0.569458 0.000000
0.085266 0.592957 0.000000
0.124146 0.617432 0.000000
0.166718 0.640137 0.000000
0.213348 0.650726 0.000000
0.260315 0.658722 0.013306
0.306824 0.665710 0.036133
0.355499 0.672882 0.056366
0.418701 0.687531 0.063965
0.484344 0.700653 0.073578
0.539734 0.707306 0.081268
0.578217 0.707306 0.081268
0.657104 0.753937 0.089325
0.737274 0.801361 0.097198
0.819336 0.849304 0.105255
0.872101 0.867676 0.113373
0.921082 0.881805 0.121399
0.982971 0.902191 0.121185
1.000000 0.890320 0.170410
1.000000 0.872467 0.233948
1.000000 0.861511 0.295807
1.000000 0.855621 0.354095
1.000000 0.846375 0.381897
1.000000 0.838989 0.404236
1.000000 0.834045 0.424774
1.000000 0.830353 0.444000
1.000000 0.828186 0.460968
0.000000 0.563568 0.126068
0.000000 0.563568 0.089874
0.000000 0.563568 0.051758
0.000000 0.563568 0.010223
0.000000 0.563568 0.000000
0.010529 0.574219 0.000000
0.040131 0.598755 0.000000
0.074768 0.621948 0.000000
0.112640 0.646057 0.000000
0.153168 0.670135 0.000000
0.197998 0.687469 0.000000
0.244995 0.697266 0.000000
0.292450 0.704895 0.024811
0.339478 0.711151 0.047546
0.391815 0.720337 0.064148
0.456879 0.735016 0.071869
0.523804 0.747284 0.083374
0.578522 0.753937 0.089325
0.617706 0.753937 0.089325
0.697754 0.801361 0.097198
0.779266 0.849304 0.105255
0.862152 0.897858 0.113373
0.921082 0.921997 0.121399
0.970245 0.935974 0.129517
1.000000 0.932678 0.162872
1.000000 0.910126 0.227051
1.000000 0.894348 0.289032
1.000000 0.884460 0.347015
1.000000 0.875214 0.384521
1.000000 0.866913 0.409088
1.000000 0.859985 0.429871
1.000000 0.855194 0.448547
1.000000 0.851776 0.465424
0.000000 0.599121 0.136017
0.000000 0.599121 0.099976
0.000000 0.599121 0.062378
0.000000 0.599121 0.022217
0.000000 0.599121 0.000000
0.002716 0.604004 0.000000
0.031158 0.627838 0.000000
0.064331 0.651917 0.000000
0.101715 0.674500 0.000000
0.140381 0.699371 0.000000
0.182251 0.724182 0.000000
0.229279 0.734680 0.000000
0.277100 0.743835 0.012573
0.324982 0.749481 0.038055
0.372528 0.757507 0.058319
0.429260 0.767975 0.072784
0.495911 0.782410 0.081604
0.564606 0.795593 0.091949
0.617859 0.801361 0.097198
0.657715 0.801361 0.097198
0.739136 0.849304 0.105255
0.821503 0.897858 0.113373
0.904999 0.946533 0.121399
0.970245 0.976715 0.129517
1.000000 0.973999 0.158691
1.000000 0.948578 0.219360
1.000000 0.928253 0.281067
1.000000 0.914337 0.339813
1.000000 0.903687 0.384949
1.000000 0.893402 0.409607
1.000000 0.885406 0.432129
1.000000 0.879761 0.452576
1.000000 0.875397 0.469757
0.000000 0.634888 0.146088
0.000000 0.634888 0.110382
0.000000 0.634888 0.073303
0.000000 0.634888 0.034027
0.000000 0.634888 0.000000
0.000000 0.634888 0.000000
0.022919 0.657318 0.000000
0.055145 0.680511 0.000000
0.090088 0.705261 0.000000
0.128052 0.729584 0.000000
0.169495 0.752533 0.000000
0.213776 0.772675 0.000000
0.261871 0.782074 0.001038
0.310150 0.788879 0.026733
0.357971 0.797363 0.047638
0.406006 0.803650 0.070099
0.468048 0.817535 0.079987
0.535980 0.831696 0.089447
0.606110 0.844666 0.100555
0.657928 0.849304 0.105255
0.698456 0.849304 0.105255
0.780579 0.897858 0.113373
0.863953 0.946533 0.121399
0.947693 0.995544 0.129517
1.000000 1.000000 0.158691
1.000000 0.985321 0.217804
1.000000 0.963593 0.274292
1.000000 0.945374 0.332703
1.000000 0.932465 0.385742
1.000000 0.920258 0.410065
1.000000 0.910889 0.432739
1.000000 0.903625 0.453064
1.000000 0.898407 0.471191
0.000000 0.671021 0.156097
0.000000 0.671021 0.120728
0.000000 0.671021 0.083771
0.000000 0.671021 0.045288
0.000000 0.671021 0.002045
0.000000 0.671021 0.000000
0.014984 0.686523 0.000000
0.045593 0.710419 0.000000
0.079712 0.734253 0.000000
0.117157 0.758209 0.000000
0.156250 0.783112 0.000000
0.197754 0.808105 0.000000
0.245514 0.820251 0.000000
0.294006 0.830139 0.012878
0.342773 0.837463 0.036530
0.391724 0.845154 0.058289
0.440826 0.850159 0.082123
0.507843 0.868073 0.087280
0.577393 0.882019 0.096985
0.648712 0.894501 0.108826
0.698822 0.897858 0.113373
0.739624 0.897858 0.113373
0.822571 0.946533 0.121399
0.906128 0.995544 0.129517
0.971649 1.000000 0.158691
1.000000 1.000000 0.217804
1.000000 0.995667 0.274292
1.000000 0.976318 0.327484
1.000000 0.961090 0.379974
1.000000 0.947296 0.410706
1.000000 0.936279 0.433289
1.000000 0.927460 0.453552
1.000000 0.921265 0.471710
0.000000 0.707611 0.166290
0.000000 0.707611 0.131073
0.000000 0.707611 0.094574
0.000000 0.707611 0.056366
0.000000 0.707611 0.015381
0.000000 0.707611 0.000000
0.007141 0.716888 0.000000
0.036957 0.739960 0.000000
0.069458 0.764435 0.000000
0.105438 0.788757 0.000000
0.143555 0.813293 0.000000
0.185272 0.837463 0.000000
0.229370 0.859161 0.000000
0.277985 0.868774 0.001129
0.327332 0.877716 0.025146
0.376740 0.885101 0.047913
0.426544 0.891632 0.070984
0.479980 0.900421 0.089813
0.548615 0.916412 0.097321
0.619415 0.931366 0.106506
0.691315 0.943634 0.118744
0.739868 0.946533 0.121399
0.781128 0.946533 0.121399
0.864349 0.995544 0.129517
0.931641 1.000000 0.158691
0.968109 1.000000 0.217804
0.997314 1.000000 0.274292
1.000000 1.000000 0.327484
1.000000 0.988007 0.377167
1.000000 0.974579 0.411255
1.000000 0.961792 0.433777
1.000000 0.951874 0.454071
1.000000 0.943939 0.472198
0.000000 0.744080 0.176117
0.000000 0.744080 0.141083
0.000000 0.744080 0.104858
0.000000 0.744080 0.067383
0.000000 0.744080 0.027344
0.000000 0.744080 0.000000
0.000214 0.747101 0.000000
0.027679 0.770813 0.000000
0.059967 0.794281 0.000000
0.095245 0.817841 0.000000
0.132751 0.841248 0.000000
0.172180 0.867767 0.000000
0.215118 0.891083 0.000000
0.261414 0.907776 0.000000
0.311340 0.916229 0.014801
0.361267 0.925171 0.037354
0.411804 0.933411 0.059265
0.462006 0.940002 0.081665
0.520172 0.949829 0.098602
0.590179 0.966858 0.105255
0.662354 0.981201 0.115356
0.734772 0.992676 0.128540
0.781525 0.995544 0.129517
0.822876 0.995544 0.129517
0.891510 1.000000 0.158691
0.932007 1.000000 0.217804
0.964844 1.000000 0.274292
0.990723 1.000000 0.327484
1.000000 1.000000 0.377167
1.000000 0.998505 0.411255
1.000000 0.986053 0.434021
1.000000 0.975922 0.454651
1.000000 0.966919 0.472839
0.000000 0.780701 0.186127
0.000000 0.780701 0.151398
0.000000 0.780701 0.115509
0.000000 0.780701 0.078094
0.000000 0.780701 0.038910
0.000000 0.780701 0.000000
0.000000 0.780701 0.000000
0.019012 0.801056 0.000000
0.050354 0.825165 0.000000
0.084778 0.847778 0.000000
0.121552 0.871765 0.000000
0.159637 0.897217 0.000000
0.201660 0.921265 0.000000
0.245331 0.945221 0.000000
0.294952 0.956726 0.000488
0.344940 0.965454 0.025360
0.396271 0.973236 0.048859
0.447662 0.979797 0.072632
0.498505 0.988617 0.092499
0.561951 1.000000 0.106018
0.632904 1.000000 0.115448
0.704071 1.000000 0.131195
0.770691 1.000000 0.156860
0.812103 1.000000 0.158691
0.851746 1.000000 0.158691
0.896210 1.000000 0.217804
0.932617 1.000000 0.274292
0.961823 1.000000 0.327484
0.984680 1.000000 0.377167
1.000000 1.000000 0.411255
1.000000 1.000000 0.434021
1.000000 0.997131 0.454712
1.000000 0.988342 0.473083
0.000000 0.816650 0.195770
0.000000 0.816650 0.161011
0.000000 0.816650 0.125336
0.000000 0.816650 0.088531
0.000000 0.816650 0.049957
0.000000 0.816650 0.007629
0.000000 0.816650 0.000000
0.011108 0.830566 0.000000
0.041840 0.853607 0.000000
0.074341 0.878387 0.000000
0.110443 0.901337 0.000000
0.148621 0.925842 0.000000
0.188934 0.950195 0.000000
0.232117 0.974884 0.000000
0.278656 0.993561 0.000000
0.329559 1.000000 0.017090
0.380676 1.000000 0.038116
0.432373 1.000000 0.060852
0.484589 1.000000 0.086975
0.535858 1.000000 0.116730
0.602264 1.000000 0.143066
0.667694 1.000000 0.168549
0.730591 1.000000 0.193878
0.790253 1.000000 0.217804
0.825745 1.000000 0.217804
0.860931 1.000000 0.217804
0.900818 1.000000 0.274292
0.933197 1.000000 0.327484
0.958923 1.000000 0.377167
0.978821 1.000000 0.411255
0.994507 1.000000 0.434021
1.000000 1.000000 0.454712
1.000000 1.000000 0.473083
0.000000 0.851868 0.205383
0.000000 0.851868 0.170959
0.000000 0.851868 0.135498
0.000000 0.851868 0.098663
0.000000 0.851868 0.060791
0.000000 0.851868 0.019897
0.000000 0.851868 0.000000
0.004547 0.859344 0.000000
0.033356 0.882782 0.000000
0.064850 0.908173 0.000000
0.099945 0.931580 0.000000
0.137451 0.954834 0.000000
0.176300 0.979767 0.000000
0.218445 1.000000 0.000000
0.265381 1.000000 0.000000
0.319336 1.000000 0.025421
0.372650 1.000000 0.059204
0.425049 1.000000 0.090973
0.476135 1.000000 0.121399
0.525848 1.000000 0.151245
0.577148 1.000000 0.179199
0.639160 1.000000 0.204193
