src/assets/luts/大师配方/大师·兰.cube
#Generated with IWLTBAP LUT Generator
#Website: http://luts.iwltbap.com
TITLE "3"
#LUT size
LUT_3D_SIZE 64
#LUT data points
0.007843 0.000000 0.015686
0.019608 0.000000 0.015686
0.031373 0.000000 0.015686
0.039216 0.000000 0.015686
0.050980 0.000000 0.011765
0.062745 0.000000 0.011765
0.074510 0.000000 0.011765
0.090196 0.000000 0.011765
0.105882 0.000000 0.011765
0.121569 0.000000 0.011765
0.141176 0.000000 0.011765
0.156863 0.000000 0.007843
0.172549 0.000000 0.007843
0.188235 0.000000 0.007843
0.203922 0.000000 0.007843
0.219608 0.000000 0.003922
0.235294 0.000000 0.003922
0.250980 0.000000 0.003922
0.266667 0.000000 0.000000
0.282353 0.000000 0.003922
0.301961 0.000000 0.003922
0.321569 0.000000 0.003922
0.341176 0.000000 0.000000
0.360784 0.000000 0.000000
0.380392 0.000000 0.000000
0.400000 0.000000 0.000000
0.423529 0.000000 0.000000
0.447059 0.000000 0.000000
0.470588 0.000000 0.000000
0.490196 0.000000 0.000000
0.509804 0.000000 0.000000
0.533333 0.000000 0.000000
0.552941 0.000000 0.000000
0.568627 0.000000 0.000000
0.588235 0.000000 0.000000
0.607843 0.000000 0.000000
0.623529 0.000000 0.000000
0.639216 0.000000 0.000000
0.654902 0.000000 0.000000
0.670588 0.000000 0.000000
0.686275 0.000000 0.000000
0.698039 0.000000 0.000000
0.713725 0.000000 0.000000
0.725490 0.000000 0.000000
0.737255 0.000000 0.000000
0.752941 0.000000 0.000000
0.764706 0.000000 0.000000
0.780392 0.000000 0.000000
0.792157 0.000000 0.000000
0.807843 0.000000 0.000000
0.823529 0.000000 0.000000
0.835294 0.000000 0.000000
0.850980 0.000000 0.000000
0.858824 0.000000 0.000000
0.870588 0.000000 0.000000
0.882353 0.000000 0.000000
0.894118 0.000000 0.000000
0.905882 0.000000 0.000000
0.913725 0.000000 0.000000
0.925490 0.000000 0.000000
0.937255 0.003922 0.000000
0.941176 0.007843 0.000000
0.941176 0.007843 0.000000
0.941176 0.011765 0.000000
0.007843 0.011765 0.015686
0.015686 0.011765 0.011765
0.027451 0.011765 0.011765
0.035294 0.011765 0.011765
0.047059 0.011765 0.011765
0.062745 0.011765 0.011765
0.078431 0.011765 0.011765
0.090196 0.011765 0.011765
0.105882 0.011765 0.011765
0.125490 0.007843 0.011765
0.141176 0.007843 0.011765
0.156863 0.007843 0.007843
0.168627 0.007843 0.007843
0.184314 0.007843 0.007843
0.200000 0.007843 0.003922
0.219608 0.003922 0.007843
0.235294 0.003922 0.003922
0.250980 0.003922 0.003922
0.266667 0.003922 0.003922
0.282353 0.003922 0.000000
0.298039 0.000000 0.003922
0.317647 0.000000 0.003922
0.337255 0.000000 0.000000
0.356863 0.000000 0.000000
0.376471 0.000000 0.000000
0.400000 0.000000 0.000000
0.423529 0.000000 0.000000
0.447059 0.000000 0.000000
0.470588 0.000000 0.000000
0.490196 0.000000 0.000000
0.509804 0.000000 0.000000
0.533333 0.000000 0.000000
0.552941 0.000000 0.000000
0.568627 0.000000 0.000000
0.588235 0.000000 0.000000
0.603922 0.000000 0.000000
0.623529 0.000000 0.000000
0.639216 0.000000 0.000000
0.654902 0.000000 0.000000
0.670588 0.000000 0.000000
0.686275 0.000000 0.000000
0.701961 0.000000 0.000000
0.713725 0.000000 0.000000
0.725490 0.000000 0.000000
0.737255 0.000000 0.000000
0.752941 0.000000 0.000000
0.764706 0.000000 0.000000
0.780392 0.000000 0.000000
0.792157 0.000000 0.000000
0.807843 0.000000 0.000000
0.823529 0.000000 0.000000
0.835294 0.000000 0.000000
0.850980 0.000000 0.000000
0.858824 0.000000 0.000000
0.870588 0.000000 0.000000
0.882353 0.000000 0.000000
0.894118 0.003922 0.000000
0.905882 0.003922 0.000000
0.913725 0.003922 0.000000
0.925490 0.007843 0.000000
0.937255 0.011765 0.000000
0.941176 0.011765 0.000000
0.941176 0.015686 0.000000
0.941176 0.015686 0.000000
0.007843 0.023529 0.011765
0.015686 0.019608 0.011765
0.023529 0.019608 0.011765
0.035294 0.019608 0.011765
0.047059 0.019608 0.011765
0.058824 0.023529 0.011765
0.078431 0.023529 0.011765
0.090196 0.023529 0.007843
0.105882 0.023529 0.007843
0.125490 0.019608 0.011765
0.141176 0.015686 0.011765
0.156863 0.015686 0.007843
0.168627 0.015686 0.007843
0.184314 0.019608 0.007843
0.200000 0.015686 0.003922
0.215686 0.015686 0.003922
0.235294 0.011765 0.007843
0.250980 0.011765 0.003922
0.266667 0.011765 0.003922
0.282353 0.007843 0.003922
0.298039 0.003922 0.003922
0.313725 0.003922 0.000000
0.333333 0.003922 0.000000
0.352941 0.003922 0.000000
0.376471 0.003922 0.000000
0.396078 0.003922 0.000000
0.423529 0.003922 0.000000
0.447059 0.003922 0.000000
0.470588 0.003922 0.000000
0.490196 0.000000 0.000000
0.509804 0.000000 0.000000
0.533333 0.000000 0.000000
0.552941 0.000000 0.000000
0.568627 0.000000 0.000000
0.588235 0.000000 0.000000
0.603922 0.000000 0.000000
0.619608 0.000000 0.000000
0.639216 0.000000 0.000000
0.654902 0.000000 0.000000
0.670588 0.000000 0.000000
0.686275 0.000000 0.000000
0.698039 0.000000 0.000000
0.713725 0.000000 0.000000
0.725490 0.000000 0.000000
0.741176 0.000000 0.000000
0.752941 0.000000 0.000000
0.764706 0.000000 0.000000
0.780392 0.000000 0.000000
0.796078 0.000000 0.000000
0.807843 0.000000 0.000000
0.823529 0.000000 0.000000
0.835294 0.000000 0.000000
0.850980 0.003922 0.000000
0.858824 0.003922 0.000000
0.870588 0.007843 0.000000
0.882353 0.007843 0.000000
0.894118 0.011765 0.000000
0.905882 0.011765 0.000000
0.913725 0.011765 0.000000
0.925490 0.015686 0.000000
0.937255 0.015686 0.000000
0.941176 0.019608 0.000000
0.941176 0.023529 0.000000
0.941176 0.023529 0.000000
0.007843 0.031373 0.011765
0.015686 0.031373 0.007843
0.027451 0.027451 0.007843
0.031373 0.027451 0.007843
0.043137 0.027451 0.007843
0.058824 0.031373 0.007843
0.074510 0.031373 0.007843
0.090196 0.031373 0.007843
0.105882 0.031373 0.007843
0.125490 0.027451 0.007843
0.141176 0.023529 0.007843
0.156863 0.023529 0.007843
0.168627 0.023529 0.007843
0.184314 0.023529 0.007843
0.196078 0.023529 0.003922
0.215686 0.023529 0.003922
0.231373 0.019608 0.003922
0.250980 0.015686 0.007843
0.270588 0.015686 0.003922
0.282353 0.011765 0.003922
0.298039 0.007843 0.003922
0.313725 0.007843 0.003922
0.329412 0.003922 0.000000
0.349020 0.007843 0.000000
0.372549 0.007843 0.000000
0.396078 0.007843 0.000000
0.419608 0.007843 0.000000
0.447059 0.007843 0.000000
0.470588 0.007843 0.000000
0.490196 0.007843 0.000000
0.513725 0.007843 0.000000
0.533333 0.007843 0.000000
0.552941 0.007843 0.000000
0.572549 0.007843 0.000000
0.588235 0.007843 0.000000
0.603922 0.003922 0.000000
0.623529 0.003922 0.000000
0.639216 0.003922 0.000000
0.654902 0.000000 0.000000
0.670588 0.000000 0.000000
0.686275 0.000000 0.000000
0.701961 0.000000 0.000000
0.713725 0.000000 0.000000
0.725490 0.000000 0.000000
0.741176 0.000000 0.000000
0.752941 0.000000 0.000000
0.768627 0.003922 0.000000
0.780392 0.003922 0.000000
0.796078 0.003922 0.000000
0.811765 0.007843 0.000000
0.823529 0.007843 0.000000
0.839216 0.007843 0.000000
0.850980 0.011765 0.000000
0.858824 0.011765 0.000000
0.870588 0.015686 0.000000
0.882353 0.015686 0.000000
0.894118 0.019608 0.000000
0.901961 0.019608 0.000000
0.913725 0.019608 0.000000
0.925490 0.019608 0.000000
0.937255 0.023529 0.000000
0.941176 0.027451 0.000000
0.941176 0.027451 0.000000
0.941176 0.027451 0.000000
0.011765 0.043137 0.011765
0.019608 0.043137 0.007843
0.027451 0.043137 0.007843
0.035294 0.039216 0.007843
0.047059 0.039216 0.007843
0.062745 0.039216 0.007843
0.078431 0.043137 0.007843
0.094118 0.043137 0.007843
0.109804 0.047059 0.007843
0.121569 0.043137 0.007843
0.137255 0.039216 0.007843
0.156863 0.039216 0.007843
0.172549 0.039216 0.007843
0.184314 0.039216 0.007843
0.196078 0.039216 0.007843
0.215686 0.039216 0.003922
0.235294 0.039216 0.003922
0.250980 0.035294 0.003922
0.270588 0.031373 0.003922
0.286275 0.031373 0.003922
0.301961 0.027451 0.003922
0.317647 0.023529 0.000000
0.333333 0.023529 0.000000
0.352941 0.023529 0.000000
0.376471 0.023529 0.000000
0.400000 0.023529 0.000000
0.423529 0.027451 0.000000
0.447059 0.027451 0.000000
0.470588 0.027451 0.000000
0.490196 0.023529 0.000000
0.513725 0.023529 0.000000
0.533333 0.023529 0.000000
0.552941 0.023529 0.000000
0.572549 0.023529 0.000000
0.592157 0.023529 0.000000
0.607843 0.019608 0.000000
0.623529 0.019608 0.000000
0.639216 0.015686 0.000000
0.654902 0.015686 0.000000
0.670588 0.011765 0.000000
0.686275 0.011765 0.000000
0.701961 0.011765 0.000000
0.713725 0.011765 0.000000
0.729412 0.011765 0.000000
0.741176 0.011765 0.000000
0.756863 0.011765 0.000000
0.768627 0.015686 0.000000
0.780392 0.015686 0.000000
0.796078 0.015686 0.000000
0.811765 0.019608 0.000000
0.823529 0.019608 0.000000
0.839216 0.019608 0.000000
0.850980 0.019608 0.000000
0.862745 0.023529 0.000000
0.870588 0.023529 0.000000
0.882353 0.027451 0.000000
0.894118 0.027451 0.000000
0.901961 0.027451 0.000000
0.913725 0.027451 0.000000
0.925490 0.031373 0.000000
0.937255 0.031373 0.000000
0.941176 0.035294 0.000000
0.941176 0.039216 0.000000
0.941176 0.043137 0.000000
0.011765 0.058824 0.011765
0.023529 0.058824 0.007843
0.031373 0.054902 0.007843
0.039216 0.054902 0.007843
0.050980 0.054902 0.007843
0.062745 0.054902 0.007843
0.078431 0.054902 0.003922
0.094118 0.058824 0.003922
0.109804 0.058824 0.003922
0.125490 0.058824 0.003922
0.137255 0.054902 0.003922
0.152941 0.054902 0.007843
0.168627 0.054902 0.007843
0.184314 0.054902 0.007843
0.200000 0.054902 0.007843
0.215686 0.054902 0.003922
0.235294 0.058824 0.000000
0.254902 0.054902 0.000000
0.270588 0.050980 0.000000
0.290196 0.050980 0.000000
0.305882 0.047059 0.000000
0.321569 0.043137 0.000000
0.337255 0.043137 0.000000
0.356863 0.039216 0.000000
0.380392 0.039216 0.000000
0.400000 0.039216 0.000000
0.423529 0.043137 0.000000
0.447059 0.043137 0.000000
0.470588 0.043137 0.000000
0.494118 0.043137 0.000000
0.513725 0.043137 0.000000
0.533333 0.043137 0.000000
0.552941 0.039216 0.000000
0.572549 0.039216 0.000000
0.592157 0.039216 0.000000
0.611765 0.039216 0.000000
0.627451 0.039216 0.000000
0.643137 0.035294 0.000000
0.658824 0.031373 0.000000
0.674510 0.031373 0.000000
0.690196 0.027451 0.000000
0.701961 0.027451 0.000000
0.717647 0.027451 0.000000
0.729412 0.023529 0.000000
0.741176 0.027451 0.000000
0.756863 0.023529 0.000000
0.768627 0.027451 0.000000
0.780392 0.031373 0.000000
0.796078 0.031373 0.000000
0.807843 0.031373 0.000000
0.823529 0.031373 0.000000
0.839216 0.031373 0.000000
0.854902 0.031373 0.000000
0.862745 0.035294 0.000000
0.874510 0.035294 0.000000
0.882353 0.039216 0.000000
0.894118 0.039216 0.000000
0.905882 0.039216 0.000000
0.913725 0.043137 0.000000
0.925490 0.043137 0.000000
0.937255 0.043137 0.000000
0.941176 0.047059 0.000000
0.941176 0.050980 0.000000
0.941176 0.054902 0.000000
0.015686 0.074510 0.007843
0.027451 0.074510 0.007843
0.039216 0.070588 0.007843
0.043137 0.070588 0.007843
0.054902 0.070588 0.007843
0.066667 0.070588 0.007843
0.082353 0.066667 0.003922
0.094118 0.070588 0.003922
0.109804 0.070588 0.003922
0.125490 0.070588 0.003922
0.141176 0.070588 0.003922
0.152941 0.070588 0.003922
0.168627 0.070588 0.003922
0.184314 0.070588 0.007843
0.200000 0.070588 0.007843
0.215686 0.070588 0.003922
0.235294 0.074510 0.000000
0.254902 0.074510 0.000000
0.270588 0.070588 0.000000
0.290196 0.070588 0.000000
0.305882 0.066667 0.000000
0.325490 0.066667 0.000000
0.341176 0.062745 0.000000
0.360784 0.062745 0.000000
0.384314 0.058824 0.000000
0.403922 0.058824 0.000000
0.427451 0.058824 0.000000
0.447059 0.058824 0.000000
0.470588 0.062745 0.000000
0.494118 0.062745 0.000000
0.513725 0.058824 0.000000
0.533333 0.058824 0.000000
0.552941 0.058824 0.000000
0.572549 0.058824 0.000000
0.592157 0.058824 0.000000
0.611765 0.058824 0.000000
0.631373 0.058824 0.000000
0.647059 0.054902 0.000000
0.662745 0.050980 0.000000
0.674510 0.050980 0.000000
0.690196 0.047059 0.000000
0.701961 0.047059 0.000000
0.717647 0.047059 0.000000
0.729412 0.043137 0.000000
0.745098 0.043137 0.000000
0.756863 0.043137 0.000000
0.768627 0.043137 0.000000
0.784314 0.047059 0.000000
0.796078 0.050980 0.000000
0.811765 0.050980 0.000000
0.823529 0.050980 0.000000
0.839216 0.050980 0.000000
0.854902 0.047059 0.000000
0.866667 0.050980 0.000000
0.874510 0.050980 0.000000
0.886275 0.054902 0.000000
0.898039 0.054902 0.000000
0.905882 0.054902 0.000000
0.913725 0.054902 0.000000
0.925490 0.058824 0.000000
0.937255 0.058824 0.000000
0.941176 0.062745 0.000000
0.941176 0.062745 0.000000
0.941176 0.066667 0.000000
0.015686 0.090196 0.007843
0.027451 0.090196 0.007843
0.039216 0.086275 0.007843
0.050980 0.086275 0.007843
0.062745 0.086275 0.007843
0.074510 0.082353 0.007843
0.086275 0.082353 0.003922
0.098039 0.082353 0.003922
0.113725 0.082353 0.003922
0.125490 0.082353 0.003922
0.141176 0.082353 0.000000
0.156863 0.082353 0.000000
0.168627 0.086275 0.003922
0.184314 0.086275 0.003922
0.200000 0.086275 0.007843
0.219608 0.086275 0.007843
0.235294 0.086275 0.003922
0.254902 0.090196 0.000000
0.274510 0.090196 0.000000
0.290196 0.090196 0.000000
0.305882 0.086275 0.000000
0.325490 0.086275 0.000000
0.345098 0.082353 0.000000
0.364706 0.082353 0.000000
0.384314 0.082353 0.000000
0.403922 0.078431 0.000000
0.427451 0.078431 0.000000
0.450980 0.078431 0.000000
0.470588 0.078431 0.000000
0.494118 0.078431 0.000000
0.513725 0.078431 0.000000
0.533333 0.078431 0.000000
0.552941 0.074510 0.000000
0.572549 0.074510 0.000000
0.592157 0.074510 0.000000
0.611765 0.074510 0.000000
0.631373 0.074510 0.000000
0.647059 0.074510 0.000000
0.658824 0.070588 0.000000
0.674510 0.066667 0.000000
0.690196 0.066667 0.000000
0.705882 0.066667 0.000000
0.717647 0.062745 0.000000
0.733333 0.062745 0.000000
0.745098 0.062745 0.000000
0.756863 0.058824 0.000000
0.768627 0.062745 0.000000
0.780392 0.062745 0.000000
0.792157 0.066667 0.000000
0.807843 0.066667 0.000000
0.823529 0.066667 0.000000
0.839216 0.066667 0.000000
0.854902 0.062745 0.000000
0.866667 0.066667 0.000000
0.878431 0.066667 0.000000
0.886275 0.066667 0.000000
0.898039 0.066667 0.000000
0.905882 0.066667 0.000000
0.913725 0.070588 0.000000
0.921569 0.070588 0.000000
0.933333 0.070588 0.000000
0.941176 0.070588 0.000000
0.941176 0.074510 0.000000
0.941176 0.074510 0.000000
0.019608 0.109804 0.007843
0.031373 0.109804 0.007843
0.043137 0.109804 0.007843
0.054902 0.109804 0.007843
0.066667 0.105882 0.007843
0.078431 0.105882 0.003922
0.090196 0.105882 0.003922
0.105882 0.105882 0.000000
0.117647 0.101961 0.000000
0.133333 0.101961 0.000000
0.149020 0.105882 0.000000
0.164706 0.101961 0.000000
0.176471 0.101961 0.000000
0.192157 0.105882 0.000000
0.207843 0.105882 0.000000
0.223529 0.105882 0.003922
0.243137 0.105882 0.000000
0.258824 0.109804 0.000000
0.278431 0.109804 0.000000
0.298039 0.109804 0.000000
0.313725 0.109804 0.000000
0.333333 0.105882 0.000000
0.352941 0.105882 0.000000
0.372549 0.105882 0.000000
0.392157 0.105882 0.000000
0.415686 0.101961 0.000000
0.439216 0.098039 0.000000
0.462745 0.098039 0.000000
0.482353 0.098039 0.000000
0.505882 0.098039 0.000000
0.525490 0.098039 0.000000
0.545098 0.094118 0.000000
0.564706 0.094118 0.000000
0.580392 0.094118 0.000000
0.600000 0.098039 0.000000
0.619608 0.094118 0.000000
0.635294 0.094118 0.000000
0.650980 0.094118 0.000000
0.666667 0.090196 0.000000
0.678431 0.090196 0.000000
0.694118 0.086275 0.000000
0.709804 0.086275 0.000000
0.725490 0.086275 0.000000
0.741176 0.082353 0.000000
0.752941 0.082353 0.000000
0.760784 0.082353 0.000000
0.772549 0.078431 0.000000
0.784314 0.082353 0.000000
0.796078 0.082353 0.000000
0.811765 0.086275 0.000000
0.827451 0.086275 0.000000
0.843137 0.086275 0.000000
0.858824 0.082353 0.000000
0.870588 0.082353 0.000000
0.882353 0.086275 0.000000
0.894118 0.086275 0.000000
0.905882 0.086275 0.000000
0.913725 0.086275 0.000000
0.921569 0.090196 0.000000
0.925490 0.090196 0.000000
0.937255 0.090196 0.000000
0.941176 0.090196 0.000000
0.941176 0.094118 0.000000
0.941176 0.098039 0.000000
0.023529 0.125490 0.003922
0.031373 0.129412 0.003922
0.043137 0.129412 0.003922
0.054902 0.125490 0.003922
0.066667 0.125490 0.003922
0.082353 0.125490 0.003922
0.094118 0.121569 0.003922
0.109804 0.121569 0.000000
0.121569 0.121569 0.000000
0.137255 0.121569 0.000000
0.152941 0.121569 0.000000
0.164706 0.121569 0.000000
0.180392 0.121569 0.000000
0.192157 0.117647 0.000000
0.207843 0.121569 0.000000
0.223529 0.121569 0.000000
0.243137 0.121569 0.000000
0.258824 0.121569 0.000000
0.278431 0.125490 0.000000
0.298039 0.125490 0.000000
0.317647 0.129412 0.000000
0.333333 0.125490 0.000000
0.352941 0.125490 0.000000
0.372549 0.125490 0.000000
0.392157 0.125490 0.000000
0.411765 0.121569 0.000000
0.435294 0.117647 0.000000
0.462745 0.117647 0.000000
0.486275 0.117647 0.000000
0.505882 0.113725 0.000000
0.525490 0.113725 0.000000
0.545098 0.113725 0.000000
0.564706 0.113725 0.000000
0.584314 0.113725 0.000000
0.600000 0.113725 0.000000
0.615686 0.113725 0.000000
0.635294 0.113725 0.000000
0.650980 0.109804 0.000000
0.666667 0.109804 0.000000
0.678431 0.105882 0.000000
0.694118 0.105882 0.000000
0.709804 0.105882 0.000000
0.725490 0.105882 0.000000
0.741176 0.101961 0.000000
0.752941 0.101961 0.000000
0.764706 0.101961 0.000000
0.776471 0.098039 0.000000
0.784314 0.098039 0.000000
0.800000 0.098039 0.000000
0.815686 0.098039 0.000000
0.831373 0.098039 0.000000
0.843137 0.098039 0.000000
0.858824 0.098039 0.000000
0.870588 0.098039 0.000000
0.882353 0.101961 0.000000
0.894118 0.101961 0.000000
0.905882 0.101961 0.000000
0.917647 0.101961 0.000000
0.921569 0.101961 0.000000
0.929412 0.105882 0.000000
0.937255 0.105882 0.000000
0.941176 0.105882 0.000000
0.941176 0.109804 0.000000
0.941176 0.109804 0.000000
0.027451 0.137255 0.003922
0.035294 0.141176 0.000000
0.043137 0.145098 0.000000
0.054902 0.145098 0.000000
0.070588 0.145098 0.000000
0.082353 0.141176 0.000000
0.098039 0.141176 0.000000
0.109804 0.141176 0.000000
0.125490 0.141176 0.000000
0.141176 0.137255 0.000000
0.152941 0.137255 0.000000
0.168627 0.137255 0.000000
0.180392 0.137255 0.000000
0.192157 0.137255 0.000000
0.207843 0.133333 0.000000
0.223529 0.137255 0.000000
0.243137 0.137255 0.000000
0.262745 0.141176 0.000000
0.282353 0.141176 0.000000
0.298039 0.145098 0.000000
0.317647 0.145098 0.000000
0.333333 0.145098 0.000000
0.352941 0.145098 0.000000
0.372549 0.145098 0.000000
0.392157 0.145098 0.000000
0.411765 0.141176 0.000000
0.435294 0.141176 0.000000
0.458824 0.137255 0.000000
0.486275 0.133333 0.000000
0.505882 0.133333 0.000000
0.525490 0.133333 0.000000
0.549020 0.129412 0.000000
0.568627 0.129412 0.000000
0.584314 0.129412 0.000000
0.600000 0.129412 0.000000
0.619608 0.129412 0.000000
0.635294 0.129412 0.000000
0.650980 0.129412 0.000000
0.662745 0.125490 0.000000
0.678431 0.125490 0.000000
0.694118 0.121569 0.000000
0.709804 0.121569 0.000000
0.725490 0.121569 0.000000
0.741176 0.121569 0.000000
0.756863 0.117647 0.000000
0.768627 0.117647 0.000000
0.776471 0.117647 0.000000
0.788235 0.113725 0.000000
0.800000 0.113725 0.000000
0.815686 0.113725 0.000000
0.831373 0.113725 0.000000
0.847059 0.113725 0.000000
0.858824 0.113725 0.000000
0.870588 0.113725 0.000000
0.882353 0.113725 0.000000
0.894118 0.117647 0.000000
0.905882 0.117647 0.000000
0.917647 0.117647 0.000000
0.925490 0.117647 0.000000
0.929412 0.117647 0.000000
0.937255 0.117647 0.000000
0.941176 0.117647 0.000000
0.941176 0.121569 0.000000
0.941176 0.125490 0.000000
0.027451 0.152941 0.000000
0.039216 0.156863 0.000000
0.047059 0.160784 0.000000
0.058824 0.160784 0.000000
0.070588 0.156863 0.000000
0.082353 0.156863 0.000000
0.098039 0.156863 0.000000
0.113725 0.156863 0.000000
0.125490 0.156863 0.000000
0.141176 0.156863 0.000000
0.156863 0.152941 0.000000
0.168627 0.152941 0.000000
0.180392 0.149020 0.000000
0.196078 0.149020 0.000000
0.211765 0.149020 0.000000
0.227451 0.152941 0.000000
0.247059 0.152941 0.000000
0.266667 0.156863 0.000000
0.282353 0.156863 0.000000
0.298039 0.156863 0.000000
0.317647 0.160784 0.000000
0.333333 0.160784 0.000000
0.356863 0.160784 0.000000
0.376471 0.160784 0.000000
0.396078 0.160784 0.000000
0.415686 0.160784 0.000000
0.435294 0.156863 0.000000
0.458824 0.156863 0.000000
0.486275 0.152941 0.000000
0.505882 0.152941 0.000000
0.525490 0.149020 0.000000
0.545098 0.149020 0.000000
0.568627 0.149020 0.000000
0.584314 0.145098 0.000000
0.600000 0.145098 0.000000
0.619608 0.145098 0.000000
0.635294 0.145098 0.000000
0.650980 0.145098 0.000000
0.662745 0.145098 0.000000
0.678431 0.141176 0.000000
0.694118 0.141176 0.000000
0.709804 0.141176 0.000000
0.725490 0.141176 0.000000
0.741176 0.137255 0.000000
0.756863 0.137255 0.000000
0.768627 0.133333 0.000000
0.780392 0.129412 0.000000
0.788235 0.129412 0.000000
0.800000 0.129412 0.000000
0.815686 0.129412 0.000000
0.831373 0.129412 0.000000
0.847059 0.129412 0.000000
0.858824 0.125490 0.000000
0.870588 0.129412 0.000000
0.882353 0.129412 0.000000
0.894118 0.129412 0.000000
0.905882 0.129412 0.000000
0.913725 0.129412 0.000000
0.925490 0.129412 0.000000
0.929412 0.129412 0.000000
0.937255 0.129412 0.000000
0.941176 0.133333 0.000000
0.941176 0.133333 0.000000
0.941176 0.137255 0.000000
0.031373 0.168627 0.000000
0.039216 0.172549 0.000000
0.047059 0.176471 0.000000
0.058824 0.172549 0.000000
0.074510 0.172549 0.000000
0.086275 0.168627 0.000000
0.098039 0.168627 0.000000
0.113725 0.168627 0.000000
0.129412 0.172549 0.000000
0.141176 0.172549 0.000000
0.156863 0.172549 0.000000
0.172549 0.168627 0.000000
0.184314 0.164706 0.000000
0.200000 0.164706 0.000000
0.211765 0.164706 0.000000
0.231373 0.168627 0.000000
0.247059 0.168627 0.000000
0.266667 0.172549 0.000000
0.282353 0.172549 0.000000
0.301961 0.172549 0.000000
0.317647 0.172549 0.000000
0.333333 0.176471 0.000000
0.356863 0.176471 0.000000
0.376471 0.176471 0.000000
0.396078 0.176471 0.000000
0.415686 0.176471 0.000000
0.439216 0.172549 0.000000
0.458824 0.172549 0.000000
0.482353 0.168627 0.000000
0.505882 0.168627 0.000000
0.525490 0.168627 0.000000
0.545098 0.168627 0.000000
0.564706 0.164706 0.000000
0.584314 0.164706 0.000000
0.600000 0.160784 0.000000
0.615686 0.160784 0.000000
0.635294 0.160784 0.000000
0.650980 0.160784 0.000000
0.666667 0.160784 0.000000
0.678431 0.156863 0.000000
0.694118 0.156863 0.000000
0.709804 0.156863 0.000000
0.725490 0.156863 0.000000
0.741176 0.156863 0.000000
0.756863 0.152941 0.000000
0.768627 0.149020 0.000000
0.780392 0.149020 0.000000
0.792157 0.145098 0.000000
0.803922 0.145098 0.000000
0.815686 0.141176 0.000000
0.831373 0.141176 0.000000
0.847059 0.141176 0.000000
0.862745 0.141176 0.000000
0.870588 0.141176 0.000000
0.882353 0.145098 0.000000
0.894118 0.145098 0.000000
0.905882 0.145098 0.000000
0.913725 0.145098 0.000000
0.921569 0.145098 0.000000
0.929412 0.145098 0.000000
0.937255 0.145098 0.000000
0.945098 0.145098 0.000000
0.945098 0.145098 0.000000
0.945098 0.149020 0.000000
0.035294 0.184314 0.000000
0.039216 0.188235 0.000000
0.047059 0.188235 0.000000
0.062745 0.188235 0.000000
0.074510 0.184314 0.000000
0.086275 0.184314 0.000000
0.101961 0.184314 0.000000
0.113725 0.184314 0.000000
0.129412 0.188235 0.000000
0.145098 0.188235 0.000000
0.160784 0.188235 0.000000
0.172549 0.184314 0.000000
0.188235 0.184314 0.000000
0.200000 0.180392 0.000000
0.215686 0.180392 0.000000
0.231373 0.184314 0.000000
0.250980 0.184314 0.000000
0.270588 0.188235 0.000000
0.286275 0.188235 0.000000
0.301961 0.188235 0.000000
0.317647 0.188235 0.000000
0.337255 0.188235 0.000000
0.356863 0.192157 0.000000
0.376471 0.192157 0.000000
0.400000 0.192157 0.000000
0.419608 0.192157 0.000000
0.439216 0.192157 0.000000
0.462745 0.188235 0.000000
0.482353 0.188235 0.000000
0.505882 0.184314 0.000000
0.525490 0.184314 0.000000
0.545098 0.184314 0.000000
0.560784 0.184314 0.000000
0.580392 0.180392 0.000000
0.596078 0.180392 0.000000
0.615686 0.176471 0.000000
0.631373 0.176471 0.000000
0.647059 0.176471 0.000000
0.662745 0.176471 0.000000
0.678431 0.172549 0.000000
0.694118 0.172549 0.000000
0.709804 0.172549 0.000000
0.725490 0.172549 0.000000
0.741176 0.172549 0.000000
0.756863 0.168627 0.000000
0.768627 0.164706 0.000000
0.780392 0.164706 0.000000
0.792157 0.160784 0.000000
0.803922 0.156863 0.000000
0.819608 0.156863 0.000000
0.831373 0.156863 0.000000
0.847059 0.156863 0.000000
