src/assets/luts/大师配方/大师·暮.cube
#Created by: Adobe Photoshop Export Color Lookup Plugin
#Copyright: (C) Copyright 2025 avin.hua
TITLE "大师-幕-傍晚"
#LUT size
LUT_3D_SIZE 32
#data domain
DOMAIN_MIN 0.0 0.0 0.0
DOMAIN_MAX 1.0 1.0 1.0
#LUT data points
0.023346 0.007996 0.000000
0.055359 0.005249 0.000000
0.085175 0.001770 0.000000
0.115082 0.000000 0.000000
0.145660 0.000000 0.000000
0.177307 0.000000 0.000000
0.210693 0.000000 0.000000
0.246155 0.000000 0.000000
0.283966 0.000000 0.000000
0.323944 0.000000 0.000000
0.365845 0.000000 0.000000
0.409576 0.000000 0.000000
0.454224 0.000000 0.000000
0.499847 0.000000 0.000000
0.545959 0.000000 0.000000
0.591919 0.000000 0.000000
0.637817 0.000000 0.000000
0.683014 0.000000 0.000000
0.727051 0.000000 0.000000
0.769897 0.000000 0.000000
0.810883 0.000000 0.000000
0.850006 0.000000 0.000000
0.886536 0.000000 0.000000
0.920013 0.000000 0.000000
0.951233 0.000000 0.000000
0.979919 0.000000 0.000000
1.000000 0.000000 0.000000
1.000000 0.000000 0.000000
1.000000 0.000000 0.000000
1.000000 0.000000 0.000000
1.000000 0.000000 0.000000
1.000000 0.000000 0.000000
0.017212 0.033630 0.000000
0.051697 0.033630 0.000000
0.083252 0.028717 0.000000
0.113037 0.023773 0.000000
0.143555 0.018066 0.000000
0.175598 0.010529 0.000000
0.209290 0.001129 0.000000
0.244995 0.000000 0.000000
0.283020 0.000000 0.000000
0.323120 0.000000 0.000000
0.365173 0.000000 0.000000
0.408966 0.000000 0.000000
0.453735 0.000000 0.000000
0.499390 0.000000 0.000000
0.545532 0.000000 0.000000
0.591553 0.000000 0.000000
0.637482 0.000000 0.000000
0.682709 0.000000 0.000000
0.726776 0.000000 0.000000
0.769684 0.000000 0.000000
0.810638 0.000000 0.000000
0.849792 0.000000 0.000000
0.886322 0.000000 0.000000
0.919830 0.000000 0.000000
0.951050 0.000000 0.000000
0.979736 0.000000 0.000000
1.000000 0.000000 0.000000
1.000000 0.000000 0.000000
1.000000 0.000000 0.000000
1.000000 0.000000 0.000000
1.000000 0.000000 0.000000
1.000000 0.000000 0.000000
0.009399 0.059052 0.000000
0.039551 0.059814 0.000000
0.080048 0.059875 0.000000
0.113098 0.054260 0.000000
0.144012 0.048401 0.000000
0.175690 0.041718 0.000000
0.208954 0.033295 0.000000
0.243774 0.021881 0.000000
0.281586 0.007202 0.000000
0.322144 0.000000 0.000000
0.364349 0.000000 0.000000
0.408112 0.000000 0.000000
0.453125 0.000000 0.000000
0.498840 0.000000 0.000000
0.545074 0.000000 0.000000
0.591125 0.000000 0.000000
0.637085 0.000000 0.000000
0.682373 0.000000 0.000000
0.726471 0.000000 0.000000
0.769409 0.000000 0.000000
0.810394 0.000000 0.000000
0.849548 0.000000 0.000000
0.886078 0.000000 0.000000
0.919617 0.000000 0.000000
0.950867 0.000000 0.000000
0.979523 0.000000 0.000000
1.000000 0.000000 0.000000
1.000000 0.000000 0.000000
1.000000 0.000000 0.000000
1.000000 0.000000 0.000000
1.000000 0.000000 0.000000
1.000000 0.000000 0.000000
0.000000 0.084900 0.000000
0.026703 0.084991 0.000000
0.068054 0.087769 0.000000
0.108551 0.086670 0.000000
0.143707 0.081085 0.000000
0.176208 0.074310 0.000000
0.209900 0.067017 0.000000
0.245209 0.058502 0.000000
0.282257 0.047424 0.000000
0.321869 0.032227 0.000000
0.363190 0.011078 0.000000
0.407043 0.000000 0.000000
0.452271 0.000000 0.000000
0.498138 0.000000 0.000000
0.544342 0.000000 0.000000
0.590546 0.000000 0.000000
0.636597 0.000000 0.000000
0.681915 0.000000 0.000000
0.726074 0.000000 0.000000
0.769012 0.000000 0.000000
0.810028 0.000000 0.000000
0.849030 0.000000 0.000000
0.885681 0.000000 0.000000
0.919312 0.000000 0.000000
0.950592 0.000000 0.000000
0.979279 0.000000 0.000000
1.000000 0.000000 0.000000
1.000000 0.000000 0.000000
1.000000 0.000000 0.000000
1.000000 0.000000 0.000000
1.000000 0.000000 0.000000
1.000000 0.000000 0.000000
0.000000 0.111633 0.000000
0.011261 0.110962 0.000000
0.051331 0.114075 0.000000
0.097534 0.116638 0.000000
0.137817 0.114502 0.000000
0.174774 0.108826 0.000000
0.210175 0.101501 0.000000
0.246094 0.093567 0.000000
0.283600 0.084534 0.000000
0.323822 0.073364 0.000000
0.365356 0.058929 0.000000
0.407837 0.039276 0.000000
0.451874 0.009857 0.000000
0.497131 0.000000 0.000000
0.543335 0.000000 0.000000
0.589783 0.000000 0.000000
0.635925 0.000000 0.000000
0.681305 0.000000 0.000000
0.725494 0.000000 0.000000
0.768494 0.000000 0.000000
0.809540 0.000000 0.000000
0.848572 0.000000 0.000000
0.885132 0.000000 0.000000
0.918945 0.000000 0.000000
0.950226 0.000000 0.000000
0.978912 0.000000 0.000000
1.000000 0.000000 0.000000
1.000000 0.000000 0.000000
1.000000 0.000000 0.000000
1.000000 0.000000 0.000000
1.000000 0.000000 0.000000
1.000000 0.000000 0.000000
0.000000 0.139954 0.000000
0.000000 0.139435 0.000000
0.029755 0.141541 0.000000
0.079926 0.144501 0.000000
0.126740 0.146362 0.000000
0.168701 0.143890 0.000000
0.207672 0.137939 0.000000
0.245850 0.130219 0.000000
0.284241 0.121613 0.000000
0.324554 0.112030 0.000000
0.366974 0.100555 0.000000
0.409790 0.087006 0.000000
0.454254 0.068726 0.000000
0.499268 0.043457 0.000000
0.543121 0.007050 0.000000
0.588745 0.000000 0.000000
0.635010 0.000000 0.000000
0.680481 0.000000 0.000000
0.724731 0.000000 0.000000
0.767792 0.000000 0.000000
0.808929 0.000000 0.000000
0.847961 0.000000 0.000000
0.884583 0.000000 0.000000
0.918427 0.000000 0.000000
0.949738 0.000000 0.000000
0.978455 0.000000 0.000000
1.000000 0.000000 0.000000
1.000000 0.000000 0.000000
1.000000 0.000000 0.000000
1.000000 0.000000 0.000000
1.000000 0.000000 0.000000
1.000000 0.000000 0.000000
0.000000 0.169861 0.000000
0.000000 0.169495 0.000000
0.003540 0.170319 0.000000
0.056976 0.173889 0.000000
0.109070 0.176758 0.000000
0.157257 0.177734 0.000000
0.200928 0.175110 0.000000
0.242371 0.168823 0.000000
0.284271 0.160767 0.000000
0.325500 0.151428 0.000000
0.367279 0.141357 0.000000
0.411652 0.129883 0.000000
0.455383 0.116577 0.000000
0.501007 0.099670 0.000000
0.546600 0.078247 0.000000
0.591583 0.048737 0.000000
0.636017 0.003326 0.000000
0.680603 0.000000 0.000000
0.723755 0.000000 0.000000
0.766876 0.000000 0.000000
0.808105 0.000000 0.000000
0.847198 0.000000 0.000000
0.883850 0.000000 0.000000
0.917725 0.000000 0.000000
0.949066 0.000000 0.000000
0.977844 0.000000 0.000000
1.000000 0.000000 0.000000
1.000000 0.000000 0.000000
1.000000 0.000000 0.000000
1.000000 0.000000 0.000000
1.000000 0.000000 0.000000
1.000000 0.000000 0.000000
0.000000 0.201935 0.000000
0.000000 0.201630 0.000000
0.000000 0.201416 0.000000
0.023041 0.205048 0.000000
0.085602 0.208313 0.000000
0.139465 0.211365 0.000000
0.188904 0.211334 0.000000
0.235443 0.208527 0.000000
0.279785 0.201874 0.000000
0.323730 0.193085 0.000000
0.367249 0.183472 0.000000
0.411896 0.173065 0.000000
0.457031 0.161469 0.000000
0.502167 0.148468 0.000000
0.548431 0.132690 0.000000
0.594147 0.113953 0.000000
0.638947 0.090576 0.000000
0.682770 0.059601 0.000000
0.726288 0.007538 0.000000
0.768433 0.000000 0.000000
0.808411 0.000000 0.000000
0.846161 0.000000 0.000000
0.882904 0.000000 0.000000
0.916809 0.000000 0.000000
0.948212 0.000000 0.000000
0.977020 0.000000 0.000000
1.000000 0.000000 0.000000
1.000000 0.000000 0.000000
1.000000 0.000000 0.000000
1.000000 0.000000 0.000000
1.000000 0.000000 0.000000
1.000000 0.000000 0.000000
0.000000 0.236328 0.000000
0.000000 0.236115 0.000000
0.000000 0.235657 0.000000
0.000000 0.238525 0.000000
0.050934 0.241913 0.000000
0.115143 0.245331 0.000000
0.171478 0.248688 0.000000
0.222778 0.247589 0.000000
0.272308 0.244537 0.000000
0.317505 0.236115 0.000000
0.362335 0.226990 0.000000
0.407593 0.217438 0.000000
0.453583 0.207458 0.000000
0.499817 0.196442 0.000000
0.546234 0.184113 0.000000
0.592163 0.170013 0.000000
0.637939 0.153625 0.000000
0.682831 0.134644 0.000000
0.726440 0.111328 0.000000
0.768890 0.081421 0.000000
0.809296 0.039001 0.000000
0.847687 0.000000 0.000000
0.883667 0.000000 0.000000
0.916901 0.000000 0.000000
0.947632 0.000000 0.000000
0.975922 0.000000 0.000000
1.000000 0.000000 0.000000
1.000000 0.000000 0.000000
1.000000 0.000000 0.000000
1.000000 0.000000 0.000000
1.000000 0.000000 0.000000
1.000000 0.000000 0.000000
0.000000 0.273071 0.000000
0.000000 0.272919 0.000000
0.000000 0.272552 0.000000
0.000000 0.273529 0.000000
0.000000 0.277252 0.000000
0.081848 0.281281 0.000000
0.146118 0.284821 0.000000
0.205017 0.286865 0.000000
0.257751 0.284363 0.000000
0.309601 0.281128 0.000000
0.355713 0.271973 0.000000
0.402283 0.262970 0.000000
0.449097 0.253876 0.000000
0.496002 0.244110 0.000000
0.542664 0.233734 0.000000
0.589233 0.222290 0.000000
0.635315 0.209442 0.000000
0.680481 0.195343 0.000000
0.724304 0.179504 0.000000
0.766876 0.161255 0.000000
0.807465 0.140808 0.000000
0.846008 0.116364 0.000000
0.882080 0.087494 0.000000
0.915405 0.049103 0.000000
0.946228 0.000000 0.000000
0.974579 0.000000 0.000000
1.000000 0.000000 0.000000
1.000000 0.000000 0.000000
1.000000 0.000000 0.000000
1.000000 0.000000 0.000000
1.000000 0.000000 0.000000
1.000000 0.000000 0.000000
0.000000 0.311798 0.000000
0.000000 0.311707 0.000000
0.000000 0.311371 0.000000
0.000000 0.310913 0.000000
0.000000 0.314941 0.000000
0.023590 0.318665 0.000000
0.113251 0.322693 0.000000
0.179291 0.326294 0.000000
0.240326 0.324615 0.000000
0.293945 0.321960 0.000000
0.347504 0.318542 0.000000
0.395294 0.309723 0.000000
0.443176 0.301056 0.000000
0.490875 0.292145 0.000000
0.538452 0.282867 0.000000
0.585541 0.272919 0.000000
0.632019 0.262360 0.000000
0.677277 0.250793 0.000000
0.721649 0.238281 0.000000
0.764191 0.224792 0.000000
0.805206 0.210297 0.000000
0.843872 0.194580 0.000000
0.880066 0.177551 0.000000
0.913513 0.159485 0.000000
0.944183 0.140045 0.000000
0.972870 0.118073 0.000000
0.999481 0.092987 0.000000
1.000000 0.062408 0.000000
1.000000 0.015411 0.000000
1.000000 0.000000 0.000000
1.000000 0.000000 0.000000
1.000000 0.000000 0.000000
0.000000 0.352142 0.000000
0.000000 0.352081 0.000000
0.000000 0.351807 0.000000
0.000000 0.351440 0.000000
0.000000 0.353546 0.000000
0.000000 0.358124 0.000000
0.062195 0.361725 0.000000
0.147217 0.365631 0.000000
0.215210 0.366333 0.000000
0.276978 0.363922 0.000000
0.332092 0.361084 0.000000
0.386871 0.357574 0.000000
0.436157 0.349060 0.000000
0.484863 0.340668 0.000000
0.533234 0.332062 0.000000
0.580750 0.323181 0.000000
0.627747 0.313965 0.000000
0.673615 0.304108 0.000000
0.718323 0.293701 0.000000
0.761169 0.282623 0.000000
0.802399 0.271149 0.000000
0.841278 0.258881 0.000000
0.877655 0.246521 0.000000
0.911224 0.233826 0.000000
0.942017 0.220612 0.000000
0.970764 0.207489 0.000000
0.997437 0.193878 0.000000
1.000000 0.179230 0.000000
1.000000 0.163605 0.000000
1.000000 0.146576 0.000000
1.000000 0.127136 0.000000
1.000000 0.126434 0.000000
0.000000 0.393829 0.000000
0.000000 0.393768 0.000000
0.000000 0.393555 0.000000
0.000000 0.393219 0.000000
0.000000 0.394257 0.000000
0.000000 0.398102 0.000000
0.000000 0.402466 0.000000
0.101379 0.406494 0.000000
0.184204 0.409027 0.000000
0.253723 0.406952 0.000000
0.315582 0.404388 0.000000
0.372040 0.401428 0.000000
0.427246 0.397858 0.000000
0.477356 0.389679 0.000000
0.526703 0.381500 0.000000
0.575226 0.373352 0.000000
0.622833 0.364899 0.000000
0.669250 0.356110 0.000000
0.714111 0.347168 0.000000
0.757538 0.337677 0.000000
0.798828 0.328003 0.000000
0.838165 0.318024 0.000000
0.874725 0.307770 0.000000
0.908203 0.297882 0.000000
0.939392 0.287750 0.000000
0.968018 0.277649 0.000000
0.995056 0.267975 0.000000
1.000000 0.257599 0.000000
1.000000 0.247253 0.000000
1.000000 0.235992 0.000000
1.000000 0.224792 0.000000
1.000000 0.223999 0.000000
0.000000 0.436371 0.000000
0.000000 0.436371 0.000000
0.000000 0.436157 0.000000
0.000000 0.435852 0.000000
0.000000 0.435486 0.000000
0.000000 0.439087 0.000000
0.000000 0.443329 0.000000
0.012024 0.448151 0.000000
0.142700 0.452393 0.000000
0.224762 0.450623 0.000000
0.294250 0.448364 0.000000
0.355713 0.445709 0.000000
0.412781 0.442627 0.000000
0.468353 0.438995 0.000000
0.518951 0.431091 0.000000
0.568451 0.423309 0.000000
0.616821 0.415466 0.000000
0.663849 0.407532 0.000000
0.709412 0.399323 0.000000
0.753265 0.390900 0.000000
0.794891 0.382446 0.000000
0.834290 0.373901 0.000000
0.871033 0.365417 0.000000
0.904999 0.356812 0.000000
0.936310 0.348541 0.000000
0.965088 0.340424 0.000000
0.992004 0.332581 0.000000
1.000000 0.324402 0.000000
1.000000 0.316223 0.000000
1.000000 0.308075 0.000000
1.000000 0.299347 0.000000
1.000000 0.298859 0.000000
0.000000 0.479553 0.000000
0.000000 0.479523 0.000000
0.000000 0.479340 0.000000
0.000000 0.479126 0.000000
0.000000 0.478790 0.000000
0.000000 0.481110 0.000000
0.000000 0.485016 0.000000
0.000000 0.489655 0.000000
0.077057 0.494904 0.000000
0.187988 0.494720 0.000000
0.266937 0.492767 0.000000
0.336670 0.490295 0.000000
0.397125 0.487579 0.000000
0.454193 0.484406 0.000000
0.510132 0.480743 0.000000
0.560760 0.473236 0.000000
0.610046 0.465790 0.000000
0.657806 0.458344 0.000000
0.703979 0.450836 0.000000
0.748077 0.443115 0.000000
0.790314 0.435547 0.000000
0.830017 0.427948 0.000000
0.867096 0.420380 0.000000
0.901245 0.413055 0.000000
0.932495 0.406067 0.000000
0.961700 0.399048 0.000000
0.988770 0.392334 0.000000
1.000000 0.385498 0.000000
1.000000 0.378601 0.000000
1.000000 0.371765 0.000000
1.000000 0.364990 0.000000
1.000000 0.364594 0.000000
0.000000 0.522949 0.000000
0.000000 0.522949 0.000000
0.000000 0.522797 0.000000
0.000000 0.522583 0.000000
0.000000 0.522308 0.000000
0.000000 0.522919 0.000000
0.000000 0.527374 0.000000
0.000000 0.531586 0.000000
0.000000 0.536591 0.000000
0.137268 0.538818 0.000000
0.234283 0.537109 0.000000
0.310852 0.534973 0.000000
0.379883 0.532379 0.000000
0.439148 0.529602 0.000000
0.496490 0.526337 0.000000
0.551727 0.522675 0.000000
0.602051 0.515472 0.000000
0.650665 0.508362 0.000000
0.697540 0.501221 0.000000
0.742432 0.494171 0.000000
0.784882 0.487244 0.000000
0.824982 0.480438 0.000000
0.862610 0.473450 0.000000
0.896759 0.467072 0.000000
0.928467 0.460785 0.000000
0.957611 0.454498 0.000000
0.985107 0.448547 0.000000
1.000000 0.442657 0.000000
1.000000 0.436920 0.000000
1.000000 0.431122 0.000000
1.000000 0.425079 0.000000
1.000000 0.424805 0.000000
0.000000 0.566193 0.000000
0.000000 0.566193 0.000000
0.000000 0.566071 0.000000
0.000000 0.565887 0.000000
0.000000 0.565643 0.000000
0.000000 0.565277 0.000000
0.000000 0.568085 0.000000
0.000000 0.573914 0.000000
0.000000 0.578461 0.000000
0.039368 0.582703 0.000000
0.192413 0.581177 0.000000
0.281219 0.579285 0.000000
0.355957 0.576996 0.000000
0.422882 0.574341 0.000000
0.481781 0.571442 0.000000
0.538483 0.568146 0.000000
0.593079 0.564484 0.000000
0.642914 0.557556 0.000000
0.690338 0.550842 0.000000
0.735809 0.544281 0.000000
0.779083 0.537689 0.000000
0.819580 0.531342 0.000000
0.857300 0.525024 0.000000
0.891998 0.519165 0.000000
0.923981 0.513336 0.000000
0.953339 0.507782 0.000000
0.980713 0.502686 0.000000
1.000000 0.497467 0.000000
1.000000 0.492004 0.000000
1.000000 0.486969 0.000000
1.000000 0.481689 0.000000
1.000000 0.481476 0.000000
0.000000 0.608917 0.000000
0.000000 0.608917 0.000000
0.000000 0.608826 0.000000
0.000000 0.608673 0.000000
0.000000 0.608429 0.000000
0.000000 0.608124 0.000000
0.000000 0.610016 0.000000
0.000000 0.615295 0.000000
0.000000 0.620331 0.000000
0.000000 0.625183 0.000000
0.133423 0.624542 0.000000
0.245941 0.622864 0.000000
0.329010 0.620789 0.000000
0.402008 0.618347 0.000000
0.466339 0.615631 0.000000
0.524658 0.612671 0.000000
0.580292 0.609375 0.000000
0.634033 0.605774 0.000000
0.682587 0.599274 0.000000
0.728821 0.592926 0.000000
0.772400 0.586639 0.000000
0.813629 0.580688 0.000000
0.851776 0.574829 0.000000
0.886780 0.569336 0.000000
0.918793 0.564056 0.000000
0.948608 0.559052 0.000000
0.976227 0.554077 0.000000
1.000000 0.549347 0.000000
1.000000 0.544861 0.000000
1.000000 0.540100 0.000000
1.000000 0.535370 0.000000
1.000000 0.535248 0.000000
0.000000 0.650848 0.000000
0.000000 0.650848 0.000000
0.000000 0.650757 0.000000
0.000000 0.650604 0.000000
0.000000 0.650421 0.000000
0.000000 0.650146 0.000000
0.000000 0.649750 0.000000
0.000000 0.654236 0.000000
0.000000 0.659790 0.000000
0.000000 0.665100 0.000000
0.006378 0.666992 0.000000
0.201477 0.665497 0.000000
0.298309 0.663635 0.000000
0.377167 0.661438 0.000000
0.448547 0.658844 0.000000
0.510010 0.656128 0.000000
0.567139 0.653137 0.000000
0.621918 0.649841 0.000000
0.673920 0.646271 0.000000
0.720947 0.640106 0.000000
0.765411 0.634247 0.000000
0.806946 0.628479 0.000000
0.845490 0.622955 0.000000
0.880920 0.617676 0.000000
0.913452 0.612793 0.000000
0.943268 0.608246 0.000000
0.971344 0.603516 0.000000
0.997559 0.599152 0.000000
1.000000 0.594849 0.000000
1.000000 0.590546 0.000000
1.000000 0.586487 0.000000
1.000000 0.586090 0.000000
0.000000 0.691528 0.000000
0.000000 0.691528 0.000000
0.000000 0.691467 0.000000
0.000000 0.691345 0.000000
0.000000 0.691132 0.000000
0.000000 0.690887 0.000000
0.000000 0.690552 0.000000
0.000000 0.694092 0.000000
0.000000 0.700134 0.000000
0.000000 0.704620 0.000000
0.000000 0.708130 0.000000
0.139374 0.706726 0.000000
0.262299 0.705078 0.000000
0.350159 0.703064 0.000000
0.425934 0.700714 0.000000
0.494415 0.698029 0.000000
0.553528 0.695282 0.000000
0.609406 0.692291 0.000000
0.662323 0.689056 0.000000
0.712524 0.685577 0.000000
0.757721 0.679749 0.000000
0.799835 0.674347 0.000000
0.839111 0.668976 0.000000
0.874908 0.664032 0.000000
0.907501 0.659424 0.000000
0.937836 0.655151 0.000000
0.965912 0.650787 0.000000
0.992340 0.646667 0.000000
1.000000 0.642792 0.000000
1.000000 0.638763 0.000000
1.000000 0.634735 0.000000
1.000000 0.634674 0.000000
0.000000 0.730652 0.000000
0.000000 0.730652 0.000000
0.000000 0.730591 0.000000
0.000000 0.730469 0.000000
0.000000 0.730286 0.000000
0.000000 0.730042 0.000000
0.000000 0.729736 0.000000
0.000000 0.732147 0.000000
0.000000 0.737213 0.000000
0.000000 0.742096 0.000000
0.000000 0.747620 0.000000
0.006805 0.746368 0.000000
0.218536 0.744812 0.000000
0.320221 0.742950 0.000000
0.402191 0.740814 0.000000
0.475037 0.738342 0.000000
0.539337 0.735657 0.000000
0.596619 0.732880 0.000000
0.650665 0.729889 0.000000
0.701538 0.726715 0.000000
0.749634 0.723389 0.000000
0.792572 0.718109 0.000000
0.832153 0.713013 0.000000
0.868317 0.708252 0.000000
0.901520 0.703796 0.000000
0.931946 0.699493 0.000000
0.960480 0.695648 0.000000
0.987152 0.691650 0.000000
1.000000 0.687805 0.000000
1.000000 0.684021 0.000000
1.000000 0.680359 0.000000
1.000000 0.680084 0.000000
0.000000 0.767883 0.000000
0.000000 0.767883 0.000000
0.000000 0.767822 0.000000
0.000000 0.767700 0.000000
0.000000 0.767548 0.000000
0.000000 0.767365 0.000000
0.000000 0.767059 0.000000
0.000000 0.768158 0.000000
0.000000 0.772034 0.000000
0.000000 0.778778 0.000000
0.000000 0.783813 0.000000
0.000000 0.783997 0.000000
0.161560 0.782593 0.000000
0.286591 0.780884 0.000000
0.376740 0.778870 0.000000
0.453735 0.776581 0.000000
0.523682 0.773987 0.000000
0.583740 0.771362 0.000000
0.638916 0.768555 0.000000
0.690735 0.765594 0.000000
0.739471 0.762512 0.000000
0.784882 0.759369 0.000000
0.825043 0.754364 0.000000
0.861847 0.749878 0.000000
0.895172 0.745483 0.000000
0.926117 0.741486 0.000000
0.954681 0.737518 0.000000
0.981567 0.733826 0.000000
1.000000 0.730438 0.000000
1.000000 0.726776 0.000000
1.000000 0.723145 0.000000
1.000000 0.723175 0.000000
0.000000 0.802795 0.000000
0.000000 0.802795 0.000000
0.000000 0.802765 0.000000
0.000000 0.802643 0.000000
0.000000 0.802521 0.000000
0.000000 0.802307 0.000000
0.000000 0.802063 0.000000
0.000000 0.801697 0.000000
0.000000 0.805817 0.000000
0.000000 0.812958 0.000000
0.000000 0.818329 0.000000
0.000000 0.819275 0.000000
0.065277 0.817932 0.000000
0.248474 0.816345 0.000000
0.349670 0.814484 0.000000
0.431763 0.812347 0.000000
0.504700 0.809967 0.000000
0.570770 0.807343 0.000000
0.627167 0.804718 0.000000
0.680084 0.801941 0.000000
0.729645 0.799042 0.000000
0.775330 0.796082 0.000000
0.817963 0.793121 0.000000
0.855042 0.788544 0.000000
0.888977 0.784515 0.000000
0.919983 0.780487 0.000000
0.949066 0.776794 0.000000
0.976166 0.773285 0.000000
1.000000 0.769745 0.000000
1.000000 0.766296 0.000000
1.000000 0.762909 0.000000
1.000000 0.762756 0.000000
0.000000 0.835114 0.000000
0.000000 0.835114 0.000000
0.000000 0.835083 0.000000
0.000000 0.834991 0.000000
0.000000 0.834869 0.000000
0.000000 0.834686 0.000000
0.000000 0.834381 0.000000
0.000000 0.834076 0.000000
0.000000 0.836853 0.000000
0.000000 0.842682 0.000000
0.000000 0.848389 0.000000
0.000000 0.851837 0.000000
0.000000 0.850616 0.000000
0.202515 0.849121 0.000000
0.320831 0.847351 0.000000
0.410187 0.845367 0.000000
0.486542 0.843109 0.000000
0.555298 0.840607 0.000000
0.615631 0.838043 0.000000
0.669617 0.835419 0.000000
0.719910 0.832672 0.000000
0.766571 0.829895 0.000000
0.809204 0.827087 0.000000
0.848297 0.824341 0.000000
0.882599 0.820312 0.000000
0.914185 0.816345 0.000000
0.943268 0.812866 0.000000
0.970856 0.809418 0.000000
0.996857 0.806122 0.000000
1.000000 0.802887 0.000000
1.000000 0.799347 0.000000
1.000000 0.799500 0.000000
0.000000 0.864990 0.000000
0.000000 0.864990 0.000000
0.000000 0.864960 0.000000
0.000000 0.864868 0.000000
0.000000 0.864746 0.000000
0.000000 0.864563 0.000000
0.000000 0.864349 0.000000
0.000000 0.864014 0.000000
0.000000 0.866943 0.000000
0.000000 0.871399 0.000000
0.000000 0.877350 0.000000
0.000000 0.881989 0.000000
0.000000 0.880798 0.000000
0.143585 0.879395 0.000000
0.290192 0.877716 0.000000
0.387451 0.875824 0.000000
0.468018 0.873718 0.000000
0.539520 0.871338 0.000000
0.604492 0.868774 0.000000
0.659546 0.866272 0.000000
0.710541 0.863678 0.000000
0.757690 0.861053 0.000000
0.801300 0.858368 0.000000
0.840668 0.855743 0.000000
0.876617 0.853210 0.000000
0.908234 0.849426 0.000000
0.937836 0.846039 0.000000
0.965424 0.842590 0.000000
0.991638 0.839386 0.000000
1.000000 0.836273 0.000000
1.000000 0.833069 0.000000
1.000000 0.832947 0.000000
0.000000 0.892731 0.000000
0.000000 0.892731 0.000000
0.000000 0.892700 0.000000
0.000000 0.892639 0.000000
0.000000 0.892517 0.000000
0.000000 0.892334 0.000000
0.000000 0.892120 0.000000
0.000000 0.891785 0.000000
0.000000 0.893127 0.000000
0.000000 0.897766 0.000000
0.000000 0.903992 0.000000
0.000000 0.909882 0.000000
0.000000 0.908813 0.000000
0.037628 0.907440 0.000000
0.256165 0.905884 0.000000
0.363708 0.904083 0.000000
0.449371 0.902039 0.000000
0.523956 0.899780 0.000000
0.591309 0.897339 0.000000
0.649780 0.894867 0.000000
0.701324 0.892395 0.000000
0.749237 0.889862 0.000000
0.793152 0.887299 0.000000
0.832886 0.884827 0.000000
0.869263 0.882385 0.000000
0.902679 0.880005 0.000000
0.932312 0.876617 0.000000
0.960358 0.873260 0.000000
0.986755 0.870178 0.000000
1.000000 0.867096 0.000000
1.000000 0.863831 0.000000
1.000000 0.863739 0.000000
0.000000 0.918701 0.000000
0.000000 0.918701 0.000000
0.000000 0.918701 0.000000
0.000000 0.918610 0.000000
0.000000 0.918518 0.000000
0.000000 0.918335 0.000000
0.000000 0.918121 0.000000
0.000000 0.917816 0.000000
0.000000 0.917450 0.000000
0.000000 0.924072 0.000000
0.000000 0.930511 0.000000
0.000000 0.934998 0.000000
0.000000 0.934998 0.000000
0.000000 0.933746 0.000000
0.217926 0.932220 0.000000
0.339233 0.930481 0.000000
0.430908 0.928558 0.000000
0.508209 0.926422 0.000000
0.577240 0.924072 0.000000
0.639923 0.921570 0.000000
0.692871 0.919189 0.000000
0.741089 0.916779 0.000000
0.785400 0.914307 0.000000
0.825897 0.911926 0.000000
0.862610 0.909576 0.000000
0.895966 0.907318 0.000000
0.927094 0.905121 0.000000
0.955109 0.901855 0.000000
0.981812 0.898773 0.000000
1.000000 0.895630 0.000000
1.000000 0.892548 0.000000
1.000000 0.892517 0.000000
0.000000 0.943268 0.000000
0.000000 0.943268 0.000000
0.000000 0.943268 0.000000
0.000000 0.943176 0.000000
0.000000 0.943085 0.000000
0.000000 0.942932 0.000000
0.000000 0.942719 0.000000
0.000000 0.942444 0.000000
0.000000 0.942108 0.000000
0.000000 0.947083 0.000000
0.000000 0.953766 0.000000
0.000000 0.960297 0.000000
0.000000 0.959808 0.000000
0.000000 0.958557 0.000000
0.170074 0.957092 0.000000
0.313354 0.955475 0.000000
0.411713 0.953583 0.000000
