src/assets/luts/大师配方/大师·璨.cube
#Created by: Adobe Photoshop Export Color Lookup Plugin
#Copyright: (C) Copyright 2026 aaa
TITLE "HG224大师滤镜.psd"
#LUT size
LUT_3D_SIZE 5
#data domain
DOMAIN_MIN 0.0 0.0 0.0
DOMAIN_MAX 1.0 1.0 1.0
#LUT data points
0.000000 0.000000 0.000000
0.237366 0.000000 0.000000
0.605133 0.000671 0.000000
0.951599 0.005981 0.000000
1.000000 0.152344 0.149170
0.000000 0.208435 0.000000
0.237366 0.250977 0.000000
0.605133 0.259735 0.000000
0.951599 0.268005 0.000000
1.000000 0.354797 0.149170
0.000000 0.498474 0.000000
0.216919 0.551636 0.000000
0.605133 0.597046 0.000000
0.951599 0.606140 0.000000
1.000000 0.595276 0.149170
0.000000 0.787964 0.000000
0.198730 0.817719 0.000000
0.601166 0.926697 0.000000
0.951599 0.942688 0.000000
1.000000 0.829956 0.149170
0.000000 1.000000 0.000000
0.195862 1.000000 0.000000
0.562256 1.000000 0.063202
0.836884 1.000000 0.149170
1.000000 1.000000 0.149170
0.000000 0.000000 0.214355
0.189392 0.000000 0.214355
0.565460 0.000000 0.243744
0.945770 0.000000 0.261230
1.000000 0.143127 0.366028
0.000000 0.208435 0.214355
0.196228 0.208191 0.208984
0.598633 0.189087 0.185425
0.975922 0.172699 0.168243
1.000000 0.354797 0.373962
0.000000 0.498474 0.214355
0.189362 0.498474 0.214355
0.556458 0.550049 0.224335
0.935577 0.560638 0.203979
1.000000 0.595276 0.373962
0.000000 0.787964 0.214233
0.189453 0.787964 0.214355
0.538513 0.854370 0.218719
0.902222 0.892853 0.233307
1.000000 0.830048 0.373962
0.000000 1.000000 0.214264
0.189362 1.000000 0.214355
0.531647 1.000000 0.263062
0.836884 1.000000 0.373962
1.000000 1.000000 0.373962
0.000000 0.000000 0.521515
0.189423 0.000000 0.521515
0.501617 0.000000 0.521515
0.820801 0.000000 0.537231
1.000000 0.043304 0.557861
0.000000 0.208496 0.521515
0.189423 0.208435 0.521515
0.501617 0.208435 0.521515
0.887024 0.179474 0.545105
1.000000 0.309265 0.588440
0.000000 0.498474 0.521515
0.189392 0.498474 0.521545
0.509705 0.496979 0.516144
0.885925 0.479706 0.499390
1.000000 0.595276 0.617737
0.000000 0.787964 0.521576
0.189392 0.787964 0.521515
0.501648 0.787964 0.521515
0.847992 0.838593 0.530548
1.000000 0.829895 0.617737
0.000000 1.000000 0.521606
0.189392 1.000000 0.521515
0.501587 1.000000 0.521515
0.825104 1.000000 0.589935
1.000000 1.000000 0.617737
0.000000 0.000000 0.803040
0.189331 0.000000 0.803040
0.501770 0.000000 0.803040
0.796265 0.000000 0.802979
1.000000 0.000000 0.803040
0.000000 0.208282 0.803040
0.189423 0.208435 0.803040
0.501709 0.208435 0.803040
0.796265 0.208435 0.803009
1.000000 0.208435 0.803192
0.000000 0.498413 0.803040
0.189392 0.498444 0.803040
0.501648 0.498474 0.803040
0.796265 0.498474 0.803070
1.000000 0.526794 0.814758
0.000000 0.787964 0.803040
0.189392 0.787964 0.802979
0.501617 0.787964 0.803009
0.801605 0.786743 0.800049
1.000000 0.829895 0.842529
0.000000 1.000000 0.803040
0.189392 1.000000 0.803101
0.501617 1.000000 0.803040
0.796265 1.000000 0.803040
1.000000 1.000000 0.842529
0.000000 0.000000 1.000000
0.189606 0.000000 1.000000
0.501556 0.000000 1.000000
0.796234 0.000000 1.000000
1.000000 0.000000 1.000000
0.000000 0.208344 1.000000
0.189423 0.208435 1.000000
0.501801 0.208435 1.000000
0.796204 0.208435 1.000000
1.000000 0.208435 1.000000
0.000000 0.498444 1.000000
0.189392 0.498505 1.000000
0.501678 0.498474 1.000000
0.796173 0.498474 1.000000
1.000000 0.498474 1.000000
0.000000 0.787903 1.000000
0.189392 0.787964 1.000000
0.501617 0.787994 1.000000
0.796265 0.787964 1.000000
1.000000 0.787964 1.000000
0.000000 1.000000 1.000000
0.189392 1.000000 1.000000
0.501617 1.000000 1.000000
0.796265 1.000000 1.000000
1.000000 1.000000 1.000000
