src/assets/luts/大师配方/大师·绮.cube
#Created by: Adobe Photoshop Export Color Lookup Plugin
#Copyright: (C) Copyright 2026 aaa
TITLE "HG224大师滤镜.psd"
#LUT size
LUT_3D_SIZE 33
#data domain
DOMAIN_MIN 0.0 0.0 0.0
DOMAIN_MAX 1.0 1.0 1.0
#LUT data points
0.000000 0.000000 0.024506
0.032440 0.000000 0.029907
0.071960 0.000000 0.033142
0.109528 0.000000 0.032227
0.147552 0.000000 0.031647
0.185913 0.000000 0.031158
0.224640 0.000000 0.030914
0.263611 0.000000 0.030670
0.302826 0.000000 0.030487
0.342224 0.000000 0.030365
0.381836 0.000000 0.030243
0.421570 0.000000 0.030151
0.461456 0.000000 0.030121
0.501465 0.000000 0.030121
0.541534 0.000000 0.030060
0.581421 0.000000 0.030121
0.620941 0.000000 0.030090
0.660065 0.000000 0.030121
0.698730 0.000000 0.030182
0.736786 0.000000 0.030121
0.774139 0.000000 0.030182
0.810852 0.000000 0.030182
0.837006 0.009674 0.038757
0.853302 0.028351 0.055267
0.869598 0.045959 0.070984
0.885895 0.062714 0.087585
0.902191 0.078125 0.103729
0.918518 0.092010 0.118347
0.934814 0.104431 0.131470
0.951111 0.115356 0.143005
0.967407 0.124817 0.153046
0.983704 0.132690 0.161407
1.000000 0.139038 0.168121
0.000000 0.039978 0.024506
0.031006 0.047638 0.030396
0.068970 0.046143 0.029236
0.106720 0.043884 0.027618
0.144958 0.041931 0.026245
0.184662 0.040375 0.024933
0.224792 0.038818 0.023590
0.265259 0.037109 0.022156
0.306091 0.035370 0.020599
0.347137 0.033569 0.019073
0.388428 0.031769 0.017395
0.429993 0.029785 0.015747
0.471710 0.027832 0.014038
0.513641 0.025848 0.012238
0.555603 0.023865 0.010468
0.597443 0.021759 0.008698
0.638885 0.019775 0.006866
0.679962 0.017792 0.005035
0.720001 0.016296 0.003754
0.757996 0.016296 0.003937
0.795258 0.016296 0.004120
0.820709 0.027527 0.015228
0.837006 0.046997 0.034637
0.853302 0.065674 0.052917
0.869598 0.083221 0.070343
0.885895 0.098907 0.087555
0.902191 0.112793 0.103699
0.918518 0.125488 0.118378
0.934814 0.136932 0.131470
0.951111 0.147003 0.143036
0.967407 0.155731 0.153076
0.983704 0.163055 0.161407
1.000000 0.169006 0.168152
0.000000 0.077301 0.024506
0.025574 0.091278 0.023163
0.066254 0.091888 0.027069
0.109436 0.094330 0.029816
0.148438 0.091705 0.027740
0.187500 0.088989 0.025757
0.226746 0.086517 0.023926
0.265961 0.084137 0.022400
0.305847 0.081696 0.020386
0.346863 0.079742 0.018799
0.388123 0.077759 0.017120
0.429657 0.075714 0.015411
0.471313 0.073669 0.013672
0.513214 0.071503 0.011841
0.555206 0.069305 0.010010
0.596985 0.067200 0.008209
0.638397 0.065155 0.006378
0.679443 0.062927 0.004486
0.719971 0.060852 0.002716
0.759888 0.058838 0.000916
0.798248 0.057617 0.000000
0.820709 0.069977 0.014282
0.837006 0.087555 0.033905
0.853302 0.104340 0.052612
0.869598 0.120422 0.070282
0.885895 0.134583 0.087555
0.902191 0.147217 0.103729
0.918518 0.158691 0.118378
0.934814 0.169159 0.131470
0.951111 0.178436 0.143036
0.967407 0.186584 0.153046
0.983704 0.193298 0.161377
1.000000 0.198792 0.168091
0.000000 0.113739 0.024506
0.019562 0.129028 0.017700
0.062988 0.136627 0.022644
0.105377 0.137177 0.026215
0.149811 0.140106 0.029846
0.190552 0.138275 0.028046
0.230164 0.135315 0.025787
0.269958 0.132385 0.023682
0.309967 0.129608 0.021576
0.350098 0.126770 0.019531
0.390503 0.124146 0.017426
0.431030 0.121460 0.015259
0.471313 0.119019 0.013672
0.513214 0.116791 0.011841
0.555206 0.114624 0.010010
0.596985 0.112335 0.008209
0.638397 0.110291 0.006378
0.679443 0.108063 0.004486
0.719971 0.105835 0.002716
0.759888 0.103760 0.000916
0.798248 0.102386 0.000000
0.820709 0.113037 0.014282
0.837006 0.128174 0.033905
0.853302 0.142975 0.052612
0.869598 0.157257 0.070282
0.885895 0.170044 0.087555
0.902191 0.181335 0.103729
0.918518 0.191803 0.118378
0.934814 0.201294 0.131470
0.951111 0.209808 0.143036
0.967407 0.217255 0.153046
0.983704 0.223541 0.161407
1.000000 0.228546 0.168121
0.000000 0.149658 0.024506
0.016296 0.163544 0.015045
0.056335 0.176727 0.013672
0.103333 0.181671 0.025482
0.145477 0.181671 0.025482
0.190643 0.184570 0.029144
0.232941 0.183746 0.028473
0.273376 0.180695 0.025574
0.313446 0.177521 0.023468
0.354065 0.174469 0.020935
0.394440 0.171509 0.018860
0.435059 0.168549 0.016663
0.475769 0.165680 0.014557
0.516571 0.162842 0.012543
0.557007 0.160370 0.010986
0.597992 0.157532 0.008545
0.638367 0.154907 0.006439
0.679443 0.152527 0.004486
0.719971 0.150391 0.002716
0.759888 0.148254 0.000916
0.798248 0.146820 0.000000
0.820709 0.155518 0.014282
0.837006 0.168335 0.033905
0.853302 0.181335 0.052612
0.869598 0.193878 0.070282
0.885895 0.205231 0.087555
0.902191 0.215210 0.103729
0.918518 0.224609 0.118378
0.934814 0.233276 0.131470
0.951111 0.240997 0.143036
0.967407 0.247803 0.153046
0.983704 0.253571 0.161407
1.000000 0.258240 0.168121
0.000000 0.185120 0.024506
0.016296 0.198700 0.014221
0.049927 0.213806 0.007812
0.097656 0.223236 0.014771
0.143616 0.225555 0.024872
0.186371 0.225555 0.024872
0.232117 0.228394 0.028473
0.275574 0.228424 0.029022
0.316467 0.225372 0.025940
0.357391 0.222137 0.022980
0.397827 0.218872 0.020905
0.439026 0.215698 0.018127
0.480133 0.212585 0.015625
0.520844 0.209473 0.013733
0.562042 0.206512 0.011292
0.602570 0.203583 0.009338
0.643555 0.200653 0.006683
0.683167 0.198029 0.005005
0.722626 0.195343 0.003021
0.761200 0.192902 0.001404
0.798828 0.190796 0.000000
0.820709 0.197540 0.014282
0.837006 0.208405 0.033905
0.853302 0.219360 0.052612
0.869598 0.230194 0.070282
0.885895 0.240051 0.087555
0.902191 0.248962 0.103729
0.918518 0.257446 0.118378
0.934814 0.265076 0.131470
0.951111 0.272095 0.143036
0.967407 0.278229 0.153046
0.983704 0.283478 0.161407
1.000000 0.287720 0.168121
0.000000 0.220306 0.024536
0.016296 0.233887 0.013641
0.044220 0.249725 0.003021
0.090851 0.261932 0.006653
0.139648 0.268005 0.017120
0.184662 0.269012 0.024261
0.227875 0.269012 0.024261
0.274048 0.271759 0.027863
0.318512 0.272430 0.029419
0.359802 0.269409 0.026154
0.401001 0.266174 0.023224
0.442047 0.262787 0.020630
0.483215 0.259521 0.018066
0.524658 0.256287 0.015381
0.565582 0.253052 0.013306
0.606750 0.249969 0.010742
0.647125 0.246979 0.008667
0.687286 0.244080 0.006409
0.727264 0.241058 0.003845
0.766296 0.238373 0.001770
0.804382 0.235870 0.000000
0.820709 0.243042 0.019226
0.837006 0.250702 0.037811
0.853302 0.259125 0.055359
0.869598 0.267761 0.072174
0.885895 0.275543 0.088593
0.902191 0.282745 0.103851
0.918518 0.290009 0.118378
0.934814 0.296875 0.131470
0.951111 0.303162 0.143036
0.967407 0.308655 0.153046
0.983704 0.313385 0.161407
1.000000 0.317291 0.168121
0.000000 0.255219 0.024506
0.016296 0.268799 0.013245
0.039856 0.283875 0.000000
0.084259 0.298615 0.000580
0.133179 0.307678 0.007660
0.182159 0.311829 0.020081
0.226349 0.312012 0.023712
0.269897 0.312012 0.023712
0.316498 0.314789 0.027283
0.361450 0.315552 0.028900
0.403625 0.312927 0.026123
0.444946 0.309692 0.023224
0.486633 0.306274 0.020172
0.528046 0.302948 0.017487
0.569214 0.299591 0.015167
0.610565 0.296234 0.012390
0.651581 0.292969 0.009583
0.691742 0.289948 0.007446
0.731537 0.287018 0.005127
0.770386 0.284180 0.003204
0.804413 0.282715 0.005463
0.820709 0.287506 0.024811
0.837006 0.293549 0.043243
0.853302 0.300201 0.060944
0.869598 0.307251 0.077728
0.885895 0.313507 0.094299
0.902191 0.319580 0.109467
0.918518 0.325562 0.123260
0.934814 0.331177 0.135651
0.951111 0.336212 0.146515
0.967407 0.340790 0.155914
0.983704 0.344849 0.163879
1.000000 0.348114 0.170227
0.000000 0.289917 0.024506
0.016296 0.303467 0.012970
0.038635 0.314880 0.000000
0.081268 0.329865 0.000000
0.126434 0.345490 0.000000
0.176300 0.352203 0.009552
0.224854 0.354767 0.023163
0.268463 0.354767 0.023163
0.312347 0.354767 0.023163
0.359344 0.357452 0.026733
0.404541 0.358154 0.028290
0.447357 0.356049 0.026398
0.489166 0.352753 0.023224
0.530975 0.349396 0.020111
0.572968 0.345886 0.016876
0.614532 0.342560 0.013947
0.655060 0.339294 0.011719
0.695190 0.336060 0.009583
0.734833 0.332977 0.007416
0.774170 0.329865 0.004944
0.804413 0.328674 0.011017
0.820709 0.331329 0.030396
0.837006 0.335419 0.048889
0.853302 0.340424 0.066528
0.869598 0.345825 0.083557
0.885895 0.350830 0.100067
0.902191 0.355988 0.115173
0.918518 0.360992 0.128906
0.934814 0.365875 0.141205
0.951111 0.370300 0.152008
0.967407 0.374298 0.161407
0.983704 0.377869 0.169373
1.000000 0.380676 0.175598
0.000000 0.324402 0.024506
0.016296 0.337982 0.012756
0.038330 0.348907 0.000000
0.079102 0.360443 0.000000
0.122864 0.375763 0.000000
0.169525 0.390656 0.001007
0.219849 0.395782 0.012207
0.267090 0.397186 0.022675
0.311035 0.397186 0.022675
0.355255 0.397186 0.022675
0.402527 0.399841 0.026245
0.447876 0.400330 0.027557
0.491241 0.398682 0.026764
0.533478 0.395447 0.023163
0.575287 0.391937 0.020172
0.617584 0.388733 0.016418
0.658173 0.385223 0.014191
0.698944 0.381927 0.011292
0.739197 0.378784 0.008545
0.778381 0.375610 0.006317
0.804413 0.373749 0.016541
0.820709 0.374237 0.035889
0.837006 0.376465 0.054413
0.853302 0.379944 0.072174
0.869598 0.383759 0.089355
0.885895 0.387665 0.105804
0.902191 0.391754 0.120789
0.918518 0.395874 0.134460
0.934814 0.400024 0.146759
0.951111 0.403900 0.157562
0.967407 0.407288 0.166870
0.983704 0.410461 0.174805
1.000000 0.412964 0.181030
0.000000 0.358734 0.024506
0.016296 0.372345 0.012573
0.038177 0.383240 0.000000
0.077454 0.390991 0.000000
0.119812 0.406067 0.000000
0.165131 0.421539 0.000000
0.213562 0.435181 0.002411
0.263641 0.438782 0.015137
0.309753 0.439392 0.022217
0.353973 0.439392 0.022217
0.398499 0.439392 0.022217
0.446014 0.442078 0.025726
0.491425 0.442230 0.026764
0.535187 0.440643 0.026001
0.577728 0.437744 0.023376
0.619659 0.434448 0.019958
0.661530 0.431152 0.016388
0.702332 0.427795 0.013489
0.742523 0.424530 0.010803
0.782227 0.421387 0.007935
0.804413 0.417816 0.022125
0.820709 0.416443 0.041473
0.837006 0.416809 0.060059
0.853302 0.418610 0.077637
0.869598 0.420929 0.095062
0.885895 0.423859 0.111420
0.902191 0.427002 0.126404
0.918518 0.430237 0.140045
0.934814 0.433655 0.152252
0.951111 0.436859 0.163086
0.967407 0.439911 0.172394
0.983704 0.442505 0.180206
1.000000 0.444672 0.186462
0.000000 0.392914 0.024506
0.016296 0.406494 0.012421
0.038055 0.417450 0.000000
0.075653 0.421600 0.000000
0.117218 0.436371 0.000000
0.161377 0.451508 0.000000
0.207977 0.467285 0.000000
0.257812 0.478699 0.004608
0.307617 0.481140 0.018585
0.352753 0.481384 0.021729
0.397308 0.481384 0.021729
0.442017 0.481384 0.021729
0.489838 0.484070 0.025208
0.535187 0.483917 0.026001
0.579010 0.482147 0.025116
0.621948 0.479858 0.023315
0.663391 0.476471 0.020142
0.704773 0.473328 0.016663
0.744904 0.470062 0.014069
0.785095 0.466827 0.010681
0.804413 0.461304 0.027710
0.820709 0.457733 0.047058
0.837006 0.456329 0.065582
0.853302 0.456665 0.083221
0.869598 0.457672 0.100800
0.885895 0.459412 0.117096
0.902191 0.461670 0.131989
0.918518 0.464172 0.145569
0.934814 0.466919 0.157776
0.951111 0.469482 0.168518
0.967407 0.471954 0.177765
0.983704 0.474213 0.185608
1.000000 0.476074 0.191925
0.000000 0.426971 0.024506
0.016296 0.440552 0.012329
0.037964 0.451477 0.000000
0.074188 0.452148 0.000000
0.115204 0.466553 0.000000
0.158142 0.481567 0.000000
0.203735 0.496887 0.000000
0.251678 0.512726 0.000000
0.302338 0.521362 0.007538
0.351624 0.523193 0.021240
0.396118 0.523193 0.021240
0.440918 0.523193 0.021240
0.485870 0.523193 0.021240
0.533966 0.525818 0.024780
0.579010 0.525238 0.025116
0.622650 0.523621 0.024200
0.665955 0.521759 0.023163
0.706879 0.518494 0.020203
0.748199 0.515503 0.016327
0.787659 0.512177 0.013763
0.804413 0.503815 0.033264
0.820709 0.498322 0.052643
0.837006 0.495300 0.071289
0.853302 0.493988 0.089081
0.869598 0.493866 0.106537
0.885895 0.494598 0.122711
0.902191 0.495850 0.137573
0.918518 0.497650 0.151123
0.934814 0.499573 0.163239
0.951111 0.501617 0.173950
0.967407 0.503571 0.183228
0.983704 0.505432 0.191040
1.000000 0.506958 0.197266
0.000000 0.460907 0.024506
0.016296 0.474487 0.012177
0.037872 0.485413 0.000000
0.073669 0.485413 0.000000
0.113464 0.496735 0.000000
0.155457 0.511475 0.000000
0.199921 0.526672 0.000000
0.246826 0.542175 0.000000
0.296143 0.558136 0.000000
0.347137 0.563934 0.010315
0.395111 0.564819 0.020813
0.439850 0.564819 0.020813
0.484863 0.564819 0.020813
0.530029 0.564819 0.020813
0.578156 0.567413 0.024292
0.622650 0.566467 0.024200
0.665894 0.564697 0.023315
0.708740 0.563019 0.022369
0.749969 0.560333 0.020142
0.788116 0.556366 0.018921
0.804413 0.545685 0.039001
0.820709 0.538177 0.058228
0.837006 0.533417 0.076721
0.853302 0.530701 0.094727
0.869598 0.529449 0.112183
0.885895 0.529236 0.128387
0.902191 0.529541 0.143127
0.918518 0.530609 0.156647
0.934814 0.531830 0.168732
0.951111 0.533295 0.179413
0.967407 0.534729 0.188629
0.983704 0.536133 0.196381
1.000000 0.537415 0.202667
0.000000 0.494659 0.024536
0.016296 0.508270 0.012115
0.037781 0.519165 0.000000
0.073334 0.519165 0.000000
0.111542 0.527100 0.000000
0.153137 0.541382 0.000000
0.196716 0.556274 0.000000
0.242401 0.571655 0.000000
0.290405 0.587311 0.000000
0.341248 0.603180 0.000000
0.392059 0.605713 0.013641
0.438782 0.606140 0.020386
0.483917 0.606140 0.020386
0.529083 0.606140 0.020386
0.574280 0.606140 0.020386
0.622284 0.608673 0.023804
0.665894 0.607300 0.023315
0.708740 0.605591 0.022369
0.751038 0.603851 0.021423
0.788116 0.599579 0.024506
0.804413 0.586609 0.044586
0.820709 0.577240 0.063843
0.837006 0.570740 0.082306
0.853302 0.566742 0.100494
0.869598 0.564453 0.117859
0.885895 0.563293 0.133881
0.902191 0.562805 0.148621
0.918518 0.562958 0.162048
0.934814 0.563629 0.174194
0.951111 0.564484 0.184814
0.967407 0.565460 0.194031
0.983704 0.566528 0.201752
1.000000 0.567444 0.208008
0.000000 0.528046 0.024506
0.016296 0.541626 0.012054
0.037781 0.552582 0.000000
0.073059 0.552582 0.000000
0.110107 0.556946 0.000000
0.150879 0.571167 0.000000
0.193817 0.585846 0.000000
0.238464 0.600952 0.000000
0.285645 0.616394 0.000000
0.335022 0.632111 0.000000
0.386688 0.645142 0.002838
0.437073 0.646820 0.017334
0.482971 0.647034 0.019958
0.528137 0.647034 0.019958
0.573303 0.647034 0.019958
0.618439 0.647034 0.019958
0.665894 0.649414 0.023315
0.708740 0.647675 0.022369
0.751038 0.646027 0.021423
0.788116 0.641327 0.025055
0.804413 0.626495 0.048737
0.820709 0.615479 0.069397
0.837006 0.607239 0.087860
0.853302 0.602112 0.106079
0.869598 0.598694 0.123352
0.885895 0.596497 0.139343
0.902191 0.595276 0.154083
0.918518 0.594666 0.167419
0.934814 0.594727 0.179413
0.951111 0.595093 0.190094
0.967407 0.595551 0.199280
0.983704 0.596222 0.207031
1.000000 0.596893 0.213318
0.000000 0.561035 0.024475
0.016296 0.574615 0.011963
0.037750 0.585571 0.000000
0.072845 0.585571 0.000000
0.108795 0.586609 0.000000
0.149200 0.600647 0.000000
0.191315 0.615112 0.000000
0.235077 0.630096 0.000000
0.281403 0.645203 0.000000
0.329712 0.660828 0.000000
0.380310 0.676544 0.000000
0.432373 0.686127 0.006317
0.482025 0.687317 0.019592
0.527252 0.687317 0.019592
0.572540 0.687317 0.019592
0.617554 0.687317 0.019592
0.662170 0.687317 0.019592
0.708740 0.689240 0.022369
0.751038 0.687439 0.021423
0.788116 0.682312 0.025055
0.804413 0.664948 0.048737
0.820709 0.652100 0.071503
0.837006 0.642944 0.093323
0.853302 0.636597 0.111603
0.869598 0.632172 0.128815
0.885895 0.628967 0.144684
0.902191 0.626953 0.159332
0.918518 0.625671 0.172699
0.934814 0.625031 0.184692
0.951111 0.624878 0.195282
0.967407 0.625061 0.204468
0.983704 0.625336 0.212189
1.000000 0.625641 0.218414
0.000000 0.593597 0.024506
0.016296 0.607208 0.011841
0.037689 0.618134 0.000000
0.072632 0.618134 0.000000
0.108154 0.618134 0.000000
0.147614 0.629791 0.000000
0.189026 0.644226 0.000000
0.232208 0.658905 0.000000
0.277557 0.673889 0.000000
0.324890 0.689240 0.000000
0.374634 0.704773 0.000000
0.426361 0.720581 0.000000
0.478424 0.726654 0.009827
0.526428 0.726929 0.019226
0.571655 0.726929 0.019226
0.616760 0.726929 0.019226
0.661438 0.726929 0.019226
0.705597 0.726929 0.019226
0.751038 0.728363 0.021423
0.788116 0.722626 0.025055
0.804413 0.702850 0.048737
0.820709 0.687866 0.071503
0.837006 0.676849 0.093445
0.853302 0.669891 0.114929
0.869598 0.664886 0.134003
0.885895 0.660797 0.149902
0.902191 0.657959 0.164520
0.918518 0.656067 0.177795
0.934814 0.654816 0.189789
0.951111 0.654144 0.200348
0.967407 0.653839 0.209534
0.983704 0.653809 0.217224
1.000000 0.653839 0.223419
0.000000 0.625702 0.024506
0.016296 0.639282 0.011902
0.037659 0.650208 0.000000
0.072418 0.650208 0.000000
0.107788 0.650208 0.000000
0.145905 0.658752 0.000000
0.187164 0.672729 0.000000
0.229797 0.687347 0.000000
0.274323 0.702209 0.000000
0.320831 0.717407 0.000000
0.369415 0.732849 0.000000
0.420288 0.748474 0.000000
0.473236 0.763672 0.000610
0.524567 0.765961 0.014191
0.570984 0.765869 0.018829
0.616089 0.765869 0.018829
0.660736 0.765869 0.018829
0.704956 0.765869 0.018829
0.748505 0.765869 0.018829
0.788116 0.762421 0.025055
0.804413 0.740143 0.048737
0.820709 0.723022 0.071503
0.837006 0.710144 0.093445
0.853302 0.701782 0.114929
0.869598 0.695862 0.135071
0.885895 0.691498 0.153717
0.902191 0.688171 0.169525
0.918518 0.685638 0.182831
0.934814 0.683868 0.194763
0.951111 0.682709 0.205292
0.967407 0.681976 0.214478
0.983704 0.681610 0.222168
1.000000 0.681396 0.228394
0.000000 0.657227 0.024506
0.016296 0.670807 0.011810
0.037598 0.681732 0.000000
0.072327 0.681732 0.000000
0.107513 0.681732 0.000000
0.144714 0.687134 0.000000
0.185333 0.701141 0.000000
0.227448 0.715546 0.000000
0.271332 0.730194 0.000000
0.317139 0.745209 0.000000
0.364929 0.760437 0.000000
0.414795 0.775940 0.000000
0.466339 0.788116 0.003510
0.516357 0.788116 0.019318
0.564514 0.788116 0.034454
0.607697 0.788116 0.034454
0.650452 0.788116 0.034454
0.692749 0.788116 0.034454
0.734650 0.788116 0.034454
0.775635 0.788116 0.034454
0.804413 0.776672 0.048737
0.820709 0.757599 0.071503
0.837006 0.742981 0.093445
0.853302 0.733368 0.114929
0.869598 0.726257 0.135071
0.885895 0.720886 0.153717
0.902191 0.717010 0.170868
0.918518 0.714264 0.186432
0.934814 0.712128 0.199554
0.951111 0.710541 0.210083
0.967407 0.709442 0.219208
0.983704 0.708740 0.226929
1.000000 0.708252 0.233093
0.000000 0.688202 0.024506
0.016296 0.701782 0.011841
0.037598 0.712708 0.000000
0.072113 0.712708 0.000000
0.107300 0.712708 0.000000
0.143555 0.715240 0.000000
0.183716 0.729156 0.000000
0.225464 0.743286 0.000000
0.268707 0.757782 0.000000
0.314026 0.772491 0.000000
0.360748 0.787811 0.000000
0.409851 0.803223 0.000000
0.459869 0.804413 0.014313
0.508575 0.804413 0.029999
0.555542 0.804413 0.045715
0.599243 0.804413 0.055206
0.639801 0.804413 0.055206
0.679779 0.804413 0.055206
0.719421 0.804413 0.055206
0.758240 0.804413 0.055206
0.796539 0.804413 0.055206
0.820709 0.791473 0.071503
0.837006 0.775177 0.093445
0.853302 0.764313 0.114929
0.869598 0.756042 0.135071
0.885895 0.749878 0.153717
0.902191 0.745087 0.170868
0.918518 0.741608 0.186432
0.934814 0.739044 0.200439
0.951111 0.737366 0.212830
0.967407 0.736145 0.223572
0.983704 0.735260 0.231445
1.000000 0.734497 0.237549
0.000000 0.718567 0.024536
0.016296 0.732147 0.011719
0.037598 0.743073 0.000000
0.072083 0.743073 0.000000
0.107178 0.743073 0.000000
0.142548 0.743073 0.000000
0.182465 0.756592 0.000000
0.223572 0.770569 0.000000
0.266357 0.785004 0.000000
0.310883 0.799774 0.000000
0.357422 0.814606 0.000000
0.406219 0.820709 0.009125
0.454987 0.820709 0.024628
0.502502 0.820709 0.040131
0.548431 0.820709 0.055786
0.592438 0.820709 0.071411
0.631958 0.820709 0.075043
0.670013 0.820709 0.075043
0.707611 0.820709 0.075043
0.744659 0.820709 0.075043
0.781067 0.820709 0.075043
0.816772 0.820709 0.075043
0.837006 0.806702 0.093445
0.853302 0.794617 0.114929
0.869598 0.785431 0.135071
0.885895 0.778137 0.153717
0.902191 0.772644 0.170868
0.918518 0.768463 0.186432
0.934814 0.765320 0.200439
0.951111 0.763062 0.212830
0.967407 0.761536 0.223572
0.983704 0.760376 0.232544
1.000000 0.759705 0.239807
0.000000 0.748291 0.024536
0.016296 0.761841 0.011719
0.037537 0.772797 0.000000
0.071960 0.772797 0.000000
0.106873 0.772797 0.000000
0.142273 0.772797 0.000000
0.181000 0.783569 0.000000
0.222107 0.797455 0.000000
0.264374 0.811737 0.000000
0.308472 0.826233 0.000000
0.355103 0.837006 0.004181
0.403839 0.837006 0.019104
0.451447 0.837006 0.034576
0.497681 0.837006 0.050079
0.542572 0.837006 0.065460
0.585815 0.837006 0.080933
0.626587 0.837006 0.094055
0.662811 0.837006 0.094055
0.698700 0.837006 0.094055
0.734070 0.837006 0.094055
0.768829 0.837006 0.094055
0.802887 0.837006 0.094055
0.836426 0.837006 0.094055
0.853302 0.824310 0.114929
0.869598 0.814117 0.135071
0.885895 0.806091 0.153717
0.902191 0.799683 0.170868
0.918518 0.794861 0.186432
0.934814 0.791138 0.200439
0.951111 0.788361 0.212830
0.967407 0.786346 0.223572
0.983704 0.784943 0.232544
1.000000 0.783936 0.239807
0.000000 0.777313 0.024567
0.016296 0.790924 0.011688
0.037506 0.801819 0.000000
0.071838 0.801819 0.000000
0.106781 0.801819 0.000000
0.142059 0.801819 0.000000
0.179901 0.809998 0.000000
0.220612 0.823761 0.000000
0.262665 0.837921 0.000000
0.306274 0.852356 0.000000
0.354553 0.853302 0.013855
0.402283 0.853302 0.028839
0.448944 0.853302 0.043976
0.494171 0.853302 0.059326
0.537598 0.853302 0.075684
0.579285 0.853302 0.092102
0.619324 0.853302 0.108063
0.655762 0.853302 0.114929
0.690002 0.853302 0.114929
0.723969 0.853302 0.114929
0.757202 0.853302 0.114929
0.790009 0.853302 0.114929
0.822021 0.853302 0.114929
0.853302 0.853302 0.114929
0.869598 0.842163 0.135071
0.885895 0.833252 0.153717
0.902191 0.826263 0.170868
0.918518 0.820740 0.186432
0.934814 0.816528 0.200439
0.951111 0.813232 0.212830
0.967407 0.810883 0.223572
0.983704 0.809082 0.232544
1.000000 0.807861 0.239807
0.000000 0.805603 0.024475
0.016296 0.819183 0.011719
0.037537 0.830109 0.000000
0.071716 0.830109 0.000000
0.106567 0.830109 0.000000
0.141815 0.830109 0.000000
0.178986 0.835815 0.000000
0.219421 0.849579 0.000000
0.260956 0.863617 0.000000
0.307251 0.869598 0.008240
0.354797 0.869598 0.023041
0.401550 0.869598 0.037750
0.446838 0.869598 0.053741
0.490356 0.869598 0.070953
0.532593 0.869598 0.087677
0.573456 0.869598 0.103973
0.612549 0.869598 0.119659
0.650269 0.869598 0.134918
0.683197 0.869598 0.135071
0.715668 0.869598 0.135071
0.747742 0.869598 0.135071
0.779114 0.869598 0.135071
0.809998 0.869598 0.135071
0.840149 0.869598 0.135071
0.869598 0.869598 0.135071
0.885895 0.860016 0.153717
0.902191 0.852264 0.170868
0.918518 0.846100 0.186432
0.934814 0.841309 0.200439
0.951111 0.837646 0.212830
0.967407 0.834900 0.223572
0.983704 0.832825 0.232544
1.000000 0.831268 0.239807
0.000000 0.833099 0.024536
0.016296 0.846710 0.011566
0.037445 0.857605 0.000000
0.071747 0.857605 0.000000
0.106506 0.857605 0.000000
0.141602 0.857605 0.000000
0.178192 0.861145 0.000000
0.218414 0.874542 0.000000
0.260864 0.885895 0.002716
0.308746 0.885895 0.016937
0.355682 0.885895 0.031372
0.400787 0.885895 0.048004
0.444611 0.885895 0.065399
0.487335 0.885895 0.082336
0.528900 0.885895 0.098877
0.568848 0.885895 0.114929
0.607269 0.885895 0.130432
0.644257 0.885895 0.145599
0.678192 0.885895 0.153717
0.709534 0.885895 0.153717
0.740417 0.885895 0.153717
0.770752 0.885895 0.153717
0.800537 0.885895 0.153717
0.829681 0.885895 0.153717
0.858185 0.885895 0.153717
0.885895 0.885895 0.153717
0.902191 0.877563 0.170868
0.918518 0.870880 0.186432
0.934814 0.865601 0.200439
0.951111 0.861511 0.212830
0.967407 0.858337 0.223572
0.983704 0.856018 0.232544
1.000000 0.854340 0.239807
0.000000 0.859772 0.024475
0.016296 0.873352 0.011627
0.037445 0.884277 0.000000
0.071594 0.884277 0.000000
0.106354 0.884277 0.000000
0.141418 0.884277 0.000000
0.177429 0.885803 0.000000
0.217194 0.899323 0.000000
0.263519 0.902191 0.011017
0.310577 0.902191 0.024933
0.356018 0.902191 0.041229
0.399963 0.902191 0.058807
0.443054 0.902191 0.075867
0.484985 0.902191 0.092621
0.525970 0.902191 0.109039
0.565369 0.902191 0.125000
0.603241 0.902191 0.140472
0.639618 0.902191 0.155487
0.674500 0.902191 0.169922
0.705078 0.902191 0.170868
0.734955 0.902191 0.170868
0.764404 0.902191 0.170868
