src/assets/luts/大师配方/大师·韵.cube
#Created by: Adobe Photoshop Export Color Lookup Plugin
#Copyright: (C) Copyright 2026 aaa
TITLE "HG224大师滤镜.psd"
#LUT size
LUT_3D_SIZE 33
#data domain
DOMAIN_MIN 0.0 0.0 0.0
DOMAIN_MAX 1.0 1.0 1.0
#LUT data points
0.083069 0.116394 0.083069
0.102509 0.117737 0.084747
0.121277 0.118500 0.086243
0.140686 0.119354 0.086639
0.161804 0.119415 0.085266
0.184265 0.118713 0.083344
0.208832 0.117310 0.080750
0.235443 0.115723 0.078125
0.264618 0.114227 0.075592
0.296906 0.112335 0.072510
0.332245 0.110260 0.068939
0.370514 0.107666 0.064301
0.411530 0.104401 0.058350
0.454987 0.100342 0.050354
0.500519 0.095245 0.040039
0.547638 0.088593 0.028381
0.595581 0.080078 0.015015
0.641418 0.067261 0.015961
0.685913 0.050873 0.017059
0.728424 0.033386 0.018127
0.768555 0.019104 0.019104
0.805908 0.020050 0.020050
0.840179 0.020905 0.020905
0.871216 0.021667 0.021667
0.899170 0.022339 0.022339
0.924377 0.022980 0.022980
0.947266 0.023529 0.023529
0.968018 0.024078 0.024078
0.986908 0.024536 0.024536
1.000000 0.029083 0.029083
1.000000 0.045044 0.045044
1.000000 0.059570 0.059570
1.000000 0.072632 0.072632
0.081024 0.131470 0.081024
0.100037 0.132263 0.081696
0.121399 0.134674 0.085724
0.140045 0.134857 0.085663
0.160858 0.135925 0.086243
0.183380 0.136169 0.084747
0.207794 0.135681 0.082367
0.234741 0.134491 0.079224
0.264099 0.132782 0.075623
0.296570 0.130524 0.071228
0.332001 0.128510 0.067078
0.370331 0.126465 0.062317
0.411407 0.123901 0.056183
0.454895 0.120728 0.047882
0.500488 0.116821 0.037598
0.547638 0.111877 0.025909
0.595398 0.105377 0.014801
0.641205 0.096069 0.015930
0.685699 0.084930 0.017029
0.728271 0.071167 0.018097
0.768402 0.054047 0.019104
0.805756 0.036133 0.020020
0.840057 0.020905 0.020905
0.871094 0.021637 0.021637
0.899048 0.022369 0.022369
0.924255 0.023010 0.023010
0.947174 0.023560 0.023560
0.967865 0.024048 0.024048
0.986786 0.024567 0.024567
1.000000 0.028961 0.028961
1.000000 0.044922 0.044922
1.000000 0.059448 0.059448
1.000000 0.072510 0.072510
0.078430 0.147369 0.078430
0.097015 0.147461 0.078217
0.119202 0.150391 0.081818
0.140137 0.151794 0.084869
0.160095 0.152161 0.084625
0.182281 0.153381 0.085541
0.206635 0.153931 0.083893
0.233582 0.153595 0.080688
0.263000 0.152649 0.077057
0.295532 0.151215 0.072784
0.331482 0.149109 0.067352
0.369995 0.146729 0.061249
0.411285 0.143768 0.053558
0.454865 0.141266 0.044891
0.500458 0.138275 0.034668
0.547668 0.134430 0.022827
0.595154 0.129272 0.014771
0.640991 0.121979 0.015930
0.685516 0.113647 0.017029
0.728058 0.104095 0.018127
0.768219 0.092987 0.019104
0.805603 0.079895 0.020050
0.839874 0.064850 0.020874
0.870972 0.048218 0.021667
0.898895 0.032410 0.022339
0.924133 0.022980 0.022980
0.947021 0.023560 0.023560
0.967743 0.024048 0.024048
0.986694 0.024536 0.024536
1.000000 0.028839 0.028839
1.000000 0.044800 0.044800
1.000000 0.059326 0.059326
1.000000 0.072388 0.072388
0.075409 0.164276 0.075409
0.094177 0.164032 0.074860
0.116333 0.166748 0.077789
0.139130 0.169342 0.082031
0.160004 0.170044 0.083282
0.181580 0.170654 0.083038
0.205688 0.172089 0.084045
0.232391 0.172791 0.081970
0.262115 0.172760 0.078033
0.294739 0.172028 0.073700
0.330322 0.170837 0.068604
0.369415 0.168976 0.061920
0.410767 0.166931 0.054077
0.453827 0.164703 0.044922
0.499481 0.161743 0.033844
0.547577 0.157898 0.020294
0.594849 0.152710 0.014771
0.640717 0.146973 0.015930
0.685272 0.140381 0.017059
0.727844 0.132965 0.018097
0.768005 0.124756 0.019073
0.805389 0.115692 0.020020
0.839691 0.106049 0.020874
0.870758 0.095642 0.021637
0.898712 0.084412 0.022369
0.923950 0.072235 0.022949
0.946869 0.058716 0.023560
0.967621 0.045959 0.024078
0.986511 0.033691 0.024536
1.000000 0.028687 0.028687
1.000000 0.044678 0.044678
1.000000 0.059204 0.059204
1.000000 0.072235 0.072235
0.071686 0.182404 0.071686
0.091095 0.182190 0.071106
0.112854 0.184387 0.072906
0.136444 0.187347 0.076904
0.160248 0.189819 0.081512
0.181305 0.189636 0.080872
0.205017 0.190613 0.080505
0.231323 0.192291 0.081635
0.260529 0.193176 0.079285
0.293854 0.193420 0.074127
0.329590 0.192993 0.068970
0.368256 0.192078 0.062622
0.409637 0.190826 0.054535
0.453339 0.189087 0.044891
0.499786 0.186768 0.033203
0.547180 0.184082 0.020538
0.594208 0.178497 0.017578
0.640411 0.171875 0.015900
0.684967 0.166595 0.017059
0.727570 0.160645 0.018097
0.767731 0.154144 0.019073
0.805176 0.147308 0.020020
0.839447 0.140198 0.020874
0.870575 0.132721 0.021637
0.898499 0.125427 0.022339
0.923767 0.117981 0.022980
0.946655 0.110077 0.023529
0.967407 0.102356 0.024048
0.986359 0.094269 0.024536
1.000000 0.088989 0.028503
1.000000 0.094421 0.044495
1.000000 0.098755 0.059021
1.000000 0.102203 0.072083
0.067047 0.202087 0.067047
0.087280 0.201874 0.066406
0.108734 0.203156 0.067322
0.132965 0.206665 0.070923
0.157745 0.209381 0.075470
0.182068 0.211456 0.078979
0.204468 0.210968 0.077423
0.230621 0.212311 0.076843
0.259674 0.214294 0.078003
0.292145 0.215393 0.074860
0.328308 0.216003 0.069275
0.367523 0.216034 0.062134
0.409027 0.215515 0.053772
0.452820 0.214539 0.044281
0.498566 0.213104 0.033264
0.545593 0.210815 0.023987
0.592468 0.206085 0.022583
0.639618 0.200256 0.020111
0.684448 0.194122 0.018524
0.727264 0.188293 0.018097
0.767456 0.182953 0.019073
0.804871 0.177704 0.020020
0.839172 0.172089 0.020844
0.870300 0.166473 0.021637
0.898285 0.160919 0.022339
0.923523 0.155334 0.022980
0.946442 0.149933 0.023529
0.967163 0.144714 0.024048
0.986115 0.139313 0.024506
1.000000 0.136719 0.028290
1.000000 0.144104 0.044250
1.000000 0.150940 0.058807
1.000000 0.157074 0.071869
0.061310 0.223450 0.061310
0.082642 0.223236 0.060669
0.103882 0.223633 0.060516
0.128815 0.227264 0.064209
0.154480 0.230682 0.068176
0.180511 0.233551 0.072754
0.205414 0.234802 0.074493
0.229950 0.234344 0.072388
0.259033 0.236053 0.071594
0.291290 0.238373 0.072571
0.327362 0.240051 0.068207
0.366241 0.240875 0.061157
0.407745 0.241180 0.052979
0.452209 0.241028 0.043030
0.498047 0.240509 0.032135
0.544617 0.238098 0.028137
0.591583 0.234344 0.026825
0.638733 0.229645 0.024506
0.683594 0.224457 0.023010
0.726501 0.218964 0.021576
0.766968 0.213013 0.020111
0.804535 0.207916 0.020020
0.838837 0.203369 0.020844
0.869965 0.199127 0.021637
0.897980 0.194641 0.022339
0.923218 0.190430 0.022949
0.946167 0.186157 0.023529
0.966919 0.182190 0.024048
0.985840 0.178467 0.024506
1.000000 0.176788 0.028015
1.000000 0.184265 0.044006
1.000000 0.191162 0.058533
1.000000 0.197632 0.071594
0.053955 0.246857 0.053955
0.076874 0.246704 0.053253
0.098541 0.246490 0.052368
0.123932 0.250244 0.055542
0.150360 0.253937 0.059418
0.177338 0.257202 0.063751
0.205292 0.260254 0.068481
0.231079 0.260559 0.068054
0.258087 0.260040 0.065063
0.290680 0.262360 0.063782
0.326080 0.265045 0.064301
0.364807 0.266968 0.059357
0.406372 0.268341 0.051422
0.450836 0.269226 0.041412
0.496338 0.268799 0.034515
0.543457 0.266846 0.032654
0.590515 0.264038 0.031464
0.636688 0.260590 0.030182
0.682617 0.256256 0.027802
0.725555 0.251770 0.026489
0.766022 0.246887 0.025116
0.803711 0.241852 0.023865
0.838287 0.236877 0.022614
0.869598 0.231964 0.021637
0.897583 0.228546 0.022339
0.922852 0.225067 0.022949
0.945801 0.221893 0.023529
0.966583 0.218719 0.024048
0.985504 0.215729 0.024506
1.000000 0.214508 0.027679
1.000000 0.221588 0.043671
1.000000 0.228149 0.058228
1.000000 0.234314 0.071289
0.044617 0.272644 0.044617
0.069885 0.272491 0.043823
0.092773 0.272308 0.042877
0.118408 0.275146 0.045288
0.145630 0.279388 0.048798
0.173431 0.282837 0.053040
0.202332 0.286224 0.057434
0.232300 0.289551 0.061829
0.259552 0.289154 0.058655
0.289642 0.288788 0.054840
0.325470 0.291534 0.053894
0.363922 0.294556 0.053680
0.405426 0.297119 0.047943
0.449799 0.298645 0.040344
0.494904 0.298523 0.039429
0.542145 0.297485 0.037537
0.589203 0.295654 0.036377
0.635529 0.293030 0.035217
0.681427 0.289764 0.032990
0.723297 0.286316 0.032776
0.763763 0.282623 0.031677
0.801422 0.278595 0.030548
0.837250 0.274017 0.028076
0.868591 0.269836 0.026978
0.896759 0.265961 0.025940
0.922211 0.262299 0.025085
0.945312 0.258514 0.024200
0.966156 0.255402 0.024017
0.985107 0.253174 0.024506
1.000000 0.251923 0.027252
1.000000 0.258392 0.043274
1.000000 0.264618 0.057831
1.000000 0.270294 0.070923
0.032501 0.300751 0.032501
0.061035 0.300629 0.031616
0.085785 0.300476 0.030579
0.111908 0.302856 0.032043
0.140259 0.307068 0.035919
0.168976 0.311432 0.039551
0.198669 0.314850 0.044159
0.229767 0.318359 0.048950
0.261078 0.320801 0.051422
0.291260 0.320374 0.047516
0.324432 0.320374 0.042999
0.363342 0.323578 0.041382
0.404144 0.326447 0.045013
0.447327 0.328613 0.046173
0.493225 0.329712 0.044617
0.539734 0.329742 0.043701
0.586853 0.328827 0.042664
0.634094 0.327240 0.040649
0.679077 0.324921 0.039459
0.722046 0.322296 0.038361
0.762543 0.319305 0.037201
0.800232 0.316193 0.036194
0.836060 0.312531 0.033844
0.866058 0.309662 0.034302
0.895599 0.306122 0.032043
0.921082 0.302948 0.031128
0.944183 0.299896 0.030396
0.965118 0.296967 0.029480
0.984161 0.294373 0.028992
1.000000 0.292480 0.029816
1.000000 0.297485 0.044952
1.000000 0.302246 0.058624
1.000000 0.306671 0.071014
0.017853 0.331238 0.017853
0.049042 0.331116 0.016998
0.076813 0.330963 0.015991
0.103943 0.332611 0.016724
0.133698 0.337097 0.020813
0.163513 0.341858 0.024384
0.194305 0.345612 0.028900
0.226440 0.349609 0.033478
0.260345 0.353607 0.038208
0.293030 0.354736 0.039520
0.325592 0.353912 0.039429
0.361298 0.353699 0.040222
0.402344 0.356689 0.044830
0.445374 0.359772 0.049622
0.490479 0.362122 0.050934
0.537872 0.363342 0.049255
0.585114 0.363525 0.048401
0.631531 0.362823 0.047333
0.676514 0.361572 0.046326
0.720551 0.359772 0.044220
0.761108 0.357422 0.043121
0.798859 0.355164 0.042267
0.834717 0.352386 0.040009
0.866119 0.349579 0.039032
0.892914 0.347565 0.039703
0.919800 0.344574 0.037354
0.942932 0.342224 0.036652
0.963867 0.339813 0.036041
0.981415 0.338104 0.036957
0.998718 0.336151 0.036346
1.000000 0.339844 0.050232
1.000000 0.344025 0.064148
1.000000 0.347748 0.076508
0.000275 0.363861 0.000275
0.032074 0.363770 0.000000
0.065063 0.363647 0.000000
0.093597 0.364197 0.000671
0.125214 0.368774 0.006378
0.156128 0.373718 0.011566
0.187775 0.377625 0.017944
0.220703 0.381744 0.024597
0.255249 0.385345 0.032440
0.292114 0.389496 0.040558
0.326416 0.389557 0.043396
0.361664 0.388641 0.043274
0.400055 0.388763 0.044556
0.443390 0.392029 0.049377
0.488403 0.395355 0.054382
0.534943 0.397919 0.056061
0.583130 0.399292 0.054352
0.629669 0.399628 0.053406
0.674744 0.399292 0.052429
0.717804 0.398346 0.051575
0.758331 0.397095 0.050690
0.797302 0.395325 0.048553
0.830658 0.393585 0.048889
0.863312 0.391479 0.046844
0.891510 0.389526 0.046051
0.918365 0.387268 0.044006
0.940033 0.385773 0.044830
0.960968 0.383942 0.044159
0.980042 0.382172 0.043579
0.998932 0.379974 0.041534
1.000000 0.382782 0.055634
1.000000 0.386261 0.069641
1.000000 0.389282 0.082001
0.000000 0.398499 0.000000
0.011292 0.398407 0.000000
0.048615 0.398285 0.000000
0.081085 0.398163 0.000000
0.112183 0.400269 0.002441
0.145203 0.405243 0.008270
0.178467 0.409821 0.014465
0.212616 0.414734 0.020721
0.248444 0.418488 0.028748
0.286560 0.423004 0.036804
0.326447 0.426819 0.046448
0.362640 0.426483 0.047485
0.400208 0.425507 0.047394
0.441010 0.425995 0.049103
0.486328 0.429443 0.054138
0.532745 0.433014 0.059326
0.580017 0.435730 0.061554
0.627533 0.437378 0.059814
0.672760 0.437927 0.058929
0.715881 0.437866 0.058044
0.757690 0.437317 0.055969
0.795563 0.436340 0.055084
0.830200 0.435028 0.054260
0.861664 0.433716 0.053528
0.889893 0.432281 0.052734
0.915405 0.430847 0.052094
0.938538 0.429352 0.051422
0.959442 0.427979 0.050903
0.978546 0.426575 0.050446
0.995880 0.425476 0.049988
1.000000 0.426727 0.061127
1.000000 0.429138 0.075073
1.000000 0.431488 0.087524
0.000000 0.434845 0.000000
0.000000 0.434753 0.000000
0.024933 0.434662 0.000000
0.065125 0.434540 0.000000
0.097992 0.434387 0.000000
0.132050 0.438354 0.004242
0.167145 0.443695 0.010376
0.203064 0.448608 0.017120
0.240417 0.453094 0.024841
0.279907 0.457825 0.033112
0.321198 0.462646 0.041931
0.363495 0.466125 0.051910
0.401337 0.465240 0.051788
0.440857 0.464233 0.051697
0.483826 0.465149 0.053894
0.530579 0.468750 0.059082
0.577759 0.472351 0.064331
0.624176 0.475311 0.067383
0.669495 0.476807 0.066589
0.713715 0.477966 0.064758
0.754486 0.478149 0.063934
0.792358 0.477966 0.063171
0.828308 0.477478 0.061066
0.858490 0.476624 0.061676
0.888092 0.475739 0.059723
0.912231 0.474945 0.060516
0.936768 0.473877 0.058563
0.956238 0.472839 0.059509
0.976837 0.471588 0.057495
0.992706 0.470886 0.058563
1.000000 0.471130 0.066650
1.000000 0.472473 0.080505
1.000000 0.473907 0.093079
0.000000 0.472717 0.000000
0.000000 0.472626 0.000000
0.000000 0.472534 0.000000
0.042206 0.472443 0.000000
0.082550 0.472290 0.000000
0.116089 0.472137 0.000000
0.153900 0.478241 0.006317
0.191772 0.483917 0.012970
0.230774 0.489166 0.020447
0.271698 0.493927 0.029053
0.314423 0.498901 0.038147
0.358856 0.503998 0.047729
0.402283 0.506592 0.056396
0.442230 0.505646 0.056305
0.483307 0.504547 0.056183
0.527985 0.505890 0.058807
0.575470 0.509552 0.064087
0.621918 0.513184 0.069275
0.666901 0.516357 0.073425
0.710266 0.518005 0.072662
0.752167 0.519470 0.070862
0.790131 0.519928 0.070099
0.824951 0.520020 0.069366
0.856415 0.519897 0.068787
0.884705 0.519501 0.068176
0.910278 0.519012 0.067657
0.933411 0.518433 0.067047
0.954376 0.517883 0.066650
0.974976 0.517181 0.064697
0.990875 0.516357 0.065765
1.000000 0.516083 0.072021
1.000000 0.516449 0.085999
1.000000 0.516907 0.098541
0.000000 0.511749 0.000000
0.000000 0.511688 0.000000
0.000000 0.511597 0.000000
0.010254 0.511505 0.000000
0.061554 0.511383 0.000000
0.101227 0.511230 0.000000
0.138214 0.513031 0.002136
0.178619 0.519501 0.008972
0.219421 0.525543 0.016235
0.262115 0.531067 0.024597
0.306396 0.536072 0.034088
0.352142 0.541351 0.043915
0.399017 0.545959 0.055054
0.443329 0.548248 0.061066
0.484802 0.547241 0.060944
0.527283 0.546112 0.060822
0.572784 0.547821 0.063782
0.619507 0.551483 0.068970
0.664642 0.554901 0.074005
0.707642 0.558258 0.078796
0.748535 0.560272 0.079132
0.787720 0.562073 0.077301
0.822571 0.562683 0.076569
0.854156 0.563110 0.075989
0.882507 0.563293 0.075409
0.908112 0.563110 0.074890
0.931305 0.562866 0.074341
0.952332 0.562653 0.073883
0.972931 0.562469 0.071960
0.988861 0.562073 0.073151
1.000000 0.561523 0.077545
1.000000 0.560577 0.091400
1.000000 0.560120 0.104034
0.000000 0.551331 0.000000
0.000000 0.551270 0.000000
0.000000 0.551178 0.000000
0.000000 0.551086 0.000000
0.029449 0.550995 0.000000
0.081909 0.550873 0.000000
0.121948 0.550690 0.000000
0.163574 0.554718 0.005096
0.206818 0.561523 0.012451
0.251221 0.567902 0.020569
0.297211 0.573730 0.029724
0.344635 0.579895 0.039154
0.392700 0.584503 0.050446
0.441559 0.589355 0.062073
0.486084 0.590485 0.065765
0.528809 0.589417 0.065643
0.571777 0.588226 0.065521
0.616821 0.590179 0.068695
0.662170 0.593781 0.073730
0.705383 0.597198 0.078583
0.746002 0.600342 0.083069
0.783875 0.602844 0.085632
0.818817 0.604218 0.085052
0.850403 0.605255 0.084473
0.878815 0.606018 0.084106
0.905762 0.606781 0.082184
0.929016 0.606934 0.081696
0.950073 0.606842 0.081177
0.969238 0.606781 0.080750
0.986664 0.606812 0.080475
1.000000 0.606262 0.082642
1.000000 0.604340 0.096619
1.000000 0.603180 0.109406
0.000000 0.590424 0.000000
0.000000 0.590363 0.000000
0.000000 0.590271 0.000000
0.000000 0.590210 0.000000
0.000000 0.590118 0.000000
0.055603 0.589996 0.000000
0.104828 0.589844 0.000000
0.146027 0.589661 0.000275
0.192413 0.597260 0.007996
0.239136 0.604370 0.016083
0.287109 0.609894 0.026154
0.335754 0.615967 0.036011
0.385712 0.622437 0.045990
0.436157 0.628204 0.056976
0.486633 0.633209 0.069000
0.530121 0.632141 0.070404
0.573395 0.631042 0.070251
0.615509 0.629852 0.070129
0.659515 0.631897 0.073456
0.702911 0.635498 0.078308
0.743744 0.638702 0.082825
0.781586 0.641693 0.087036
0.816223 0.644287 0.090912
0.847839 0.646027 0.091553
0.876312 0.647247 0.091125
0.901978 0.648041 0.090607
0.925232 0.648621 0.090271
0.947723 0.649628 0.088470
0.966949 0.649811 0.088074
0.984406 0.649872 0.087677
1.000000 0.650085 0.087708
1.000000 0.646912 0.101746
1.000000 0.644806 0.114471
0.000000 0.628418 0.000000
0.000000 0.628357 0.000000
0.000000 0.628296 0.000000
0.000000 0.628235 0.000000
0.000000 0.628143 0.000000
0.017029 0.628021 0.000000
0.083557 0.627869 0.000000
0.130890 0.627716 0.000000
0.176697 0.631134 0.003784
0.226074 0.639008 0.012115
0.276031 0.645203 0.022156
0.326416 0.653137 0.030670
0.377716 0.658264 0.042419
0.429565 0.664917 0.052826
0.481354 0.669861 0.065216
0.531097 0.673584 0.075043
0.574799 0.672546 0.074890
0.617279 0.671478 0.074799
0.658142 0.670349 0.074646
0.700317 0.672516 0.078003
0.741302 0.675842 0.082581
0.779327 0.678894 0.086792
0.814087 0.681610 0.090668
0.845520 0.684113 0.094177
0.873749 0.686279 0.097290
0.899414 0.687592 0.097565
0.922760 0.688507 0.097076
0.943909 0.689301 0.096710
0.964539 0.690460 0.094971
0.982086 0.690887 0.094604
0.997894 0.691284 0.094360
1.000000 0.687836 0.106445
1.000000 0.684509 0.119080
0.000000 0.664825 0.000000
0.000000 0.664764 0.000000
0.000000 0.664703 0.000000
0.000000 0.664642 0.000000
0.000000 0.664551 0.000000
0.000000 0.664459 0.000000
0.054810 0.664337 0.000000
0.113495 0.664154 0.000000
0.160309 0.663971 0.000000
0.212555 0.671295 0.008759
0.264343 0.679413 0.017609
0.316589 0.686920 0.027130
0.369324 0.692719 0.038605
0.422241 0.699097 0.049622
0.475677 0.705872 0.060486
0.528473 0.710907 0.073273
0.575836 0.712280 0.079346
0.618561 0.711304 0.079224
0.659851 0.710236 0.079102
0.698822 0.709137 0.078979
0.738770 0.711365 0.082275
0.776947 0.714417 0.086548
0.811829 0.717255 0.090424
0.843414 0.719727 0.093933
0.871704 0.721924 0.097076
0.897247 0.723999 0.099945
0.920380 0.725708 0.102509
0.941437 0.727020 0.103424
0.962128 0.728516 0.101654
0.978241 0.728577 0.102692
0.994110 0.729187 0.102478
1.000000 0.726440 0.110748
1.000000 0.722229 0.123505
0.000000 0.699280 0.000000
0.000000 0.699249 0.000000
0.000000 0.699188 0.000000
0.000000 0.699127 0.000000
0.000000 0.699036 0.000000
0.000000 0.698944 0.000000
0.014160 0.698822 0.000000
0.092804 0.698669 0.000000
0.146149 0.698486 0.000000
0.197876 0.702271 0.004547
0.252197 0.711060 0.013641
0.306549 0.717987 0.024475
0.360657 0.725647 0.034485
0.414978 0.732697 0.045227
0.469421 0.739136 0.056732
0.523071 0.743774 0.070160
0.575714 0.748932 0.082733
0.619751 0.748932 0.083405
0.661133 0.747955 0.083313
0.700378 0.746887 0.083160
0.737274 0.745850 0.083069
0.774536 0.747986 0.086243
0.809570 0.750916 0.090179
0.841217 0.753448 0.093689
0.869629 0.755676 0.096832
0.895233 0.757721 0.099731
0.918427 0.759613 0.102264
0.939423 0.761292 0.104645
0.958527 0.762634 0.106750
0.975891 0.763947 0.108673
0.991760 0.764954 0.108704
1.000000 0.762695 0.114777
1.000000 0.757599 0.127533
0.000000 0.731384 0.000000
0.000000 0.731354 0.000000
0.000000 0.731293 0.000000
0.000000 0.731232 0.000000
0.000000 0.731140 0.000000
0.000000 0.731049 0.000000
0.000000 0.730957 0.000000
0.067078 0.730804 0.000000
0.130737 0.730621 0.000000
0.182800 0.730408 0.000977
0.240143 0.739838 0.010437
0.296021 0.748688 0.019867
0.352020 0.755646 0.031189
0.407593 0.763306 0.041656
0.463104 0.769135 0.054108
0.518127 0.775604 0.065887
0.571930 0.781433 0.078003
0.620667 0.783936 0.087311
0.662231 0.783020 0.087219
0.701752 0.782013 0.087097
0.738678 0.781036 0.087006
0.772888 0.779999 0.086853
0.807281 0.782074 0.089905
0.839081 0.784821 0.093445
0.867554 0.787170 0.096619
0.893250 0.789185 0.099487
0.916504 0.791046 0.102081
0.937561 0.792725 0.104431
0.956726 0.794220 0.106567
0.974121 0.795532 0.108490
0.989899 0.796844 0.110260
1.000000 0.795624 0.116089
1.000000 0.790009 0.130371
0.000000 0.760895 0.000000
0.000000 0.760864 0.000000
0.000000 0.760834 0.000000
0.000000 0.760773 0.000000
0.000000 0.760681 0.000000
0.000000 0.760590 0.000000
0.000000 0.760498 0.000000
0.032104 0.760376 0.000000
0.113770 0.760193 0.000000
0.170502 0.759979 0.000000
0.227783 0.766998 0.006439
0.286133 0.774994 0.017365
0.343262 0.783844 0.027191
0.400146 0.790771 0.038879
0.456696 0.797119 0.051086
0.512848 0.804169 0.062531
0.567352 0.809418 0.075531
0.619049 0.814148 0.088287
0.663086 0.815186 0.090790
0.702789 0.814270 0.090668
0.740112 0.813324 0.090607
0.774353 0.812408 0.090485
0.805817 0.811462 0.090363
0.836975 0.813538 0.093201
0.865540 0.815765 0.096405
0.891296 0.818024 0.099274
0.914642 0.819977 0.101868
0.935730 0.821655 0.104218
0.954956 0.823181 0.106354
0.972412 0.824524 0.108307
0.988190 0.825684 0.110077
1.000000 0.825256 0.114227
1.000000 0.818939 0.128571
0.000000 0.787720 0.000000
0.000000 0.787689 0.000000
0.000000 0.787628 0.000000
0.000000 0.787598 0.000000
0.000000 0.787506 0.000000
0.000000 0.787445 0.000000
0.000000 0.787323 0.000000
0.000000 0.787201 0.000000
0.094910 0.787048 0.000000
0.158478 0.786835 0.000000
0.216003 0.789612 0.004333
0.276337 0.799622 0.014221
0.335175 0.807556 0.025482
0.392944 0.816345 0.035522
0.450531 0.823181 0.047607
0.507507 0.829407 0.060120
0.563232 0.836456 0.071472
0.616211 0.841675 0.084106
0.663818 0.844452 0.094055
0.703735 0.843567 0.093933
0.741180 0.842651 0.093872
0.775665 0.841766 0.093750
0.807159 0.840912 0.093658
0.835480 0.840027 0.093567
0.863647 0.841919 0.096191
0.889465 0.844116 0.099060
0.912872 0.846130 0.101685
0.934021 0.847687 0.104034
0.953247 0.849426 0.106171
0.970764 0.850708 0.108124
0.986603 0.851959 0.109894
1.000000 0.852661 0.112457
1.000000 0.845245 0.126831
0.000000 0.811951 0.000000
0.000000 0.811920 0.000000
0.000000 0.811859 0.000000
0.000000 0.811829 0.000000
0.000000 0.811768 0.000000
0.000000 0.811676 0.000000
0.000000 0.811584 0.000000
0.000000 0.811462 0.000000
0.073669 0.811310 0.000000
0.146332 0.811096 0.000000
0.204437 0.810852 0.001495
0.266815 0.821350 0.011597
0.326874 0.831207 0.021423
0.386200 0.838989 0.032959
0.444794 0.846222 0.044952
0.502441 0.852905 0.057159
0.558807 0.859039 0.069702
0.612244 0.864746 0.081818
0.662842 0.869995 0.093719
0.704468 0.869995 0.096924
0.742065 0.869141 0.096802
0.776550 0.868286 0.096710
0.808167 0.867432 0.096619
0.836731 0.866638 0.096527
0.862305 0.865875 0.096466
0.887726 0.867706 0.098877
0.911194 0.869690 0.101471
0.932373 0.871277 0.103851
0.951691 0.873016 0.105988
0.969208 0.874390 0.107971
0.985046 0.875641 0.109711
0.999481 0.876740 0.111298
1.000000 0.869293 0.125214
0.000000 0.833923 0.000000
0.000000 0.833893 0.000000
0.000000 0.833862 0.000000
0.000000 0.833801 0.000000
0.000000 0.833740 0.000000
0.000000 0.833649 0.000000
0.000000 0.833557 0.000000
0.000000 0.833435 0.000000
0.047607 0.833282 0.000000
0.133636 0.833099 0.000000
0.194611 0.832886 0.000000
0.257294 0.842133 0.008026
0.319550 0.850861 0.019592
0.379791 0.859039 0.031097
0.439270 0.866669 0.042847
0.497742 0.873718 0.055023
0.554779 0.880280 0.067352
0.608887 0.886353 0.079193
0.659607 0.890656 0.092010
0.705048 0.893951 0.099579
0.742767 0.893127 0.099487
0.777496 0.892303 0.099396
0.809082 0.891479 0.099304
0.837738 0.890686 0.099182
0.863312 0.889954 0.099121
0.886414 0.889313 0.099060
0.909576 0.891022 0.101318
0.930817 0.892639 0.103668
0.950165 0.894287 0.105835
0.967712 0.895691 0.107788
0.983643 0.897217 0.109558
0.998077 0.898254 0.111176
1.000000 0.891113 0.123688
0.000000 0.853882 0.000000
0.000000 0.853851 0.000000
0.000000 0.853821 0.000000
0.000000 0.853760 0.000000
0.000000 0.853699 0.000000
0.000000 0.853638 0.000000
0.000000 0.853546 0.000000
0.000000 0.853424 0.000000
0.015625 0.853271 0.000000
0.120789 0.853088 0.000000
0.186157 0.852875 0.000000
0.248779 0.859161 0.006439
0.312439 0.868225 0.018127
0.373810 0.876770 0.029663
0.434021 0.884735 0.041351
0.493011 0.892212 0.053284
0.550659 0.899109 0.065399
0.605621 0.905548 0.077179
0.656799 0.910187 0.089752
0.705200 0.915863 0.100281
0.743225 0.914917 0.101898
0.778259 0.914093 0.101807
