src/assets/luts/大师配方/大师·晨.cube
#Created by: Adobe Photoshop Export Color Lookup Plugin
#Copyright: (C) Copyright 2025 avin.hua
TITLE "大师-晨-清晨"
#LUT size
LUT_3D_SIZE 8
#data domain
#LUT data points
DOMAIN_MIN 0.000000 0.000000 0.000000
DOMAIN_MAX 0.903226 0.903226 0.903226
0.048096 0.048096 0.048096
0.176086 0.051971 0.051971
0.322571 0.045227 0.045227
0.496368 0.024658 0.024658
0.670105 0.017120 0.017120
0.824646 0.009033 0.009033
0.946442 0.002747 0.002747
1.000000 0.000000 0.000000
0.028137 0.167175 0.028137
0.169250 0.169250 0.055878
0.317749 0.183807 0.047089
0.493866 0.181244 0.024536
0.668793 0.160217 0.017181
0.823639 0.134277 0.009064
0.945587 0.103424 0.002777
1.000000 0.102905 0.000000
0.014984 0.304718 0.014984
0.165070 0.307404 0.015137
0.308563 0.308563 0.037781
0.484680 0.332306 0.026215
0.662201 0.328552 0.017548
0.819061 0.314789 0.009308
0.942413 0.298676 0.002960
1.000000 0.294922 0.000000
0.023285 0.469269 0.023285
0.116608 0.470337 0.023346
0.318726 0.476013 0.023621
0.474701 0.474701 0.023560
0.651489 0.496460 0.018097
0.809723 0.501312 0.009796
0.933929 0.498779 0.003387
1.000000 0.496765 0.000000
0.018951 0.635406 0.018951
0.018982 0.635010 0.018982
0.282288 0.641632 0.018616
0.487885 0.645386 0.018433
0.642670 0.642670 0.018555
0.799194 0.663391 0.010345
0.923584 0.675201 0.003906
1.000000 0.678680 0.000000
0.011200 0.782623 0.011200
0.011230 0.782349 0.011230
0.220764 0.786499 0.011017
0.467834 0.792877 0.010681
0.657318 0.794678 0.010590
0.791565 0.791565 0.010742
0.915314 0.808807 0.004333
1.000000 0.821320 0.000000
0.005188 0.898895 0.005188
0.005188 0.898682 0.005188
0.138062 0.900970 0.005066
0.437714 0.909698 0.004639
0.657227 0.912842 0.004456
0.804291 0.911621 0.004517
0.909088 0.909088 0.004669
1.000000 0.921021 0.000000
0.000397 0.992096 0.000397
0.000397 0.991943 0.000397
0.000397 0.992340 0.000397
0.404968 1.000000 0.000000
0.645691 1.000000 0.000000
0.812439 1.000000 0.000000
0.917511 1.000000 0.000000
1.000000 1.000000 0.000000
0.045624 0.058777 0.173126
0.170929 0.039032 0.170929
0.317657 0.032349 0.172913
0.494324 0.024567 0.180115
0.670105 0.017120 0.166962
0.824646 0.009033 0.142395
0.946442 0.002747 0.113708
1.000000 0.000000 0.114014
0.028137 0.167175 0.167175
0.164307 0.164307 0.164307
0.313141 0.169617 0.169617
0.487335 0.169617 0.169617
0.660706 0.149231 0.149231
0.814423 0.117950 0.117950
0.935760 0.078674 0.078674
1.000000 0.050140 0.050140
0.014984 0.304718 0.149933
0.142273 0.303040 0.142273
0.304840 0.304840 0.174530
0.480743 0.320648 0.175201
0.656891 0.307678 0.139221
0.811981 0.289673 0.093109
0.933777 0.275574 0.039459
1.000000 0.269135 0.000000
0.023285 0.469269 0.110291
0.093170 0.464905 0.093170
0.298645 0.468719 0.132416
0.470032 0.470032 0.175751
0.646667 0.487671 0.172333
0.803436 0.485413 0.123810
0.926880 0.477234 0.060486
1.000000 0.469360 0.000000
0.018951 0.635406 0.018951
0.019257 0.629486 0.019257
0.243896 0.630096 0.019226
0.473724 0.638306 0.125854
0.636658 0.636658 0.147247
0.792358 0.656616 0.157104
0.916626 0.663361 0.105713
1.000000 0.664062 0.027893
0.011200 0.782623 0.011200
0.011505 0.776733 0.011505
0.170837 0.775970 0.011566
0.441437 0.783051 0.011200
0.649750 0.787415 0.116699
0.783936 0.783936 0.080902
0.907410 0.800751 0.089630
1.000000 0.813538 0.080536
0.005188 0.898895 0.005188
0.005493 0.893127 0.005493
0.077271 0.892548 0.005524
0.404572 0.898163 0.005219
0.639130 0.903748 0.004944
0.795410 0.903290 0.008423
0.900757 0.900757 0.005096
1.000000 0.914764 0.000000
0.000397 0.992096 0.000397
0.000702 0.986389 0.000702
0.000732 0.985931 0.000732
0.364380 0.991394 0.000427
0.622803 0.996429 0.000183
0.802826 0.998779 0.000061
0.911194 0.996918 0.000153
0.994873 0.994873 0.000275
0.043884 0.071594 0.315521
0.154022 0.040405 0.314850
0.311005 0.020569 0.311005
0.483307 0.023987 0.308807
0.661072 0.017578 0.304474
0.819031 0.009308 0.297638
0.942871 0.002930 0.290710
1.000000 0.000000 0.295288
0.025726 0.179565 0.312012
0.158295 0.173920 0.310638
0.307922 0.152740 0.307922
0.481842 0.154266 0.308807
0.658569 0.142120 0.306061
0.814423 0.117767 0.298462
0.935760 0.078522 0.285400
1.000000 0.049988 0.279755
0.014984 0.304718 0.304718
0.142273 0.303040 0.303040
0.297394 0.297394 0.297394
0.473694 0.303833 0.303833
0.648834 0.295044 0.295044
0.802521 0.280518 0.280518
0.923462 0.266052 0.266052
1.000000 0.252655 0.252655
0.023285 0.469269 0.286835
0.093170 0.464905 0.280640
0.272369 0.462189 0.272369
0.463623 0.463623 0.309998
0.640564 0.473450 0.305267
0.796936 0.462952 0.277252
0.919647 0.449707 0.250732
1.000000 0.441284 0.232513
0.018951 0.635406 0.246979
0.019257 0.629486 0.237122
0.226746 0.626587 0.226746
0.451996 0.630127 0.267212
0.630310 0.630310 0.307678
0.785583 0.646484 0.311584
0.909210 0.648987 0.286804
1.000000 0.646637 0.262482
0.011200 0.782623 0.188232
0.011505 0.776733 0.175385
0.156006 0.771637 0.156006
0.406464 0.772949 0.179810
0.636322 0.779175 0.284515
0.777008 0.777008 0.293732
0.899200 0.792877 0.304718
0.997681 0.802490 0.293762
0.005188 0.898895 0.107758
0.005493 0.893127 0.086121
0.027039 0.886566 0.027039
0.354523 0.885834 0.021484
0.617798 0.894165 0.205078
0.788055 0.895416 0.287048
0.892822 0.892822 0.275177
0.990814 0.906128 0.283051
0.000397 0.992096 0.000397
0.000702 0.986389 0.000702
0.001038 0.979767 0.001038
0.312469 0.978638 0.001099
0.593445 0.985748 0.099152
0.788147 0.988922 0.240417
0.902527 0.987793 0.265930
0.985687 0.985687 0.253601
0.044037 0.087830 0.484863
0.129517 0.043976 0.484802
0.296387 0.025604 0.482483
0.478455 0.023743 0.478455
0.647766 0.018311 0.461945
0.806946 0.009949 0.457367
0.931885 0.003479 0.453735
1.000000 0.000000 0.452026
0.023956 0.202026 0.482178
0.155273 0.188324 0.479736
0.284607 0.152313 0.478912
0.474335 0.135651 0.474335
0.646088 0.101288 0.460510
0.803375 0.066650 0.455750
0.927612 0.013458 0.451599
1.000000 0.000000 0.449249
0.023743 0.313263 0.478241
0.137634 0.315552 0.474854
0.288879 0.307404 0.471558
0.468231 0.283142 0.468231
0.643280 0.275879 0.459015
0.799500 0.269226 0.456360
0.922211 0.261261 0.454224
1.000000 0.252289 0.451599
0.023285 0.469269 0.469269
0.093170 0.464905 0.464905
0.272369 0.462189 0.462189
0.453583 0.453583 0.453583
0.632019 0.453125 0.453125
0.786774 0.445282 0.445282
0.907867 0.437012 0.437012
1.000000 0.429260 0.429260
0.018951 0.635406 0.442657
0.019257 0.629486 0.435394
0.226746 0.626587 0.431030
0.420868 0.621216 0.420868
0.622009 0.622009 0.461029
0.777313 0.631073 0.458740
0.900696 0.625916 0.439728
0.998871 0.618225 0.422943
0.011200 0.782623 0.409119
0.011505 0.776733 0.401001
0.156006 0.771637 0.393280
0.381195 0.765991 0.381195
0.612732 0.768463 0.425568
0.768158 0.768158 0.460205
0.889801 0.782349 0.471191
0.988373 0.787384 0.458038
0.005188 0.898895 0.375153
0.005493 0.893127 0.366669
0.027039 0.886566 0.353729
0.342285 0.880219 0.342285
0.581482 0.881989 0.369629
0.776184 0.885284 0.456390
0.883209 0.883209 0.456329
0.980408 0.895721 0.466736
0.000397 0.992096 0.341278
0.000702 0.986389 0.332092
0.001038 0.979767 0.317413
0.303223 0.972015 0.303223
0.548492 0.972717 0.315369
0.766022 0.976959 0.409149
0.892090 0.977356 0.457214
0.975281 0.975281 0.450653
0.029480 0.090698 0.654297
0.097595 0.032166 0.654510
0.257721 0.018005 0.653320
0.461060 0.018127 0.650726
0.646820 0.018341 0.646820
0.796204 0.010498 0.630951
0.917816 0.004211 0.622681
1.000000 0.000000 0.621368
0.018036 0.210419 0.652618
0.140839 0.192383 0.649078
0.245361 0.140930 0.649109
0.449554 0.123993 0.646271
0.641632 0.090088 0.641632
0.789886 0.010834 0.623718
0.915558 0.004333 0.619873
1.000000 0.000000 0.618286
0.018188 0.326385 0.649841
0.119385 0.328064 0.645569
0.273682 0.311188 0.641998
0.433685 0.270508 0.640869
0.636414 0.257629 0.636414
0.786530 0.232849 0.621094
0.911377 0.221619 0.618652
1.000000 0.212189 0.617432
0.018433 0.461029 0.644958
0.072784 0.462158 0.639740
0.256653 0.465179 0.636078
0.436157 0.456055 0.630585
0.627319 0.430847 0.627319
0.781158 0.423431 0.616638
0.904510 0.421539 0.615631
1.000000 0.419250 0.615356
0.018951 0.635406 0.635406
0.019257 0.629486 0.629486
0.226746 0.626587 0.626587
0.420868 0.621216 0.621216
0.607544 0.607544 0.607544
0.765594 0.605499 0.605499
0.888855 0.601959 0.601959
0.986664 0.597870 0.597870
0.011200 0.782623 0.611481
0.011505 0.776733 0.604736
0.156006 0.771637 0.598907
0.381195 0.765991 0.591461
0.577820 0.756714 0.577820
0.755981 0.755981 0.613190
0.879059 0.765350 0.615417
0.978851 0.763824 0.603302
0.005188 0.898895 0.588379
0.005493 0.893127 0.581238
0.027039 0.886566 0.571930
0.342285 0.880219 0.564728
0.550659 0.871887 0.550659
0.752625 0.872955 0.591522
0.871796 0.871796 0.615814
0.969543 0.883575 0.626465
0.000397 0.992096 0.566681
0.000702 0.986389 0.559052
0.001038 0.979767 0.548553
0.303223 0.972015 0.540009
0.525818 0.963440 0.525818
0.732391 0.964142 0.554077
0.879272 0.966187 0.617645
0.964233 0.964233 0.616577
0.013641 0.091248 0.804962
0.068298 0.018463 0.805237
0.220520 0.010071 0.804596
0.423309 0.010162 0.802917
0.636078 0.010315 0.799805
0.796204 0.010498 0.796204
0.914062 0.004395 0.784882
1.000000 0.000000 0.775177
0.010101 0.212250 0.803772
0.124786 0.194031 0.799164
0.211792 0.127625 0.799530
0.411133 0.111908 0.797729
0.628723 0.072601 0.794189
0.789886 0.010834 0.789886
0.907990 0.004700 0.778320
1.000000 0.000000 0.768433
0.010223 0.336823 0.801483
0.098938 0.336121 0.796448
0.257812 0.313202 0.791809
0.393829 0.257172 0.791687
0.614899 0.243530 0.788391
0.784424 0.225769 0.784424
0.901367 0.194702 0.771790
0.998138 0.172791 0.765564
0.010437 0.473297 0.797760
0.036896 0.473236 0.791931
0.238220 0.475616 0.787231
0.418823 0.457062 0.781372
0.594421 0.415497 0.779968
0.775909 0.405701 0.775909
0.893005 0.387573 0.762695
0.992218 0.384705 0.760956
0.010742 0.624573 0.791718
0.011047 0.617950 0.785828
0.209564 0.619507 0.781097
0.402832 0.620514 0.774750
0.590302 0.608521 0.765076
0.762207 0.585968 0.762207
0.883942 0.581635 0.754089
0.983185 0.582642 0.753998
0.011200 0.782623 0.782623
0.011505 0.776733 0.776733
0.156006 0.771637 0.771637
0.381195 0.765991 0.765991
0.577820 0.756714 0.756714
0.741821 0.741821 0.741821
0.868256 0.741669 0.741669
0.968353 0.740479 0.740479
0.005188 0.898895 0.765381
0.005493 0.893127 0.759186
0.027039 0.886566 0.751709
0.342285 0.880219 0.745453
0.550659 0.871887 0.735443
0.720673 0.860626 0.720673
0.860046 0.860046 0.748688
0.960052 0.868500 0.751099
0.000397 0.992096 0.749481
0.000702 0.986389 0.743042
0.001038 0.979767 0.734680
0.303223 0.972015 0.727356
0.525818 0.963440 0.716919
0.701324 0.953918 0.701324
0.858124 0.954651 0.733185
0.953735 0.953735 0.752991
0.003906 0.092133 0.923889
0.044678 0.007568 0.924133
0.190125 0.003906 0.923767
0.392670 0.003967 0.922516
0.612030 0.004089 0.920135
0.788727 0.004242 0.917084
0.914062 0.004395 0.914062
1.000000 0.000000 0.905975
0.003937 0.213959 0.922913
0.111908 0.195648 0.917694
0.187622 0.116882 0.918091
0.380249 0.102417 0.916931
0.599182 0.064117 0.914398
0.782166 0.004547 0.910950
0.907990 0.004700 0.907990
1.000000 0.000000 0.899597
0.004059 0.345673 0.920929
0.082886 0.338440 0.915527
0.245392 0.315430 0.909912
0.361938 0.246887 0.910187
0.584290 0.233765 0.907806
0.775787 0.213837 0.904449
0.901398 0.193848 0.901398
0.995209 0.161621 0.892303
0.004211 0.483582 0.917786
0.006683 0.482941 0.911865
0.223480 0.485046 0.906067
0.405945 0.459198 0.899384
0.561859 0.404602 0.898956
0.761749 0.394073 0.895630
0.892487 0.384033 0.892487
0.985779 0.366241 0.882538
0.004456 0.627289 0.913177
0.004761 0.627075 0.907166
0.192169 0.629181 0.901123
0.388489 0.629150 0.893860
0.577179 0.610352 0.885345
0.738159 0.574280 0.883911
0.880615 0.567963 0.880615
0.974274 0.555939 0.869965
0.004791 0.775085 0.906433
0.005096 0.768921 0.900665
0.141602 0.762878 0.894714
0.368683 0.757629 0.887817
0.564453 0.756195 0.878784
0.729919 0.744171 0.867645
0.865234 0.726776 0.865234
0.964294 0.724670 0.859680
0.005188 0.898895 0.898895
0.005493 0.893127 0.893127
0.027039 0.886566 0.886566
0.342285 0.880219 0.880219
0.550659 0.871887 0.871887
0.720673 0.860626 0.860626
0.849731 0.849731 0.849731
0.951935 0.850342 0.850342
0.000397 0.992096 0.886169
0.000702 0.986389 0.880096
0.001038 0.979767 0.872742
0.303223 0.972015 0.865387
0.525818 0.963440 0.856323
0.701324 0.953918 0.844330
0.834381 0.945251 0.834381
0.944916 0.944916 0.856781
0.000000 0.094025 1.000000
0.026428 0.000000 1.000000
0.166443 0.000000 1.000000
0.368134 0.000000 1.000000
0.588318 0.000000 1.000000
0.782837 0.000000 1.000000
0.908936 0.000000 1.000000
1.000000 0.000000 1.000000
0.000000 0.216492 1.000000
0.101807 0.197693 1.000000
0.168518 0.108826 1.000000
0.355408 0.095184 1.000000
0.574890 0.057709 1.000000
0.770874 0.000000 1.000000
0.902557 0.000000 1.000000
1.000000 0.000000 1.000000
0.000000 0.353943 1.000000
0.069672 0.341064 1.000000
0.235565 0.317780 1.000000
0.341644 0.238586 1.000000
0.559265 0.226044 1.000000
0.757050 0.205902 1.000000
0.895386 0.183777 0.997681
0.995209 0.161072 0.995209
0.000000 0.492340 1.000000
0.000000 0.491425 1.000000
0.211670 0.491577 1.000000
0.395905 0.461609 0.993683
0.535278 0.396210 0.993774
0.737640 0.385925 0.991119
0.885468 0.374695 0.988251
0.985840 0.364685 0.985840
0.000000 0.636536 1.000000
0.000000 0.636200 1.000000
0.177490 0.637543 0.996979
0.377075 0.636963 0.988861
0.567078 0.612518 0.980469
0.712524 0.565643 0.979889
0.870178 0.558777 0.976959
0.974426 0.552765 0.974426
0.000000 0.769073 1.000000
0.000061 0.764313 0.998871
0.124908 0.764984 0.991974
0.356293 0.765472 0.983795
0.553406 0.763275 0.974701
0.720093 0.746063 0.965576
0.846497 0.718018 0.964294
0.961487 0.713593 0.961487
0.000092 0.893646 0.998322
0.000366 0.887604 0.992645
0.004791 0.880371 0.985992
0.332458 0.873138 0.978302
0.541077 0.864624 0.969574
0.710754 0.860870 0.959747
0.841492 0.852722 0.951050
0.949066 0.839081 0.949066
0.000397 0.992096 0.992096
0.000702 0.986389 0.986389
0.001038 0.979767 0.979767
0.303223 0.972015 0.972015
0.525818 0.963440 0.963440
0.701324 0.953918 0.953918
0.834381 0.945251 0.945251
0.937317 0.937317 0.937317
