src/assets/luts/日系配方/CC卷.cube
LUT_3D_SIZE 17
0.0177768 0.0177768 0.0177768
0.0177768 0.0177768 0.0177768
0.0288853 0.0176699 0.0168612
0.0935988 0.016907 0.0128328
0.150744 0.0164492 0.0107424
0.213611 0.0162356 0.0089723
0.28571 0.0166018 0.00738537
0.363394 0.0205692 0.00819409
0.432105 0.0250401 0.00952163
0.500496 0.0295415 0.0113985
0.575616 0.0351263 0.0135653
0.657252 0.0399329 0.0153201
0.733822 0.0465553 0.0187686
0.805173 0.0554971 0.0241245
0.86511 0.065095 0.0304417
0.87924 0.067628 0.0322118
0.87924 0.067628 0.0322118
0.0177768 0.0177768 0.0177768
0.0177768 0.0177768 0.0177768
0.0241855 0.0176089 0.0171206
0.090547 0.0169528 0.0128634
0.15169 0.016434 0.0107118
0.219532 0.0159915 0.00856031
0.297139 0.0170596 0.0075227
0.377478 0.0215763 0.00856031
0.447425 0.0261845 0.0100099
0.519753 0.0309911 0.0119936
0.601984 0.0359655 0.0137942
0.67953 0.0414893 0.0161135
0.754833 0.0488289 0.0200809
0.827314 0.0589914 0.0264591
0.87924 0.067628 0.0322118
0.87924 0.067628 0.0322118
0.87924 0.067628 0.0322118
0.0184634 0.0372625 0.0180972
0.0187686 0.0414435 0.0183261
0.0186465 0.0305333 0.0184176
0.0848402 0.0169833 0.0129549
0.152102 0.0164187 0.0106966
0.226368 0.016144 0.00848402
0.306462 0.0173342 0.00750744
0.388037 0.0221561 0.00862135
0.459922 0.0269627 0.0104677
0.533471 0.0320897 0.0124819
0.616953 0.0370794 0.0142519
0.694469 0.0429236 0.0169985
0.768826 0.0505379 0.0210422
0.837186 0.060502 0.0273899
0.87924 0.067628 0.0322118
0.87924 0.067628 0.0322118
0.87924 0.067628 0.0322118
0.0188907 0.0821698 0.0176394
0.018677 0.0898604 0.0172274
0.0185702 0.0952316 0.0169833
0.0643778 0.0867781 0.0265965
0.146838 0.0631418 0.0195621
0.235508 0.0406958 0.0171664
0.309316 0.0238956 0.0109102
0.386206 0.0221561 0.0087129
0.460441 0.0269932 0.0104829
0.536889 0.0323949 0.0126345
0.6206 0.0372015 0.0142061
0.7019 0.0433051 0.0170443
0.776516 0.0514992 0.0216526
0.844297 0.061738 0.0282292
0.87924 0.067628 0.0322118
0.87924 0.067628 0.0322118
0.87924 0.067628 0.0322118
0.0167239 0.148165 0.0142367
0.0166629 0.155947 0.0140841
0.0163424 0.161166 0.0136873
0.0388952 0.164767 0.0168917
0.136477 0.154726 0.0429084
0.200717 0.148089 0.0250858
0.32285 0.126665 0.0290684
0.419608 0.114015 0.0327153
0.484138 0.11046 0.0359808
0.551797 0.105241 0.0388342
0.626001 0.0966964 0.0399634
0.699474 0.0872206 0.0380865
0.770962 0.0817578 0.0372015
0.838529 0.0827039 0.0390784
0.869703 0.0841382 0.0405737
0.869368 0.0820935 0.0395209
0.869261 0.0814984 0.0392767
0.0146029 0.20264 0.0112764
0.0140536 0.2112 0.0105745
0.0135958 0.217868 0.0100099
0.013962 0.222049 0.0099794
0.113985 0.227024 0.0277867
0.217121 0.24152 0.0654307
0.313954 0.245731 0.0378119
0.428382 0.239628 0.0438544
0.555077 0.239124 0.0607462
0.644999 0.241764 0.0685283
0.71519 0.241123 0.0728771
0.770001 0.240772 0.075639
0.82266 0.240726 0.0795911
0.874571 0.239658 0.0843671
0.897871 0.236118 0.0864881
0.895491 0.229603 0.0852674
0.894011 0.225513 0.0844282
0.0131533 0.269078 0.00694286
0.0149081 0.281437 0.00660716
0.0162509 0.291432 0.00633249
0.0174563 0.299046 0.00730907
0.0843214 0.313146 0.0219425
0.236896 0.327733 0.0786145
0.328405 0.361822 0.105562
0.427268 0.381323 0.100862
0.550622 0.368414 0.0807355
0.667079 0.375845 0.107454
0.765011 0.37731 0.114305
0.837873 0.373449 0.110628
0.895644 0.372076 0.110765
0.94461 0.373037 0.113268
0.960037 0.367163 0.114031
0.955169 0.357931 0.112566
0.951217 0.350545 0.111208
0.0244297 0.350072 0.0119173
0.025452 0.363973 0.0122683
0.0262455 0.374533 0.0124208
0.0266423 0.382513 0.0126345
0.0550393 0.392248 0.0185855
0.215 0.410407 0.0605936
0.343877 0.440818 0.133455
0.432547 0.477745 0.14757
0.519738 0.506386 0.16025
0.64181 0.477775 0.115541
0.765408 0.484779 0.142061
0.842771 0.488136 0.158236
0.908919 0.486061 0.159091
0.972778 0.480858 0.155673
0.996216 0.470268 0.151369
0.994095 0.458045 0.146212
0.992248 0.448951 0.142306
0.0245365 0.424414 0.010071
0.0227665 0.436042 0.00816358
0.0217136 0.445548 0.00700389
0.0204929 0.452399 0.00581369
0.0398566 0.459129 0.00962844
0.178882 0.478584 0.0445563
0.318669 0.507942 0.0976883
0.434974 0.54107 0.172274
0.523278 0.578378 0.180117
0.61294 0.607446 0.200061
0.712734 0.576562 0.147585
0.838392 0.573144 0.170382
0.902083 0.581689 0.189548
0.970794 0.583078 0.204471
1 0.571786 0.200076
1 0.556939 0.19292
1 0.546868 0.187884
0.0149538 0.490074 0.000259403
0.0131991 0.502464 0
0.0119631 0.512062 0
0.0115663 0.519234 0
0.0188907 0.522637 0
0.120989 0.535943 0.0200504
0.273045 0.559747 0.0688182
0.407355 0.597559 0.136172
0.51397 0.626688 0.204318
0.602014 0.66273 0.214435
0.700313 0.693629 0.238102
0.789014 0.665675 0.186877
0.896605 0.661143 0.198856
0.956573 0.677165 0.217029
0.993469 0.673609 0.231434
0.995789 0.660914 0.23122
0.996857 0.650721 0.229435
0.0102083 0.565393 0
0.011017 0.579126 0
0.0117037 0.588876 0
0.0120699 0.594537 0
0.0120241 0.595804 0
0.052491 0.595239 0.00274662
0.226658 0.60885 0.0466773
0.350607 0.642206 0.0961776
0.489128 0.682383 0.17731
0.590249 0.710033 0.246296
0.684169 0.745907 0.260426
0.780362 0.77673 0.290913
0.857252 0.764691 0.247791
0.943069 0.748287 0.225498
0.984344 0.756359 0.241352
0.983566 0.747112 0.236835
0.983291 0.740154 0.233585
0.0189364 0.649592 0.00077821
0.0212253 0.663035 0.00260929
0.0230106 0.67129 0.00393683
0.023743 0.675334 0.00444038
0.024033 0.67686 0.00463874
0.0416114 0.672847 0.00720226
0.184176 0.673838 0.0343328
0.311849 0.691752 0.0796674
0.4448 0.732341 0.140948
0.574975 0.763836 0.233188
0.677836 0.790722 0.302373
0.765255 0.821378 0.325811
0.847257 0.847883 0.357488
0.913359 0.848585 0.310658
0.979553 0.820905 0.268605
0.993774 0.813718 0.278264
0.995758 0.807721 0.276921
0.0366827 0.734157 0.014725
0.0399176 0.745983 0.0173495
0.0417945 0.752575 0.0188602
0.0428779 0.75639 0.0197757
0.0430915 0.757107 0.0199588
0.0461585 0.752911 0.019501
0.162219 0.751705 0.0395209
0.303502 0.753857 0.0869917
0.41648 0.77789 0.137011
0.548119 0.811948 0.207691
0.672663 0.834195 0.315145
0.759609 0.856092 0.390906
0.830686 0.882124 0.42388
0.904784 0.907759 0.459052
0.955856 0.918822 0.397284
0.980285 0.903502 0.355261
0.980484 0.893095 0.340459
0.0612345 0.809979 0.0353552
0.0648356 0.82002 0.0402838
0.0669108 0.825803 0.043183
0.067689 0.827955 0.0443122
0.0677043 0.828 0.044358
0.0660258 0.824338 0.0435187
0.159686 0.820127 0.0618753
0.317128 0.817258 0.111025
0.417487 0.827619 0.154955
0.526986 0.850141 0.207309
0.653864 0.873594 0.300099
0.755245 0.887953 0.428
0.823682 0.907866 0.494179
0.887922 0.935958 0.521553
0.95021 0.9626 0.553933
0.985855 0.974868 0.5635
0.983795 0.970108 0.549508
0.0865339 0.873549 0.0712444
0.0926528 0.881819 0.0773938
0.0955367 0.885252 0.0800946
0.0965438 0.886534 0.0807813
0.0957198 0.885542 0.0802777
0.0925765 0.881712 0.0773175
0.19585 0.879332 0.0974746
0.350011 0.87306 0.145647
0.444312 0.877852 0.187488
0.535912 0.889403 0.229206
0.648692 0.907362 0.310018
0.748882 0.918898 0.43801
0.827253 0.934203 0.54049
0.889418 0.961364 0.583947
0.942306 0.989685 0.60145
0.988693 1 0.622477
0.989761 1 0.618021
0.100816 0.891798 0.0847639
0.100816 0.891798 0.0847639
0.100816 0.891798 0.0847639
0.100816 0.891798 0.0847639
0.100816 0.891798 0.0847639
0.100816 0.891798 0.0847639
0.211429 0.894972 0.109606
0.368063 0.894423 0.162173
0.463355 0.902159 0.206027
0.552102 0.9122 0.248631
0.656367 0.923186 0.338094
0.757763 0.936797 0.464515
0.83856 0.959487 0.56936
0.896391 0.983398 0.632639
0.948531 1 0.658839
0.991592 1 0.672099
0.994522 1 0.664729
0.100816 0.891798 0.0847639
0.100816 0.891798 0.0847639
0.100816 0.891798 0.0847639
0.100816 0.891798 0.0847639
0.100816 0.891798 0.0847639
0.100816 0.891798 0.0847639
0.226261 0.894575 0.112734
0.373602 0.894743 0.164752
0.465934 0.902312 0.207187
0.552422 0.912291 0.248859
0.654536 0.923018 0.335485
0.751156 0.935424 0.456489
0.831098 0.956893 0.559472
0.890898 0.982208 0.631525
0.94316 1 0.668803
0.98999 1 0.685771
1 1 0.689982
0.0177768 0.0177768 0.0177768
0.0177768 0.0177768 0.0177768
0.0272068 0.0176089 0.0169375
0.0916762 0.0169375 0.0128481
0.149157 0.0164645 0.0107881
0.212299 0.0162356 0.00900282
0.285359 0.0165866 0.00738537
0.363561 0.0205692 0.00819409
0.432273 0.0250553 0.00952163
0.500847 0.0295415 0.0113832
0.576806 0.0352026 0.0135958
0.658518 0.0399634 0.0152743
0.735393 0.0466316 0.0187686
0.80679 0.0558175 0.0243381
0.866194 0.0652781 0.0305791
0.87924 0.067628 0.0322118
0.87924 0.067628 0.0322118
0.0177768 0.0177768 0.0177768
0.0177768 0.0177768 0.0177768
0.0228122 0.0176852 0.0173037
0.0896315 0.0169833 0.0128634
0.151644 0.016434 0.0107118
0.220554 0.0160067 0.00852979
0.298909 0.0171359 0.00755322
0.379446 0.0217136 0.00860609
0.450065 0.0263218 0.0100862
0.52285 0.03122 0.0120851
0.605737 0.0362249 0.0138857
0.683558 0.041886 0.0163729
0.759533 0.049424 0.0204471
0.828717 0.059266 0.0266575
0.87924 0.067628 0.0322118
0.87924 0.067628 0.0322118
0.87924 0.067628 0.0322118
0.0186465 0.0381018 0.018265
0.0187686 0.0414893 0.0183261
0.0187533 0.0313268 0.0184176
0.0854658 0.0169833 0.0129244
0.152331 0.0164187 0.0106966
0.226322 0.0161288 0.00848402
0.306569 0.0173342 0.00750744
0.388663 0.0221561 0.00859083
0.460517 0.0269932 0.0104677
0.534463 0.0322423 0.0125734
0.618067 0.0371405 0.0142672
0.695918 0.0430457 0.0170596
0.770779 0.0507362 0.0211643
0.838651 0.0607309 0.0275425
0.87924 0.067628 0.0322118
0.87924 0.067628 0.0322118
0.87924 0.067628 0.0322118
0.0188602 0.0839399 0.0175784
0.0186465 0.0918746 0.0171511
0.0185092 0.0975204 0.0168612
0.0666819 0.0898909 0.026978
0.147127 0.0670024 0.0194247
0.239307 0.0452277 0.0178378
0.313329 0.0272221 0.0121157
0.387243 0.0221561 0.00866712
0.459388 0.0269474 0.0104524
0.535073 0.0322728 0.0125887
0.620325 0.037171 0.0141909
0.698756 0.0431373 0.0170138
0.777218 0.0515908 0.0216983
0.845579 0.0619364 0.0283665
0.87924 0.067628 0.0322118
0.87924 0.067628 0.0322118
0.87924 0.067628 0.0322118
0.0168765 0.150149 0.014374
0.016556 0.158312 0.013962
0.0162661 0.162951 0.0135805
0.0419471 0.166751 0.0169985
0.139635 0.158206 0.0437476
0.204791 0.151736 0.0256809
0.324956 0.132235 0.0300298
0.425055 0.119768 0.0338903
0.489082 0.116884 0.0371557
0.556802 0.112871 0.040238
0.629908 0.104311 0.041886
0.703227 0.0953994 0.041413
0.774426 0.0897536 0.0408331
0.841138 0.0897536 0.042771
0.870512 0.088838 0.0431067
0.870192 0.0871748 0.0421759
0.870085 0.0864424 0.0417945
0.0141604 0.204868 0.0107881
0.0139315 0.213703 0.0104067
0.0133822 0.220661 0.00973526
0.0152285 0.225132 0.010132
0.120226 0.230671 0.0289006
0.222339 0.247532 0.0673991
0.319997 0.252216 0.0405737
0.433783 0.246281 0.0444953
0.560784 0.246601 0.0625925
0.651667 0.248875 0.0706645
0.722438 0.248219 0.0747387
0.77734 0.248066 0.0779889
0.828229 0.247791 0.08159
0.880369 0.247608 0.0863813
0.900557 0.242664 0.0878462
0.898024 0.236393 0.0865492
0.896666 0.233051 0.0858778
0.0137636 0.27245 0.00698863
0.0156863 0.285237 0.00674449
0.0170138 0.29514 0.00691234
0.0179599 0.303304 0.00773632
0.0943923 0.318318 0.0250858
0.242161 0.333776 0.0813764
0.334707 0.368673 0.108568
0.432319 0.388754 0.104845
0.557046 0.373739 0.082887
0.672938 0.382605 0.109804
0.76907 0.383764 0.11696
0.841581 0.379828 0.113085
0.900343 0.378653 0.112795
0.949187 0.378408 0.114443
0.961883 0.37116 0.114305
0.957275 0.362158 0.113054
0.953201 0.354604 0.111894
0.0247501 0.354192 0.0120851
0.0260014 0.367758 0.0125582
0.026566 0.378439 0.0125887
0.0267185 0.386267 0.0126955
0.0615396 0.396796 0.0198672
0.222919 0.415366 0.0629587
0.347692 0.446494 0.135012
0.437171 0.483009 0.149248
0.524651 0.511955 0.162249
0.642878 0.482963 0.116457
0.768627 0.489158 0.143465
0.845594 0.492912 0.160067
0.911055 0.490288 0.160906
0.975357 0.485115 0.157305
0.996811 0.473945 0.152895
0.994934 0.461326 0.14786
0.992905 0.452369 0.143771
0.0242008 0.427665 0.00968948
0.0225376 0.439399 0.00790417
0.0211795 0.448341 0.00645457
0.0199588 0.455497 0.00534066
0.0425269 0.462776 0.00981155
0.186419 0.482216 0.0462501
0.322438 0.512245 0.0990463
0.4383 0.545373 0.173526
0.526696 0.582452 0.181537
0.616129 0.611002 0.201389
0.716106 0.580819 0.149401
0.840848 0.57644 0.17145
0.90454 0.585901 0.19086
0.973449 0.587335 0.206378
1 0.574975 0.201831
1 0.560357 0.194598
1 0.550256 0.189197
0.0142367 0.493645 0
0.0127413 0.505913 0
0.0116732 0.51548 0
0.0112306 0.522347 0
0.0210117 0.525704 0
0.128511 0.53904 0.0221256
0.276432 0.562966 0.0698863
0.409674 0.600717 0.136873
0.517082 0.630228 0.205814
0.604486 0.665705 0.215625
0.702571 0.696422 0.23946
0.791882 0.669856 0.18909
0.898695 0.664881 0.199985
0.958114 0.680964 0.217563
0.992981 0.676921 0.23154
0.995346 0.664271 0.231617
0.996567 0.654169 0.230106
0.0102541 0.56878 0
0.0110323 0.582879 0
0.0119478 0.591867 0
0.012253 0.597498 0
0.0125124 0.598688 0
0.0560464 0.597879 0.00352483
0.229969 0.611658 0.0480049
0.354086 0.646128 0.0977951
0.491737 0.685695 0.178775
0.592844 0.713039 0.247654
0.687434 0.749432 0.263005
0.782544 0.779492 0.292622
0.859434 0.768612 0.250904
0.944366 0.751522 0.226474
0.984741 0.758587 0.242756
0.98378 0.749584 0.238102
0.983291 0.742794 0.234653
0.0196078 0.65359 0.00134279
0.0220035 0.666117 0.00323491
0.0232547 0.67393 0.00404364
0.0243839 0.678645 0.00492866
0.0245518 0.679438 0.005066
0.0445106 0.67512 0.00799573
0.192096 0.676738 0.0366217
0.316167 0.695369 0.0816052
0.448432 0.735882 0.143282
0.578485 0.767163 0.235584
0.681056 0.793744 0.304738
0.767926 0.823957 0.329335
0.849027 0.850202 0.361166
0.914382 0.85156 0.313741
0.980255 0.823194 0.270726
0.992966 0.815686 0.278645
0.99527 0.80943 0.27744
0.0371557 0.73698 0.0151064
0.0405585 0.748623 0.0178073
0.042649 0.755581 0.0195926
0.0437629 0.759045 0.0205386
0.0438087 0.759472 0.0205692
0.0499428 0.755566 0.0206302
0.172961 0.753414 0.0426032
0.309316 0.756649 0.0899977
0.421286 0.781201 0.139788
0.551019 0.814221 0.209888
0.675013 0.836423 0.317723
0.761852 0.858213 0.394781
0.83241 0.883696 0.427008
0.905409 0.9093 0.462364
0.957153 0.92134 0.402365
0.980133 0.906493 0.35967
0.980529 0.896284 0.345006
0.0623484 0.81294 0.0368048
0.0658427 0.822828 0.0416876
0.0675822 0.82771 0.0442206
0.0684215 0.830014 0.0454261
0.0684062 0.829953 0.0453803
0.0671855 0.825544 0.0446479
0.172793 0.822156 0.0652476
0.323384 0.819257 0.114199
0.422736 0.830137 0.158145
0.530877 0.852308 0.209979
0.656764 0.875303 0.303304
0.757031 0.889296 0.431037
0.825452 0.909331 0.497032
0.889342 0.937667 0.523888
0.950683 0.96376 0.555596
0.986343 0.976043 0.566445
0.984329 0.971466 0.553658
0.0883955 0.875929 0.0730755
0.0944228 0.883879 0.079057
0.0970932 0.887266 0.08159
0.0978408 0.888228 0.0822766
0.0966964 0.886748 0.0809491
0.0936599 0.882979 0.0782635
0.209644 0.879194 0.100526
0.356695 0.874311 0.149004
0.448997 0.879454 0.189899
0.540825 0.891218 0.232166
0.652003 0.908873 0.314122
0.750851 0.920089 0.44097
0.82916 0.935637 0.543069
0.890608 0.962493 0.585885
0.942916 0.990494 0.602777
0.988525 1 0.623117
0.989654 1 0.618738
0.100816 0.891798 0.0847639
0.100816 0.891798 0.0847639
0.100816 0.891798 0.0847639
0.100816 0.891798 0.0847639
0.100816 0.891798 0.0847639
0.100816 0.891798 0.0847639
0.224659 0.894621 0.112398
0.374289 0.894789 0.164981
0.46833 0.902602 0.208255
0.55639 0.91281 0.250629
0.659464 0.923354 0.342
0.75938 0.937163 0.466392
0.839277 0.959747 0.570321
0.896803 0.983734 0.633326
0.948928 1 0.65977
0.991211 1 0.672084
0.994797 1 0.665293
0.100816 0.891798 0.0847639
0.100816 0.891798 0.0847639
0.100816 0.891798 0.0847639
0.100816 0.891798 0.0847639
0.100816 0.891798 0.0847639
0.100923 0.891798 0.0847944
0.240757 0.893767 0.116106
0.380392 0.895125 0.167636
0.471199 0.902998 0.209735
0.557229 0.912902 0.251041
0.65774 0.923247 0.339864
0.753063 0.935836 0.458442
0.831388 0.957031 0.559853
0.890974 0.982254 0.631586
0.94284 1 0.668635
0.989487 1 0.685618
1 1 0.689982
0.0167697 0.0176242 0.0455634
0.016846 0.0176242 0.0422065
0.0220035 0.0177157 0.0356603
0.0860761 0.0171817 0.0148318
0.146777 0.0164645 0.0108339
0.209323 0.0161593 0.00901808
0.28336 0.0165713 0.00741588
0.361349 0.0204623 0.00816358
0.430762 0.0249638 0.00949111
0.499748 0.0295415 0.0114443
0.575677 0.0351263 0.0135653
0.658183 0.0399481 0.0152895
0.735348 0.0466316 0.0187686
0.80647 0.0557717 0.0243229
0.865965 0.0652476 0.0305486
0.87924 0.067628 0.0322118
0.87924 0.067628 0.0322118
0.0169375 0.0176089 0.0385443
0.0171206 0.0176547 0.0339666
0.0191958 0.0177005 0.0299229
0.0857404 0.0171969 0.0145571
0.150469 0.0164645 0.0107729
0.219303 0.0160067 0.00857557
0.297566 0.0170748 0.0075227
0.378485 0.0216526 0.00859083
0.44921 0.026276 0.010071
0.522057 0.0311589 0.0120699
0.605158 0.0361791 0.0138705
0.683146 0.041825 0.0163272
0.759533 0.049424 0.0204471
0.828565 0.0592203 0.026627
0.87924 0.067628 0.0322118
0.87924 0.067628 0.0322118
0.87924 0.067628 0.0322118
0.0180667 0.0235142 0.0215457
0.0180972 0.0251774 0.0241398
0.0181582 0.0216831 0.0204318
0.0816968 0.0172122 0.0138857
0.152132 0.0164187 0.0106966
0.225528 0.0161135 0.00848402
0.306767 0.0173342 0.00749218
0.389151 0.0221714 0.00859083
0.461723 0.026978 0.0104372
0.535744 0.0323186 0.0126192
0.619425 0.0371405 0.0142061
0.697765 0.043122 0.0170596
0.772534 0.0509499 0.0212863
0.840803 0.0610971 0.0277867
0.87924 0.067628 0.0322118
0.87924 0.067628 0.0322118
0.87924 0.067628 0.0322118
0.0188602 0.0849165 0.0175326
0.0186313 0.0926375 0.0171054
0.018555 0.0962234 0.0169375
0.0697948 0.0894331 0.0285801
0.151324 0.0682383 0.0196384
0.238697 0.0480964 0.0184024
0.313619 0.0298619 0.0132143
0.385107 0.0220951 0.0087129
0.455711 0.0267033 0.0103151
0.530602 0.0318914 0.0123903
0.616785 0.0371862 0.0143282
0.697307 0.043122 0.0170596
0.772488 0.0509499 0.0212863
0.845396 0.0619059 0.028336
0.87924 0.067628 0.0322118
0.87924 0.067628 0.0322118
0.87924 0.067628 0.0322118
0.016846 0.151263 0.014313
0.0165713 0.158999 0.0139467
0.0162356 0.163882 0.0135195
0.0488594 0.168338 0.0184634
0.142824 0.159442 0.0458076
0.206668 0.155077 0.0260319
0.324025 0.136706 0.0303807
0.427405 0.124437 0.0343023
0.493462 0.12256 0.0380255
0.55967 0.119539 0.0414282
0.632532 0.112367 0.0441291
0.704265 0.104005 0.0439307
0.774395 0.0974136 0.0438697
0.841505 0.0972 0.0463111
0.871717 0.0960708 0.0467994
0.871183 0.0928359 0.0451972
0.871092 0.0923323 0.0449531
0.0140841 0.206302 0.0106966
0.0138552 0.215396 0.0103151
0.0135042 0.22179 0.00984207
0.0223545 0.227619 0.011429
0.129915 0.232578 0.0320134
0.226169 0.250919 0.068452
0.324849 0.256504 0.0421759
0.435523 0.251774 0.0443122
0.563241 0.252369 0.0636606
0.655741 0.255161 0.07187
0.727977 0.254078 0.0764172
0.782269 0.253895 0.0797284
0.833371 0.254444 0.0839094
0.884092 0.253819 0.0878767
0.902937 0.248173 0.0890822
0.900618 0.242847 0.0878767
0.898589 0.237781 0.0868086
0.0142672 0.274922 0.00706493
0.0160067 0.287587 0.00669871
0.0173037 0.297734 0.00717174
0.0181735 0.304845 0.0078584
0.105394 0.320638 0.0277104
0.247593 0.338491 0.0843061
0.338308 0.372885 0.110323
0.434607 0.393774 0.107668
0.562264 0.378302 0.0847181
0.675364 0.386816 0.110826
0.771572 0.388159 0.118532
0.843961 0.384802 0.115221
0.902754 0.382498 0.114351
0.951492 0.381796 0.115496
0.963546 0.37438 0.114748
0.958679 0.364843 0.113451
0.954696 0.356924 0.112505
0.0251774 0.35671 0.0124208
0.0262303 0.370626 0.0125887
0.0266117 0.380728 0.0126192
0.026688 0.387823 0.012665
0.0720684 0.40087 0.0224765
0.229007 0.418555 0.0652934
0.350134 0.45005 0.136187
0.439979 0.486885 0.150484
0.527321 0.515557 0.163836
0.643809 0.486732 0.117388
0.770779 0.492042 0.144137
0.846662 0.495338 0.160723
0.911894 0.492805 0.162066
0.976455 0.487419 0.158434
0.996887 0.475746 0.153506
0.995178 0.463416 0.148653
0.993149 0.453773 0.144335
0.0239719 0.430182 0.00943008
0.0222477 0.44155 0.00758373
0.020798 0.450584 0.00610361
0.0197757 0.457404 0.00512703
0.0455634 0.464927 0.0101472
0.19324 0.485222 0.0479133
0.32462 0.514977 0.0997787
0.439185 0.547601 0.174014
0.528237 0.584573 0.182452
0.617258 0.612467 0.202014
0.71693 0.583291 0.150729
0.841856 0.578286 0.171908
0.904967 0.58732 0.191226
0.973968 0.588769 0.207111
1 0.57702 0.202853
1 0.562158 0.195544
1 0.552071 0.190143
0.0139162 0.496086 0
0.012314 0.508507 0
0.0114748 0.51783 0
0.0109102 0.523384 0
0.02327 0.527291 0
0.135058 0.5402 0.0235294
0.278309 0.56437 0.0704967
0.409979 0.60209 0.136782
0.51725 0.631113 0.206119
0.60528 0.666865 0.216281
0.703548 0.697917 0.240314
0.792294 0.671824 0.1906
0.899016 0.665873 0.200259
0.958602 0.682383 0.217914
0.992645 0.677867 0.231403
0.995102 0.665522 0.231586
0.996139 0.655879 0.230182
0.0103914 0.571527 0
0.0112001 0.585046 0
0.0120851 0.5935 0
0.0125124 0.59855 0
0.0125429 0.598947 0
0.0597543 0.59881 0.00430304
0.233463 0.612985 0.0492866
0.35491 0.646799 0.0980087
0.490745 0.686336 0.177691
0.592767 0.713878 0.247807
0.688258 0.750378 0.263859
0.783123 0.780499 0.293538
0.8598 0.770855 0.252964
0.944121 0.752377 0.226749
0.984909 0.759533 0.24332
0.983886 0.75053 0.23856
0.983307 0.743542 0.234958
0.0200351 0.65539 0.00172427
0.0223545 0.667933 0.00347906
0.0237278 0.675258 0.00442512
0.0244755 0.679072 0.0049897
0.0245823 0.679591 0.00508125
0.0471809 0.675578 0.00851453
0.198642 0.677287 0.0384375
0.318944 0.696559 0.0827039
0.449119 0.736904 0.143725
0.577798 0.767636 0.234852
0.681163 0.794369 0.305348
0.768246 0.824598 0.330159
0.848585 0.85037 0.361471
0.913741 0.852903 0.315572
0.97911 0.823957 0.270222
0.992767 0.816327 0.278813
0.995056 0.810132 0.277562
0.0376135 0.738735 0.0155032
0.0410773 0.750042 0.018265
0.0428626 0.756313 0.0197604
0.0437934 0.759411 0.0205692
0.0438087 0.759472 0.0205692
0.0526436 0.755047 0.0208743
0.181903 0.752956 0.0447395
0.312459 0.757 0.0914321
0.423133 0.781781 0.140856
0.551339 0.814786 0.210147
0.674769 0.836988 0.31754
0.761593 0.858412 0.395193
0.83241 0.883955 0.427634
0.904692 0.909316 0.462547
0.956146 0.921736 0.405219
0.980117 0.907286 0.360815
0.980331 0.897215 0.346288
0.0626688 0.813916 0.0372625
0.0660563 0.823438 0.0419928
0.0678111 0.828305 0.0445258
0.0684825 0.830198 0.0455177
0.0682536 0.829526 0.0451514
0.0703899 0.824857 0.0452277
0.182712 0.821057 0.067216
0.326879 0.818738 0.11548
0.425528 0.830411 0.15938
0.532387 0.852491 0.210697
0.656306 0.875288 0.302739
0.756436 0.889479 0.430396
0.825071 0.909346 0.497276
0.889128 0.937743 0.524147
0.949813 0.963699 0.555398
0.986542 0.976532 0.567575
0.984451 0.971679 0.554284
0.0888838 0.876448 0.0735332
0.094667 0.884138 0.0792859
0.0968643 0.886976 0.0813611
0.0973068 0.887541 0.0817578
0.0960861 0.885985 0.0806287
0.0965438 0.881392 0.0782483
0.219852 0.877333 0.102068
0.361028 0.873823 0.150851
0.452201 0.879316 0.191135
0.543053 0.891417 0.233265
0.653315 0.909117 0.315633
0.750607 0.92015 0.44065
0.828504 0.935363 0.542336
0.890043 0.962234 0.585657
0.94255 0.990387 0.602792
0.988281 1 0.622812
0.989654 1 0.618738
0.100816 0.891798 0.0847639
0.100816 0.891798 0.0847639
0.100816 0.891798 0.0847639
0.100816 0.891798 0.0847639
0.100816 0.891798 0.0847639
0.101183 0.891783 0.0848402
0.238941 0.893904 0.115618
0.379995 0.895109 0.167452
0.472343 0.90312 0.210269
0.560357 0.913268 0.252659
0.66186 0.923339 0.344747
0.759716 0.93724 0.466697
0.838865 0.959609 0.569772
0.896208 0.983322 0.632532
0.947387 1 0.657984
0.989868 1 0.671046
0.994278 1 0.66421
0.100816 0.891798 0.0847639
0.100816 0.891798 0.0847639
0.100816 0.891798 0.0847639
0.100816 0.891798 0.0847639
0.100816 0.891798 0.0847639
0.105638 0.891386 0.085893
0.254627 0.893294 0.119844
0.387076 0.895598 0.170871
0.476432 0.903563 0.21207
0.561944 0.913558 0.253666
0.660975 0.923354 0.343755
0.75407 0.936049 0.459678
0.831327 0.957 0.559762
0.890364 0.981888 0.630884
0.941878 1 0.668101
0.988678 1 0.685374
1 1 0.689982
0.0149691 0.01738 0.104875
0.0150149 0.01738 0.102907
0.0151064 0.0173953 0.100237
0.0767529 0.0166171 0.0945754
0.13492 0.0198825 0.0561532
0.203952 0.0181582 0.0254673
0.281437 0.0166934 0.00959792
0.357366 0.020264 0.00813306
0.427588 0.0247501 0.00941482
0.496849 0.0294957 0.0115053
0.573159 0.0349737 0.0135195
