src/assets/luts/日系配方/CC卷.cube
LUT_3D_SIZE 9
0.0177768 0.0177768 0.0177768
0.0288853 0.0176699 0.0168612
0.150744 0.0164492 0.0107424
0.28571 0.0166018 0.00738537
0.432105 0.0250401 0.00952163
0.575616 0.0351263 0.0135653
0.733822 0.0465553 0.0187686
0.86511 0.065095 0.0304417
0.87924 0.067628 0.0322118
0.0184634 0.0372625 0.0180972
0.0186465 0.0305333 0.0184176
0.152102 0.0164187 0.0106966
0.306462 0.0173342 0.00750744
0.459922 0.0269627 0.0104677
0.616953 0.0370794 0.0142519
0.768826 0.0505379 0.0210422
0.87924 0.067628 0.0322118
0.87924 0.067628 0.0322118
0.0167239 0.148165 0.0142367
0.0163424 0.161166 0.0136873
0.136477 0.154726 0.0429084
0.32285 0.126665 0.0290684
0.484138 0.11046 0.0359808
0.626001 0.0966964 0.0399634
0.770962 0.0817578 0.0372015
0.869703 0.0841382 0.0405737
0.869261 0.0814984 0.0392767
0.0131533 0.269078 0.00694286
0.0162509 0.291432 0.00633249
0.0843214 0.313146 0.0219425
0.328405 0.361822 0.105562
0.550622 0.368414 0.0807355
0.765011 0.37731 0.114305
0.895644 0.372076 0.110765
0.960037 0.367163 0.114031
0.951217 0.350545 0.111208
0.0245365 0.424414 0.010071
0.0217136 0.445548 0.00700389
0.0398566 0.459129 0.00962844
0.318669 0.507942 0.0976883
0.523278 0.578378 0.180117
0.712734 0.576562 0.147585
0.902083 0.581689 0.189548
1 0.571786 0.200076
1 0.546868 0.187884
0.0102083 0.565393 0
0.0117037 0.588876 0
0.0120241 0.595804 0
0.226658 0.60885 0.0466773
0.489128 0.682383 0.17731
0.684169 0.745907 0.260426
0.857252 0.764691 0.247791
0.984344 0.756359 0.241352
0.983291 0.740154 0.233585
0.0366827 0.734157 0.014725
0.0417945 0.752575 0.0188602
0.0430915 0.757107 0.0199588
0.162219 0.751705 0.0395209
0.41648 0.77789 0.137011
0.672663 0.834195 0.315145
0.830686 0.882124 0.42388
0.955856 0.918822 0.397284
0.980484 0.893095 0.340459
0.0865339 0.873549 0.0712444
0.0955367 0.885252 0.0800946
0.0957198 0.885542 0.0802777
0.19585 0.879332 0.0974746
0.444312 0.877852 0.187488
0.648692 0.907362 0.310018
0.827253 0.934203 0.54049
0.942306 0.989685 0.60145
0.989761 1 0.618021
0.100816 0.891798 0.0847639
0.100816 0.891798 0.0847639
0.100816 0.891798 0.0847639
0.226261 0.894575 0.112734
0.465934 0.902312 0.207187
0.654536 0.923018 0.335485
0.831098 0.956893 0.559472
0.94316 1 0.668803
1 1 0.689982
0.0167697 0.0176242 0.0455634
0.0220035 0.0177157 0.0356603
0.146777 0.0164645 0.0108339
0.28336 0.0165713 0.00741588
0.430762 0.0249638 0.00949111
0.575677 0.0351263 0.0135653
0.735348 0.0466316 0.0187686
0.865965 0.0652476 0.0305486
0.87924 0.067628 0.0322118
0.0180667 0.0235142 0.0215457
0.0181582 0.0216831 0.0204318
0.152132 0.0164187 0.0106966
0.306767 0.0173342 0.00749218
0.461723 0.026978 0.0104372
0.619425 0.0371405 0.0142061
0.772534 0.0509499 0.0212863
0.87924 0.067628 0.0322118
0.87924 0.067628 0.0322118
0.016846 0.151263 0.014313
0.0162356 0.163882 0.0135195
0.142824 0.159442 0.0458076
0.324025 0.136706 0.0303807
0.493462 0.12256 0.0380255
0.632532 0.112367 0.0441291
0.774395 0.0974136 0.0438697
0.871717 0.0960708 0.0467994
0.871092 0.0923323 0.0449531
0.0142672 0.274922 0.00706493
0.0173037 0.297734 0.00717174
0.105394 0.320638 0.0277104
0.338308 0.372885 0.110323
0.562264 0.378302 0.0847181
0.771572 0.388159 0.118532
0.902754 0.382498 0.114351
0.963546 0.37438 0.114748
0.954696 0.356924 0.112505
0.0239719 0.430182 0.00943008
0.020798 0.450584 0.00610361
0.0455634 0.464927 0.0101472
0.32462 0.514977 0.0997787
0.528237 0.584573 0.182452
0.71693 0.583291 0.150729
0.904967 0.58732 0.191226
1 0.57702 0.202853
1 0.552071 0.190143
0.0103914 0.571527 0
0.0120851 0.5935 0
0.0125429 0.598947 0
0.233463 0.612985 0.0492866
0.490745 0.686336 0.177691
0.688258 0.750378 0.263859
0.8598 0.770855 0.252964
0.984909 0.759533 0.24332
0.983307 0.743542 0.234958
0.0376135 0.738735 0.0155032
0.0428626 0.756313 0.0197604
0.0438087 0.759472 0.0205692
0.181903 0.752956 0.0447395
0.423133 0.781781 0.140856
0.674769 0.836988 0.31754
0.83241 0.883955 0.427634
0.956146 0.921736 0.405219
0.980331 0.897215 0.346288
0.0888838 0.876448 0.0735332
0.0968643 0.886976 0.0813611
0.0960861 0.885985 0.0806287
0.219852 0.877333 0.102068
0.452201 0.879316 0.191135
0.653315 0.909117 0.315633
0.828504 0.935363 0.542336
0.94255 0.990387 0.602792
0.989654 1 0.618738
0.100816 0.891798 0.0847639
0.100816 0.891798 0.0847639
0.100816 0.891798 0.0847639
0.254627 0.893294 0.119844
0.476432 0.903563 0.21207
0.660975 0.923354 0.343755
0.831327 0.957 0.559762
0.941878 1 0.668101
1 1 0.689982
0.0135805 0.0171206 0.155383
0.0137789 0.0171664 0.148959
0.136431 0.014435 0.149554
0.270741 0.0249943 0.0974899
0.425376 0.0324102 0.0556497
0.572244 0.0377661 0.0285039
0.727474 0.0465553 0.0194553
0.860395 0.0646067 0.0302281
0.87892 0.0675822 0.032166
0.0139773 0.0172427 0.141421
0.0140078 0.0172427 0.140597
0.148287 0.0138552 0.16141
0.304433 0.026978 0.13051
0.459129 0.0432898 0.115282
0.609201 0.0518959 0.0974746
0.758511 0.061387 0.0748913
0.871916 0.0757916 0.0706188
0.871626 0.0762646 0.0730907
0.0201114 0.152438 0.14258
0.020676 0.164355 0.156176
0.148425 0.154482 0.151064
0.321675 0.139193 0.135683
0.488823 0.136156 0.132952
0.630915 0.129091 0.128298
0.767422 0.108736 0.110552
0.867933 0.102434 0.105043
0.86688 0.0979782 0.105196
0.0123751 0.282643 0.0846876
0.0131991 0.304555 0.115175
0.151507 0.334173 0.166339
0.351095 0.371283 0.247395
0.611093 0.382986 0.246372
0.778607 0.409964 0.253727
0.875181 0.396918 0.228916
0.937743 0.371664 0.18584
0.933928 0.353277 0.160983
0.0153048 0.431144 0.0532235
0.00953689 0.451728 0.073518
0.0538186 0.464454 0.0889906
0.337377 0.525551 0.185916
0.534798 0.576257 0.276982
0.750698 0.566552 0.193469
0.922484 0.590051 0.2598
1 0.578363 0.228626
1 0.553033 0.199008
0.00395209 0.565301 0.0159152
0.00375372 0.583047 0.0186465
0.005066 0.585885 0.0164645
0.249287 0.608957 0.0786908
0.488685 0.68397 0.187106
0.687678 0.748837 0.273655
0.856764 0.771725 0.25536
0.984848 0.759182 0.243153
0.983291 0.743435 0.234852
0.0347906 0.734752 0.0209964
0.0384527 0.750469 0.0278477
0.0395209 0.752743 0.0264134
0.197665 0.746456 0.0541543
0.426261 0.780682 0.141649
0.669596 0.835096 0.31194
0.829602 0.882429 0.424765
0.95259 0.920989 0.408362
0.980468 0.896727 0.345663
0.0878767 0.875349 0.0725414
0.0950027 0.884596 0.0796063
0.092958 0.8822 0.0776837
0.238712 0.8719 0.104707
0.456733 0.876524 0.191669
0.653925 0.907698 0.315297
0.82536 0.933654 0.53843
0.939406 0.987762 0.599619
0.989837 1 0.617578
0.100816 0.891798 0.0847639
0.100816 0.891798 0.0847639
0.10013 0.891066 0.0870222
0.28307 0.891752 0.130175
0.487541 0.904463 0.219074
0.664988 0.922454 0.359091
0.830304 0.956374 0.56289
0.940856 1 0.680034
1 1 0.718196
0.00985733 0.0154269 0.283406
0.0101015 0.0155032 0.274769
0.0725872 0.0154726 0.285161
0.287251 0.00987259 0.310628
0.458549 0.036286 0.276951
0.592432 0.0612955 0.252811
0.722667 0.0808118 0.225711
0.834943 0.0928359 0.205997
0.865156 0.0965744 0.201862
0.0101472 0.0155184 0.273381
0.00999466 0.0154574 0.278004
0.0979019 0.0144656 0.311345
0.324208 0.0102693 0.349187
0.504417 0.0366674 0.326757
0.642206 0.0657511 0.31458
0.768566 0.0904707 0.295888
0.86891 0.109667 0.28423
0.869139 0.109895 0.286534
0.0210727 0.130373 0.276158
0.0226596 0.147799 0.291096
0.0803845 0.143465 0.286549
0.321416 0.146014 0.341329
0.494118 0.163516 0.323491
0.650858 0.180484 0.321889
0.78613 0.178744 0.321813
0.877089 0.162631 0.315435
0.87628 0.156191 0.316243
0.0317388 0.321965 0.313115
0.0357366 0.351431 0.345708
0.108904 0.354681 0.350881
0.371878 0.390372 0.386313
0.573373 0.391608 0.384482
0.753964 0.416709 0.406638
0.87425 0.424781 0.411337
0.944747 0.39765 0.38204
0.937346 0.374212 0.360967
0.00926223 0.468589 0.258167
0.00712596 0.492454 0.280735
0.038819 0.494682 0.287114
0.354833 0.532235 0.361105
0.550179 0.582513 0.448783
0.786999 0.60322 0.461585
0.939666 0.640238 0.485222
1 0.622187 0.461845
1 0.589456 0.433036
0 0.591669 0.204257
0 0.610407 0.215198
0 0.606439 0.208759
0.279088 0.614389 0.274174
0.506432 0.692409 0.39588
0.712963 0.747768 0.490517
0.927962 0.765087 0.527077
1 0.79646 0.564736
1 0.781979 0.550683
0.00242618 0.727947 0.17818
0.00404364 0.743893 0.192706
0.00451667 0.742687 0.188037
0.208881 0.720363 0.209888
0.462348 0.767147 0.334112
0.672084 0.830701 0.467643
0.846632 0.882246 0.576272
0.966339 0.89987 0.563409
1 0.877546 0.584268
0.0543374 0.858518 0.216541
0.058732 0.867216 0.234318
0.0557412 0.863325 0.230198
0.238605 0.838376 0.242359
0.476677 0.854154 0.351492
0.657557 0.88867 0.460975
0.837873 0.932464 0.632197
0.95349 0.989197 0.709102
1 1 0.747143
0.0698863 0.879133 0.233371
0.0675517 0.879332 0.246326
0.0667735 0.879484 0.250599
0.28011 0.866392 0.285389
0.515053 0.886366 0.405341
0.690517 0.917479 0.515709
0.843534 0.960983 0.66041
0.950668 1 0.778271
1 1 0.818753
0.00810254 0.0144045 0.421363
0.00816358 0.014435 0.41384
0.00900282 0.0145266 0.406867
0.240696 0.0108186 0.472648
0.45742 0.0122072 0.490715
0.614572 0.0342565 0.46009
0.744198 0.0737163 0.435355
0.851987 0.104112 0.424048
0.889296 0.115206 0.417868
0.00816358 0.014435 0.416342
0.00807202 0.0144045 0.423697
0.0309606 0.0149386 0.4383
0.286213 0.0108797 0.514626
0.499977 0.0131685 0.533135
0.656321 0.0335088 0.512612
0.781933 0.0744793 0.494347
0.889693 0.108232 0.50248
0.897383 0.110094 0.504921
0.0208286 0.118151 0.415274
0.0232547 0.141176 0.422889
0.0235294 0.133425 0.413993
0.27512 0.127657 0.49369
0.504448 0.148653 0.528893
0.664134 0.163531 0.51664
0.795727 0.184192 0.519661
0.900236 0.195163 0.532036
0.900328 0.184604 0.533639
0.0558633 0.343114 0.502007
0.0623178 0.376272 0.538689
0.086656 0.374929 0.534325
0.317586 0.395682 0.543099
0.559716 0.386755 0.590936
0.731548 0.42594 0.585672
0.86688 0.467689 0.593072
0.95407 0.468147 0.58674
0.948013 0.445441 0.568048
0.0506905 0.553384 0.548547
0.0536812 0.582345 0.580087
0.0677806 0.585595 0.584283
0.322515 0.570809 0.572305
0.570123 0.597787 0.592157
0.747845 0.594034 0.588464
0.900328 0.625391 0.617609
1 0.645075 0.634424
1 0.62182 0.61268
0.0150759 0.656519 0.444419
0.0183108 0.674449 0.462211
0.0171664 0.668574 0.456123
0.236576 0.642786 0.444114
0.536004 0.71043 0.556008
0.72285 0.751614 0.647578
0.899962 0.772686 0.663249
1 0.805386 0.696178
1 0.798581 0.687724
0.004654 0.78294 0.380392
0.0087892 0.797162 0.399542
0.0078584 0.792401 0.396201
0.178134 0.730358 0.36202
0.495827 0.775738 0.49221
0.693568 0.828397 0.616358
0.845884 0.87129 0.713466
0.985809 0.89369 0.728084
1 0.90248 0.746441
0.0458076 0.888731 0.391791
0.0508431 0.897063 0.410132
0.047013 0.892226 0.406851
0.206424 0.82948 0.371221
0.501518 0.856168 0.495415
0.706386 0.890944 0.617288
0.841352 0.929808 0.730694
0.951705 0.976638 0.810681
1 1 0.832456
0.0594034 0.905104 0.399725
0.060029 0.908492 0.415534
0.0601968 0.909346 0.419654
0.256565 0.861982 0.40972
0.541283 0.892348 0.539345
0.739849 0.926299 0.659266
0.854368 0.967102 0.760723
0.953323 1 0.853986
1 1 0.890929
0.00668345 0.0135042 0.560937
0.00674449 0.0135348 0.554131
0.00680552 0.01355 0.540551
0.197604 0.0121614 0.600931
0.416083 0.0126802 0.637034
0.603754 0.016083 0.636454
0.747097 0.0370489 0.612665
0.85594 0.0807965 0.590921
0.902281 0.0991989 0.592172
0.00668345 0.0135042 0.561349
0.00663767 0.01355 0.57116
0.00663767 0.0135348 0.571725
0.248844 0.0122683 0.650233
0.460365 0.0135653 0.675883
0.648615 0.0179141 0.679744
0.785519 0.0383307 0.667613
0.894377 0.0802625 0.658152
0.907286 0.0852216 0.660777
0.019852 0.104738 0.551949
0.0233158 0.131899 0.556222
0.0224613 0.125994 0.545327
0.225574 0.106615 0.62034
0.460365 0.130831 0.660761
0.658061 0.149615 0.683192
0.799146 0.152056 0.679561
0.907561 0.178256 0.687297
0.908339 0.164599 0.689326
0.0588693 0.35935 0.633188
0.0670024 0.391684 0.667811
0.0662852 0.386954 0.652399
0.274952 0.402899 0.669841
0.524453 0.379324 0.721691
0.727825 0.394827 0.748608
0.861067 0.428641 0.739971
0.959182 0.462928 0.745983
0.951141 0.436988 0.729244
0.0780957 0.584283 0.723201
0.0781567 0.610895 0.749569
0.0788128 0.613397 0.755016
0.332998 0.60351 0.74995
0.525582 0.60734 0.73608
0.732952 0.584527 0.7608
0.882597 0.632959 0.76817
1 0.687221 0.788327
1 0.673121 0.778973
0.0823987 0.759564 0.753536
0.0885634 0.777905 0.773068
0.0879072 0.773449 0.772091
0.295842 0.74699 0.749386
0.525551 0.750393 0.749996
0.735866 0.758068 0.755154
0.871397 0.757778 0.753124
0.99585 0.787625 0.783246
1 0.787991 0.785031
0.0657359 0.839399 0.6439
0.0717937 0.853269 0.663188
0.0702831 0.846601 0.658412
0.201785 0.785214 0.599466
0.467674 0.795743 0.642634
0.723781 0.84509 0.74052
0.850721 0.870115 0.804181
0.969589 0.883757 0.813046
1 0.891173 0.820844
0.0805676 0.931609 0.613184
0.0870375 0.937957 0.629557
0.082536 0.931456 0.625803
0.211765 0.863539 0.55993
0.48072 0.863035 0.623972
0.731746 0.897536 0.730312
0.858381 0.936355 0.817197
0.94435 0.964691 0.871199
1 0.989349 0.871656
0.085359 0.940688 0.604944
0.0893873 0.943618 0.622919
0.0900435 0.944228 0.62591
0.260777 0.887449 0.576425
0.526986 0.895857 0.652873
0.761578 0.935546 0.758267
0.879332 0.976272 0.843534
0.956466 1 0.898589
1 1 0.930724
0.00877394 0.0274357 0.698436
0.00863661 0.0267948 0.694133
0.00831617 0.0250401 0.681865
0.125505 0.0137484 0.709026
0.371389 0.014786 0.763485
0.558083 0.016556 0.769284
0.742321 0.0235447 0.77084
0.857954 0.0444495 0.765545
0.914565 0.0629435 0.76289
0.00894179 0.0282902 0.703746
0.00950637 0.0299077 0.713985
0.00776684 0.0221866 0.708812
0.184375 0.0146944 0.752575
0.420554 0.0162509 0.795148
0.606897 0.0187228 0.801572
0.785122 0.0277409 0.812024
0.899657 0.0488746 0.820401
0.91957 0.0540475 0.824277
0.0185702 0.0917525 0.692973
0.0218051 0.118379 0.696666
0.021622 0.115984 0.686854
0.170108 0.0750591 0.725322
0.417502 0.111376 0.780835
0.614511 0.127443 0.798642
0.798505 0.150042 0.821897
0.918257 0.156374 0.837201
0.919615 0.142626 0.840299
0.0522164 0.366293 0.736492
0.0598001 0.398108 0.759716
0.0603647 0.39585 0.745968
0.209476 0.391348 0.756451
0.466636 0.378973 0.825025
0.685817 0.37882 0.845655
0.841764 0.386023 0.860868
0.957687 0.404944 0.861372
0.951431 0.380255 0.85153
0.0929274 0.593668 0.839323
0.0937514 0.619913 0.85977
0.0942397 0.621332 0.864012
0.286473 0.60618 0.832959
0.482872 0.619654 0.843076
0.689601 0.57052 0.856672
0.870802 0.59736 0.886366
1 0.657603 0.898161
1 0.654032 0.897261
0.0950027 0.788617 0.890501
0.100496 0.80705 0.90724
0.0988785 0.802853 0.90695
0.309636 0.783993 0.895628
0.554971 0.794079 0.89929
0.700893 0.77084 0.866239
0.858122 0.746899 0.877974
0.977432 0.79028 0.889036
1 0.798825 0.893202
0.146899 0.934966 0.923384
0.153719 0.946746 0.935729
0.151019 0.941085 0.933104
0.320775 0.908034 0.904814
0.545663 0.894392 0.894224
0.716838 0.875059 0.873381
0.856168 0.871046 0.869215
0.949828 0.873625 0.87126
0.998352 0.880598 0.879881
0.162478 0.994644 0.856977
0.167971 1 0.866377
0.162905 0.994522 0.862165
0.294713 0.942779 0.818784
0.507973 0.914015 0.807935
0.705074 0.905348 0.819898
0.874662 0.947448 0.885496
0.949523 0.964111 0.921538
1 0.964614 0.922759
0.157687 0.990066 0.834928
0.161898 0.994995 0.847059
0.160906 0.993851 0.84419
0.33019 0.943862 0.79585
0.541802 0.93283 0.800671
0.739879 0.94078 0.830686
0.892393 0.988205 0.900893
0.970001 1 0.948547
1 1 0.971511
0.0128786 0.046128 0.796613
0.0128786 0.046128 0.796613
0.0125734 0.0448463 0.791684
0.05626 0.0283665 0.798688
0.312169 0.0174105 0.840864
0.51902 0.0196231 0.86273
0.704784 0.0242466 0.870665
0.856916 0.0369116 0.884031
0.927214 0.0516976 0.889265
0.0128786 0.046128 0.796613
0.0128786 0.046128 0.796613
0.0128176 0.0457771 0.796536
0.118807 0.0319677 0.83154
0.369223 0.0193332 0.874052
0.573556 0.0214237 0.888228
0.75436 0.0277104 0.903334
0.901503 0.0452583 0.925185
0.928847 0.0519112 0.929351
0.0188754 0.0876783 0.794507
0.021973 0.111498 0.794614
0.0227054 0.116167 0.794018
0.114366 0.0722057 0.818677
0.370214 0.0844434 0.864103
0.585092 0.11078 0.881941
0.77113 0.128008 0.899657
0.920531 0.161089 0.921462
0.923033 0.144884 0.923232
0.050721 0.36968 0.818769
0.0565652 0.400229 0.824796
0.0580301 0.40589 0.824552
0.135927 0.376547 0.823529
0.373251 0.355566 0.877714
0.626734 0.360815 0.916793
0.797223 0.358785 0.923018
0.942824 0.382605 0.948226
0.945052 0.361303 0.945174
0.0935378 0.594095 0.886549
0.0952773 0.613687 0.892897
0.095201 0.613138 0.892683
0.21857 0.596323 0.877821
0.413764 0.611215 0.909148
0.626139 0.567102 0.937209
0.840055 0.57644 0.967224
0.971572 0.603311 0.99176
0.997238 0.590417 0.987076
0.104189 0.777401 0.935393
0.105226 0.791485 0.939391
0.105043 0.786191 0.938018
0.279927 0.773449 0.942733
0.516762 0.805982 0.970474
0.674144 0.793774 0.96173
0.829435 0.737575 0.952346
0.956466 0.76286 0.971466
1 0.768597 0.969772
0.177066 0.953674 1
0.184588 0.961913 1
0.181018 0.957229 1
0.30518 0.932845 1
0.571435 0.934295 1
0.743343 0.910872 0.987442
0.834913 0.880766 0.947219
0.9393 0.865217 0.955535
0.991012 0.87599 0.953079
0.266026 1 1
0.274693 1 1
0.262364 1 1
0.39205 1 1
0.612055 1 1
0.761822 0.98529 0.983551
0.866667 0.965347 0.962737
0.953613 0.964492 0.962829
1 0.965042 0.963531
0.255604 1 1
0.259037 1 1
0.254353 1 1
0.434974 1 0.986236
0.621515 1 0.966384
0.767987 0.995819 0.9458
0.874266 0.990921 0.941802
0.979355 1 0.987808
1 1 1
0.0128786 0.046128 0.796613
0.0128786 0.046128 0.796613
0.0128786 0.046128 0.796613
0.0267796 0.0323491 0.808667
0.278553 0.0210269 0.857328
0.492714 0.0205844 0.886671
0.684169 0.024506 0.896864
0.840772 0.0351873 0.916335
0.928847 0.0519112 0.929351
0.0128786 0.046128 0.796613
0.0128786 0.046128 0.796613
0.0128786 0.046128 0.796613
0.0961776 0.0322271 0.826291
0.348058 0.0188449 0.870115
0.555627 0.0212863 0.888624
0.740414 0.0271153 0.902754
0.889418 0.0421912 0.923125
0.928847 0.0519112 0.929351
0.0172274 0.0760815 0.794629
0.020264 0.0979782 0.79443
0.0217594 0.107332 0.794842
0.0996567 0.0653239 0.819242
0.353918 0.0691539 0.86392
0.569604 0.0946365 0.88246
0.758709 0.110353 0.899107
0.910094 0.140871 0.921874
0.922728 0.14789 0.922942
0.0487221 0.35761 0.816434
0.0543832 0.389212 0.822522
0.0563668 0.399207 0.824216
0.111391 0.364126 0.827436
0.33962 0.34052 0.874128
0.601053 0.346822 0.913741
0.777584 0.341619 0.918349
0.923308 0.360937 0.942672
0.944793 0.360265 0.944915
0.0924392 0.582055 0.882795
0.0941176 0.600229 0.888411
0.0939803 0.598489 0.887846
0.193774 0.578836 0.871397
0.379629 0.59321 0.908629
0.594293 0.552331 0.937942
0.819638 0.554147 0.965881
0.953338 0.580606 0.98999
0.995712 0.589776 0.995453
0.103105 0.760021 0.930831
0.104021 0.774121 0.934462
0.103578 0.768307 0.932845
0.251637 0.753796 0.934127
0.489616 0.789807 0.962524
0.649012 0.791714 0.979339
0.807538 0.729061 0.973846
0.942596 0.752377 0.998322
0.992264 0.764355 1
0.17055 0.942077 1
0.177005 0.951446 1
0.17348 0.946105 1
0.253773 0.922454 0.999649
0.550607 0.922896 1
0.735088 0.914855 1
0.826596 0.889128 0.988205
0.926772 0.859892 0.99025
0.98114 0.86775 0.996155
0.27541 1 1
0.281483 1 1
0.270848 1 1
0.362219 1 1
0.622843 1 1
0.774121 1 1
0.874876 0.983429 1
0.939315 0.969146 1
1 0.963256 1
0.291173 1 1
0.291173 1 1
0.291173 1 1
0.457328 1 1
0.678325 1 1
0.809796 1 1
0.902205 1 1
0.970794 1 1
1 1 1
