src/assets/luts/日系配方/CC卷.cube
LUT_3D_SIZE 5
0.0177768 0.0177768 0.0177768
0.150744 0.0164492 0.0107424
0.432105 0.0250401 0.00952163
0.733822 0.0465553 0.0187686
0.87924 0.067628 0.0322118
0.0167239 0.148165 0.0142367
0.136477 0.154726 0.0429084
0.484138 0.11046 0.0359808
0.770962 0.0817578 0.0372015
0.869261 0.0814984 0.0392767
0.0245365 0.424414 0.010071
0.0398566 0.459129 0.00962844
0.523278 0.578378 0.180117
0.902083 0.581689 0.189548
1 0.546868 0.187884
0.0366827 0.734157 0.014725
0.0430915 0.757107 0.0199588
0.41648 0.77789 0.137011
0.830686 0.882124 0.42388
0.980484 0.893095 0.340459
0.100816 0.891798 0.0847639
0.100816 0.891798 0.0847639
0.465934 0.902312 0.207187
0.831098 0.956893 0.559472
1 1 0.689982
0.0135805 0.0171206 0.155383
0.136431 0.014435 0.149554
0.425376 0.0324102 0.0556497
0.727474 0.0465553 0.0194553
0.87892 0.0675822 0.032166
0.0201114 0.152438 0.14258
0.148425 0.154482 0.151064
0.488823 0.136156 0.132952
0.767422 0.108736 0.110552
0.86688 0.0979782 0.105196
0.0153048 0.431144 0.0532235
0.0538186 0.464454 0.0889906
0.534798 0.576257 0.276982
0.922484 0.590051 0.2598
1 0.553033 0.199008
0.0347906 0.734752 0.0209964
0.0395209 0.752743 0.0264134
0.426261 0.780682 0.141649
0.829602 0.882429 0.424765
0.980468 0.896727 0.345663
0.100816 0.891798 0.0847639
0.10013 0.891066 0.0870222
0.487541 0.904463 0.219074
0.830304 0.956374 0.56289
1 1 0.718196
0.00810254 0.0144045 0.421363
0.00900282 0.0145266 0.406867
0.45742 0.0122072 0.490715
0.744198 0.0737163 0.435355
0.889296 0.115206 0.417868
0.0208286 0.118151 0.415274
0.0235294 0.133425 0.413993
0.504448 0.148653 0.528893
0.795727 0.184192 0.519661
0.900328 0.184604 0.533639
0.0506905 0.553384 0.548547
0.0677806 0.585595 0.584283
0.570123 0.597787 0.592157
0.900328 0.625391 0.617609
1 0.62182 0.61268
0.004654 0.78294 0.380392
0.0078584 0.792401 0.396201
0.495827 0.775738 0.49221
0.845884 0.87129 0.713466
1 0.90248 0.746441
0.0594034 0.905104 0.399725
0.0601968 0.909346 0.419654
0.541283 0.892348 0.539345
0.854368 0.967102 0.760723
1 1 0.890929
0.00877394 0.0274357 0.698436
0.00831617 0.0250401 0.681865
0.371389 0.014786 0.763485
0.742321 0.0235447 0.77084
0.914565 0.0629435 0.76289
0.0185702 0.0917525 0.692973
0.021622 0.115984 0.686854
0.417502 0.111376 0.780835
0.798505 0.150042 0.821897
0.919615 0.142626 0.840299
0.0929274 0.593668 0.839323
0.0942397 0.621332 0.864012
0.482872 0.619654 0.843076
0.870802 0.59736 0.886366
1 0.654032 0.897261
0.146899 0.934966 0.923384
0.151019 0.941085 0.933104
0.545663 0.894392 0.894224
0.856168 0.871046 0.869215
0.998352 0.880598 0.879881
0.157687 0.990066 0.834928
0.160906 0.993851 0.84419
0.541802 0.93283 0.800671
0.892393 0.988205 0.900893
1 1 0.971511
0.0128786 0.046128 0.796613
0.0128786 0.046128 0.796613
0.278553 0.0210269 0.857328
0.684169 0.024506 0.896864
0.928847 0.0519112 0.929351
0.0172274 0.0760815 0.794629
0.0217594 0.107332 0.794842
0.353918 0.0691539 0.86392
0.758709 0.110353 0.899107
0.922728 0.14789 0.922942
0.0924392 0.582055 0.882795
0.0939803 0.598489 0.887846
0.379629 0.59321 0.908629
0.819638 0.554147 0.965881
0.995712 0.589776 0.995453
0.17055 0.942077 1
0.17348 0.946105 1
0.550607 0.922896 1
0.826596 0.889128 0.988205
0.98114 0.86775 0.996155
0.291173 1 1
0.291173 1 1
0.678325 1 1
0.902205 1 1
1 1 1
