src/assets/luts/日系配方/FE卷.cube
LUT_3D_SIZE 9
0.0033875 0.0116884 0.00369268
0.0415198 0.00396735 0
0.0925917 0 0
0.176471 0 0
0.284657 0 0
0.386679 0 0
0.478355 0 0
0.561898 0 0
0.664805 0 0
0 0.0175174 0.00260929
0.0381628 0.0204776 0
0.118288 0.00177005 0
0.208988 0 0
0.316274 0 0
0.426825 0 0
0.515007 0 0
0.603006 0 0
0.721279 0 0
0 0.0476387 0
0.00311284 0.0760204 0
0.154147 0.0746929 0
0.326299 0.0349737 0
0.457008 0.00518807 0
0.542138 0 0
0.617731 0.00192264 0
0.699748 0.000610361 0
0.806775 0 0
0 0.112444 0
0 0.149798 0
0.102663 0.2159 0
0.373098 0.214755 0
0.538903 0.197024 0
0.656291 0.186343 0
0.751766 0.181033 0
0.837049 0.179232 0
0.937896 0.174121 0
0 0.215015 0
0 0.263233 0
0.004654 0.361456 0
0.352529 0.441093 0
0.5794 0.441444 0
0.741817 0.424323 0
0.856123 0.404593 0
0.955581 0.386419 0
1 0.370535 0
0 0.349767 0
0 0.399069 0
0 0.495415 0
0.312383 0.588357 0
0.567636 0.611505 0
0.772244 0.598306 0
0.927382 0.580285 0
1 0.561486 0
1 0.544076 0
0 0.499397 0.0124514
0 0.544472 0
0.0266728 0.632517 0
0.29041 0.690669 0
0.540581 0.730205 0
0.763638 0.746548 0
0.920027 0.735927 0
1 0.723842 0
1 0.710689 0
0 0.67187 0.17496
0 0.725689 0.108186
0.113603 0.762539 0.011902
0.337835 0.792584 0
0.553384 0.819104 0
0.748287 0.832639 0
0.877241 0.8383 0
0.965454 0.843427 0
1 0.853651 0.127962
0.237354 0.81883 0.4598
0.312764 0.839109 0.433173
0.403555 0.858625 0.406699
0.515587 0.881148 0.390265
0.643412 0.902464 0.399512
0.74847 0.915908 0.409339
0.840131 0.921798 0.392035
0.930465 0.925429 0.404517
0.994064 0.933883 0.530205
0.000183108 0.00970474 0.0189364
0.0568093 0.00593576 0.00665293
0.146395 0 0
0.262135 0 0
0.359289 0 0
0.436988 0 0
0.506203 0 0
0.579141 0 0
0.673548 0 0
0 0.0199588 0.0287785
0.032517 0.0283207 0.0215915
0.129381 0.00149538 0
0.249714 0 0
0.356847 0 0
0.444999 0 0
0.522377 0 0
0.607431 0 0
0.714107 0 0
0 0.0619974 0.0242618
0 0.0952926 0.00988785
0.154574 0.111879 0.00108339
0.330312 0.0545968 0
0.444526 0.00894179 0
0.529488 0 0
0.613794 0.00241093 0
0.699199 0.00108339 0
0.799969 0 0
0 0.136965 0.016495
0 0.178714 0
0.0593271 0.248112 0
0.384558 0.252842 0
0.539483 0.221332 0
0.642466 0.195865 0
0.733349 0.19443 0
0.824201 0.205066 0
0.927535 0.179614 0
0 0.245457 0.0121004
0 0.2907 0
0 0.360143 0
0.315633 0.456916 0
0.575891 0.45716 0
0.729534 0.436576 0
0.842588 0.413733 0
0.945403 0.396887 0
1 0.383246 0
0 0.379385 0.0295872
0 0.422538 9.15541e-05
0 0.480217 0
0.230793 0.586236 0
0.542779 0.619242 0
0.759396 0.605554 0
0.91046 0.588342 0
1 0.568444 0
1 0.559991 0
0 0.52256 0.110277
0 0.564309 0.059678
0 0.627222 0.00654612
0.186496 0.697444 0
0.479973 0.732891 0
0.740627 0.751827 0
0.895644 0.736889 0
0.993362 0.73022 0
1 0.730663 0
0 0.676951 0.270954
0 0.719066 0.206729
0 0.770352 0.120943
0.248463 0.802136 0.0340887
0.489845 0.832776 0
0.715129 0.847898 0
0.862486 0.856062 0
0.950393 0.860426 0.101076
1 0.867475 0.288121
0.120531 0.832197 0.49691
0.216281 0.848188 0.473762
0.327321 0.86453 0.446891
0.456626 0.884276 0.437278
0.597604 0.906081 0.443839
0.717815 0.92256 0.456672
0.821439 0.929946 0.45333
0.92253 0.934554 0.472496
0.991882 0.942489 0.591562
0 0.00376898 0.0516823
0.0261997 0 0.0605631
0.152361 0 0.019028
0.290761 0 0
0.395392 0 0
0.468391 0 0
0.530526 0 0
0.589776 0 0
0.676936 0 0
0 0.00988785 0.0856947
0.00862135 0.0169985 0.10811
0.157565 0.00015259 0.0698558
0.309041 0 7.62951e-05
0.419074 0 0
0.487922 0 0
0.549599 0 0
0.614832 0 0
0.701411 0 0
0 0.0632181 0.144305
0 0.0946517 0.153124
0.131212 0.131136 0.13814
0.317769 0.0851301 0.0635691
0.46215 0.0339818 0.000762951
0.548821 0.00801099 0
0.617258 0 0
0.686763 0 0
0.776883 0 0
0 0.165026 0.158282
0 0.212238 0.134417
0.00325017 0.275425 0.11989
0.358541 0.308217 0.0916915
0.532021 0.254994 0.0576028
0.632746 0.220356 0.0320439
0.713558 0.205951 0.00665293
0.804929 0.209277 0
0.904784 0.165026 0
0 0.277607 0.154253
0 0.332296 0.118456
0 0.392905 0.0710307
0.244938 0.495155 0.0523384
0.568627 0.496986 0.00640879
0.723888 0.465812 0.000442512
0.831449 0.435691 0
0.92459 0.419074 0
1 0.404715 0
0 0.409888 0.180484
0 0.456474 0.138476
0 0.505684 0.0806439
0.110002 0.604639 0.0347448
0.49659 0.634531 0
0.748699 0.623362 0
0.892576 0.613519 0
0.991302 0.594934 0
1 0.590799 0
0 0.542428 0.245487
0 0.585962 0.196719
0 0.630533 0.120165
0.0205539 0.712718 0.0347601
0.397742 0.750973 0
0.7075 0.765423 0
0.878721 0.7579 0
0.970581 0.76109 0.0135653
1 0.758679 0.0839399
0 0.682857 0.379202
0 0.718105 0.331655
0 0.765469 0.259449
0.108934 0.810834 0.178973
0.409277 0.841047 0.121553
0.664073 0.864302 0.102541
0.840742 0.872633 0.143236
0.935332 0.874876 0.281712
0.996628 0.881239 0.412436
0 0.8448 0.540078
0.0712139 0.861463 0.524712
0.206302 0.871717 0.499397
0.368246 0.885954 0.481102
0.532113 0.907805 0.489281
0.679561 0.927138 0.508156
0.796536 0.937667 0.51809
0.912276 0.94287 0.540612
0.98883 0.950378 0.648829
0 0 0.104463
0 0 0.119173
0.0984817 0 0.109606
0.256611 0 0.0478218
0.387213 0 0.0121309
0.47715 0 0
0.553796 0 0
0.626291 0 0
0.71133 0 0
0 0.002533 0.155138
0 0.000549325 0.183551
0.104799 0 0.191257
0.310735 0 0.0995041
0.434043 0 0.0193332
0.506371 0 4.57771e-05
0.575082 0 0
0.645121 0 0
0.727138 0 0
0 0.053666 0.241352
0 0.0630198 0.271397
0.0840009 0.105089 0.266926
0.349432 0.0656596 0.236332
0.490166 0.0271 0.133806
0.571191 0.00827039 0.0670176
0.643961 0 0.0290532
0.70779 0 0.000366217
0.783352 0 0
0 0.156817 0.332525
0 0.202167 0.349798
0 0.273075 0.343236
0.328954 0.33257 0.334035
0.51075 0.295048 0.267628
0.631388 0.250278 0.197589
0.722835 0.214664 0.133257
0.804257 0.194736 0.072755
0.896819 0.163226 0.000137331
0 0.300603 0.360662
0 0.368704 0.351003
0 0.43386 0.326665
0.209644 0.518318 0.328786
0.535485 0.526604 0.250492
0.708263 0.478355 0.201221
0.813474 0.437903 0.157946
0.896941 0.418265 0.104387
1 0.425223 0.00965896
0 0.446647 0.3738
0 0.494774 0.350057
0 0.546624 0.313817
0.000320439 0.636149 0.280079
0.416632 0.66714 0.166552
0.723079 0.662501 0.126162
0.867567 0.636851 0.1505
0.964248 0.614191 0.147402
1 0.620935 0.0946212
0 0.568353 0.412253
0 0.608469 0.380819
0 0.653407 0.326802
0 0.725109 0.259922
0.307195 0.769116 0.165545
0.655467 0.792401 0.0944381
0.854307 0.783261 0.153964
0.945953 0.779034 0.25568
1 0.774731 0.289281
0 0.694774 0.48452
0 0.728771 0.457832
0 0.766018 0.414633
0 0.825391 0.380575
0.331212 0.847425 0.335241
0.60618 0.877745 0.318227
0.814069 0.889097 0.339635
0.924804 0.888701 0.418372
0.991684 0.891646 0.505318
0 0.854658 0.594064
0 0.87541 0.585931
0.0550088 0.886336 0.568353
0.26862 0.892683 0.552819
0.468482 0.910811 0.555245
0.638727 0.930297 0.577203
0.77084 0.944152 0.595224
0.899214 0.950881 0.614099
0.986465 0.955703 0.704158
0 0 0.156176
0 0 0.164523
0.0219272 0 0.184161
0.192081 0 0.151263
0.345068 0 0.0972457
0.45539 0 0.0695964
0.551125 0 0.0525673
0.643183 0 0.0222324
0.749783 0 0
0 0 0.217746
0 0 0.245182
0.0399023 0 0.260716
0.25214 0 0.213657
0.414282 0 0.135027
0.501274 0 0.0865949
0.582605 0 0.0528725
0.66331 0 0.0184634
0.759258 0 0
0 0.0454414 0.323842
0 0.0429236 0.353506
0.0374762 0.07187 0.376242
0.285405 0.0089723 0.396124
0.492134 0 0.290242
0.578256 0 0.184604
0.651576 0 0.114443
0.716289 0 0.0569314
0.798093 0 0.0413977
0 0.145296 0.429816
0 0.175021 0.458106
0 0.219837 0.479515
0.27985 0.303868 0.462272
0.528435 0.283177 0.451972
0.647257 0.214115 0.351827
0.737911 0.170459 0.253605
0.803082 0.152193 0.188876
0.87097 0.166171 0.121996
0 0.290166 0.480781
0 0.358343 0.501152
0 0.4336 0.516381
0.0728923 0.534981 0.538537
0.506996 0.533028 0.49633
0.684031 0.475547 0.424079
0.797818 0.423987 0.353048
0.885786 0.38822 0.272587
0.980514 0.38233 0.148531
0 0.460609 0.509102
0 0.518181 0.52253
0 0.576684 0.523476
0 0.658 0.513176
0.385962 0.67216 0.466819
0.680674 0.68072 0.409216
0.838178 0.64155 0.38352
0.931945 0.610819 0.350683
0.999969 0.603037 0.290944
0 0.591363 0.542321
0 0.634821 0.537087
0 0.677607 0.512276
0 0.740734 0.479255
0.261387 0.78381 0.451423
0.593378 0.805447 0.409674
0.821958 0.804273 0.400092
0.927016 0.791333 0.427588
0.996796 0.778241 0.427192
0 0.711772 0.583154
0 0.745693 0.566873
0 0.780438 0.539345
0 0.842695 0.524926
0.272511 0.86157 0.501686
0.575311 0.886305 0.495232
0.782177 0.903563 0.494484
0.911376 0.9037 0.536721
0.985016 0.898711 0.588907
0 0.865278 0.661799
0 0.887709 0.659785
0 0.901259 0.64773
0.160143 0.905272 0.636042
0.412345 0.916564 0.640101
0.608301 0.9346 0.658732
0.74966 0.948623 0.681239
0.882902 0.958511 0.691875
0.983322 0.960906 0.7626
0 0 0.198306
0 0 0.210361
0 0 0.238025
0.0919051 0 0.248432
0.280247 0 0.198611
0.414649 0 0.153567
0.513024 0 0.132799
0.629755 0 0.117617
0.783673 0 0.0964675
0 0 0.275975
0 0 0.303319
0.000183108 0 0.339101
0.137697 0 0.335637
0.358953 0 0.268498
0.475563 0 0.20354
0.560571 0 0.160266
0.663951 0 0.127031
0.806546 0 0.119738
0 0.0303655 0.390951
0 0.0300755 0.420813
0 0.0502937 0.451102
0.197208 0 0.471351
0.440146 0 0.427588
0.545342 0 0.319692
0.627985 0 0.219333
0.709789 0 0.148745
0.828656 0.00184634 0.155825
0 0.144549 0.489174
0 0.163409 0.518532
0 0.18735 0.551904
0.221973 0.252216 0.543542
0.477913 0.181872 0.566262
0.652705 0.132509 0.503532
0.735836 0.0512398 0.388693
0.797894 0.0199588 0.278752
0.869734 0.106386 0.229969
0 0.280217 0.546471
0 0.328832 0.576226
0 0.381826 0.610025
0 0.468071 0.644099
0.457618 0.498466 0.610376
0.684977 0.469505 0.588602
0.806134 0.386114 0.506783
0.888426 0.327596 0.416693
0.940261 0.32195 0.325277
0 0.450401 0.594827
0 0.505302 0.63035
0 0.565637 0.667018
0 0.640009 0.673533
0.281743 0.685328 0.649683
0.650813 0.685985 0.603143
0.815076 0.636728 0.542702
0.92401 0.580972 0.479942
0.999878 0.547311 0.397604
0 0.594217 0.646494
0 0.641962 0.664546
0 0.692424 0.66685
0 0.751339 0.639872
0.186892 0.794705 0.62092
0.580682 0.804593 0.598215
0.792248 0.815335 0.564095
0.909957 0.792752 0.557046
0.985504 0.771679 0.530144
0 0.725368 0.684794
0 0.7626 0.68162
0 0.800122 0.668406
0 0.856916 0.654414
0.218875 0.875349 0.636439
0.568963 0.89305 0.636545
0.758206 0.909621 0.636728
0.893294 0.913787 0.650202
0.977264 0.906706 0.666773
0 0.877958 0.734371
0 0.899855 0.737957
0 0.915785 0.7364
0.0626535 0.921263 0.725826
0.356313 0.925948 0.725734
0.585824 0.940307 0.744488
0.739986 0.9523 0.765393
0.870588 0.962936 0.776669
0.982574 0.967666 0.826902
0 0 0.207675
0 0 0.234272
0 0 0.275029
0.0221561 0 0.307317
0.18471 0 0.288029
0.355749 0 0.246998
0.466819 0 0.216114
0.568795 0 0.199847
0.728389 0 0.176165
0 0 0.306447
0 0 0.341588
0 0 0.398764
0.0593423 0 0.430579
0.250584 0 0.397772
0.433646 0 0.346975
0.527092 0 0.291676
0.624567 0 0.242115
0.768963 0 0.191043
0 0.0198978 0.426673
0 0.0254215 0.458351
0 0.0513619 0.493767
0.130831 0.0161898 0.520607
0.323934 0 0.512825
0.49662 0 0.454871
0.587304 0 0.371679
0.678767 0 0.286229
0.869673 0.0654459 0.318898
0 0.140337 0.525093
0 0.152895 0.555703
0 0.157214 0.584726
0.154559 0.186618 0.587488
0.371038 0.0835889 0.613855
0.592004 0.0174105 0.602594
0.707561 0 0.514427
0.774243 0 0.413275
0.913191 0.179889 0.376425
0 0.273045 0.591516
0 0.305257 0.628794
0 0.328115 0.668116
0 0.381537 0.70103
0.379614 0.426703 0.692317
0.629221 0.367468 0.73022
0.818952 0.309148 0.657328
0.889128 0.219959 0.541085
0.933486 0.2327 0.434958
0 0.42768 0.650874
0 0.468025 0.68838
0 0.515511 0.734737
0 0.574853 0.771176
0.164599 0.6327 0.798596
0.595941 0.650202 0.741787
0.806149 0.636362 0.717601
0.922347 0.566583 0.635752
0.99411 0.496925 0.52015
0 0.581659 0.725032
0 0.623987 0.757397
0 0.671 0.784787
0 0.73753 0.797986
0.00672923 0.809537 0.804807
0.523003 0.808927 0.754986
0.77229 0.817884 0.726085
0.89453 0.790021 0.687099
0.982849 0.747143 0.625162
0 0.725719 0.769116
0 0.766125 0.783749
0 0.808682 0.792462
0 0.866606 0.790402
0.13402 0.89041 0.769726
0.547204 0.896361 0.758404
0.752667 0.909743 0.763851
0.876799 0.919173 0.753124
0.967391 0.910948 0.742885
0 0.88777 0.804028
0 0.910338 0.816175
0 0.927062 0.823545
0.0221561 0.934554 0.819135
0.310994 0.937362 0.815457
0.552819 0.948074 0.828748
0.733104 0.956939 0.846098
0.867247 0.965209 0.85626
0.979538 0.972091 0.882811
0 0 0.184253
0 0 0.222339
0 0 0.275166
0.000396735 0 0.320058
0.106615 0 0.330953
0.27805 0 0.308385
0.417029 0 0.294804
0.512276 0 0.289357
0.633524 0 0.270985
0 0 0.29868
0 0 0.349096
0 0 0.416297
0.0311894 0 0.463676
0.163989 0 0.467765
0.356344 0 0.433387
0.485374 0 0.405509
0.574945 0 0.367147
0.692927 0 0.314427
0 0.0212558 0.436637
0 0.030518 0.475547
0 0.0579538 0.515297
0.0759747 0.068864 0.541924
0.231815 0 0.574777
0.426459 0 0.551888
0.558846 0 0.507729
0.640177 0 0.434501
0.748241 0 0.366033
0 0.134768 0.540703
0 0.140856 0.572686
0 0.139284 0.59443
0.081117 0.172534 0.603571
0.265507 0.112276 0.631235
0.476432 0 0.663737
0.655283 0 0.631052
0.746471 0 0.54583
0.849867 0 0.476951
0 0.267063 0.619638
0 0.279911 0.65362
0 0.282887 0.682689
0 0.318669 0.706523
0.296986 0.3299 0.699809
0.519417 0.237568 0.755261
0.753445 0.18024 0.768185
0.862974 0.133013 0.680827
0.919173 0.140887 0.553033
0 0.415732 0.686397
0 0.449195 0.725856
0 0.47924 0.766659
0 0.51252 0.806867
0.0991379 0.555154 0.851911
0.519493 0.569955 0.818448
0.760479 0.533578 0.857771
0.936522 0.490349 0.785245
0.985183 0.382391 0.624292
0 0.569619 0.770108
0 0.603525 0.80618
0 0.639735 0.840742
0 0.68983 0.871351
0 0.758724 0.914153
0.434379 0.766995 0.881529
0.7364 0.78851 0.84509
0.889815 0.788678 0.82916
0.984771 0.725582 0.743679
0 0.727596 0.828183
0 0.764233 0.853178
0 0.800259 0.875364
0 0.854871 0.895247
1.5259e-05 0.900389 0.900145
0.465599 0.905028 0.875166
0.727947 0.912963 0.862913
0.874708 0.920821 0.854826
0.963745 0.908736 0.824765
0 0.896529 0.86537
0 0.917235 0.884108
0 0.934829 0.900908
0 0.944854 0.907622
0.25211 0.947158 0.902358
0.504356 0.957244 0.905119
0.707729 0.963867 0.911284
0.863523 0.968246 0.917357
0.977768 0.974441 0.927367
0 0 0.162951
0 0 0.201236
0 0 0.24744
0.00242618 0 0.297108
0.0774853 0 0.327474
0.216037 0 0.316594
0.356191 0 0.320485
0.461799 0 0.341527
0.558907 0 0.359762
0 0 0.27332
0 0 0.335256
0 0 0.405676
0.0278477 0 0.46038
0.135729 0 0.489174
0.28658 0 0.467079
0.432975 0 0.454597
0.528557 0 0.445624
0.624857 0 0.429953
0 0.0281224 0.429038
0 0.0344549 0.474296
0 0.0696422 0.522698
0.0605173 0.0859846 0.549599
0.179461 0.047303 0.584649
0.350545 0 0.608576
0.505165 0 0.591791
0.628534 0 0.574929
0.723064 0 0.537758
0 0.138598 0.545724
0 0.142535 0.580423
0 0.14757 0.602502
0.0370642 0.18909 0.619608
0.184878 0.196811 0.64332
0.360708 0.139254 0.693355
0.558724 0.0333104 0.732082
0.731395 0.0282902 0.732815
0.838819 0.00918593 0.684855
0 0.267109 0.634989
0 0.268498 0.665949
0 0.264027 0.685863
0 0.306798 0.706981
0.155138 0.357183 0.717708
0.36405 0.379705 0.742824
0.576043 0.300267 0.824308
0.806851 0.226795 0.857267
0.93022 0.185885 0.803845
0 0.421515 0.711955
0 0.443656 0.74844
0 0.451392 0.778759
0 0.462257 0.799161
0.132448 0.493919 0.814328
0.40824 0.515724 0.810376
0.617594 0.454566 0.863432
0.880995 0.348638 0.897963
0.965728 0.283604 0.802121
0 0.577752 0.803708
0 0.601755 0.838666
0 0.62092 0.873564
0 0.643442 0.899336
0 0.669352 0.933165
0.395575 0.659052 0.904143
0.689693 0.703487 0.888029
0.885328 0.695796 0.918242
0.991928 0.654597 0.864637
0 0.73637 0.8607
0 0.762753 0.890684
0 0.783566 0.921035
0 0.819684 0.949493
0 0.862501 0.975723
0.355764 0.868025 0.944198
0.667079 0.891356 0.926345
0.861692 0.905852 0.912749
0.965148 0.896162 0.89839
0 0.897902 0.904036
0 0.91632 0.929168
0 0.932616 0.953048
0 0.944183 0.967437
0.167483 0.94641 0.961837
0.430961 0.959304 0.953704
0.647303 0.966796 0.94815
0.839002 0.969772 0.944228
0.975418 0.974914 0.944396
