src/assets/luts/日系配方/FE卷.cube
LUT_3D_SIZE 17
0.0033875 0.0116884 0.00369268
0.0223239 0.0093843 0.000198367
0.0415198 0.00396735 0
0.0658579 0 0
0.0925917 0 0
0.126192 0 0
0.176471 0 0
0.230991 0 0
0.284657 0 0
0.335729 0 0
0.386679 0 0
0.434714 0 0
0.478355 0 0
0.519371 0 0
0.561898 0 0
0.609232 0 0
0.664805 0 0
0.00273136 0.0121157 0.00332647
0.0165866 0.0119936 0.00103761
0.0339971 0.00814832 0
0.0577554 0.00173953 0
0.0876173 0 0
0.121035 0 0
0.164324 0 0
0.220645 0 0
0.279545 0 0
0.338857 0 0
0.396521 0 0
0.446387 0 0
0.490089 0 0
0.533165 0 0
0.57911 0 0
0.628305 0 0
0.690379 0 0
0 0.0175174 0.00260929
0.00726329 0.020798 0.000823987
0.0381628 0.0204776 0
0.0749828 0.0111543 0
0.118288 0.00177005 0
0.163302 0 0
0.208988 0 0
0.260487 0 0
0.316274 0 0
0.373342 0 0
0.426825 0 0
0.473381 0 0
0.515007 0 0
0.556817 0 0
0.603006 0 0
0.655055 0 0
0.721279 0 0
0 0.0260319 0
0 0.0317388 0
0.030457 0.0422675 0
0.0829175 0.0354467 0
0.143343 0.0198215 0
0.209293 0.00410468 0
0.273945 0 0
0.330449 0 0
0.381903 0 0
0.434745 0 0
0.479286 0 0
0.519265 0 0
0.558221 0 0
0.598749 0 0
0.642725 0 0
0.692943 0 0
0.755596 0 0
0 0.0476387 0
0 0.0552529 0
0.00311284 0.0760204 0
0.0688029 0.0874495 0
0.154147 0.0746929 0
0.240238 0.0552529 0
0.326299 0.0349737 0
0.399466 0.0153201 0
0.457008 0.00518807 0
0.501396 0.00125124 0
0.542138 0 0
0.579934 0.000564584 0
0.617731 0.00192264 0
0.657328 0.00144961 0
0.699748 0.000610361 0
0.747906 0 0
0.806775 0 0
0 0.0764935 0
0 0.0879377 0
0 0.111894 0
0.0314031 0.138827 0
0.142733 0.146365 0
0.255238 0.13431 0
0.355337 0.116533 0
0.44007 0.101442 0
0.502708 0.0908217 0
0.554101 0.0834669 0
0.602228 0.0800031 0
0.645624 0.0792706 0
0.686442 0.07953 0
0.726436 0.0789349 0
0.769116 0.0773175 0
0.818311 0.0715953 0
0.874052 0.0717479 0
0 0.112444 0
0 0.128283 0
0 0.149798 0
0 0.188769 0
0.102663 0.2159 0
0.249042 0.224567 0
0.373098 0.214755 0
0.467414 0.201358 0
0.538903 0.197024 0
0.600412 0.192599 0
0.656291 0.186343 0
0.706767 0.18265 0
0.751766 0.181033 0
0.793988 0.180529 0
0.837049 0.179232 0
0.885557 0.176028 0
0.937896 0.174121 0
0 0.158068 0
0 0.177935 0
0 0.20206 0
0 0.239322 0
0.0577554 0.287907 0
0.216709 0.321675 0
0.371221 0.327962 0
0.481682 0.322576 0
0.562661 0.316243 0
0.638163 0.312627 0
0.703563 0.308339 0
0.758755 0.301808 0
0.808164 0.296269 0
0.855146 0.29189 0
0.90042 0.287282 0
0.947051 0.28423 0
0.992599 0.277119 0
0 0.215015 0
0 0.237613 0
0 0.263233 0
0 0.296452 0
0.004654 0.361456 0
0.183581 0.414328 0
0.352529 0.441093 0
0.482094 0.444236 0
0.5794 0.441444 0
0.666239 0.432685 0
0.741817 0.424323 0
0.802289 0.415946 0
0.856123 0.404593 0
0.906126 0.39443 0
0.955581 0.386419 0
0.998932 0.379583 0
1 0.370535 0
0 0.27982 0
0 0.303075 0
0 0.32929 0
0 0.362707 0
0 0.431342 0
0.162737 0.491188 0
0.333684 0.526955 0
0.476402 0.53933 0
0.582696 0.537408 0
0.680812 0.527459 0
0.765545 0.516625 0
0.835676 0.506218 0
0.899596 0.495262 0
0.955749 0.483085 0
0.997833 0.473808 0
1 0.465721 0
1 0.45623 0
0 0.349767 0
0 0.373556 0
0 0.399069 0
0 0.433295 0
0 0.495415 0
0.155917 0.554299 0
0.312383 0.588357 0
0.453605 0.60444 0
0.567636 0.611505 0
0.674815 0.605966 0
0.772244 0.598306 0
0.857649 0.590661 0
0.927382 0.580285 0
0.986023 0.570367 0
1 0.561486 0
1 0.552544 0
1 0.544076 0
0 0.422431 0
0 0.445624 0
0 0.468345 0
0 0.501122 0
0 0.559579 0
0.157031 0.610498 0
0.296513 0.640986 0
0.430457 0.660334 0
0.55024 0.676051 0
0.66772 0.682612 0
0.768521 0.677317 0
0.857725 0.670817 0
0.931777 0.663859 0
0.98967 0.655604 0
1 0.647776 0
1 0.638361 0
1 0.629541 0
0 0.499397 0.0124514
0 0.520577 0.00129702
0 0.544472 0
0 0.58381 0
0.0266728 0.632517 0
0.16202 0.665293 0
0.29041 0.690669 0
0.418418 0.711269 0
0.540581 0.730205 0
0.661067 0.743084 0
0.763638 0.746548 0
0.848646 0.74107 0
0.920027 0.735927 0
0.975372 0.730892 0
1 0.723842 0
1 0.716243 0
1 0.710689 0
0 0.583062 0.078584
0 0.605371 0.0544442
0 0.634363 0.0290379
0 0.672175 0.00234989
0.0428931 0.700725 0
0.177249 0.721248 0
0.299199 0.738689 0
0.419165 0.755398 0
0.5364 0.771634 0
0.654185 0.784192 0
0.754223 0.793179 0
0.833387 0.794125 0
0.894789 0.789792 0
0.945998 0.785611 0
0.989487 0.783978 0
1 0.78471 0
1 0.788251 0
0 0.67187 0.17496
0 0.699962 0.14847
0 0.725689 0.108186
0.00505074 0.745815 0.061677
0.113603 0.762539 0.011902
0.228824 0.77734 0
0.337835 0.792584 0
0.443534 0.807523 0
0.553384 0.819104 0
0.659983 0.826123 0
0.748287 0.832639 0
0.819623 0.836591 0
0.877241 0.8383 0
0.925399 0.839551 0
0.965454 0.843427 0
0.995392 0.848646 0.021973
1 0.853651 0.127962
0 0.769451 0.328923
0.0024567 0.782437 0.300816
0.0757916 0.794797 0.26154
0.153292 0.805005 0.222934
0.239841 0.816129 0.182483
0.326101 0.828107 0.149111
0.410529 0.841321 0.125185
0.497368 0.854612 0.114488
0.589899 0.865446 0.119173
0.672786 0.87364 0.12195
0.747265 0.87892 0.113054
0.808515 0.883467 0.101762
0.860426 0.886381 0.098558
0.905425 0.888411 0.114031
0.945159 0.890135 0.167361
0.977798 0.893553 0.267414
0.998245 0.898756 0.378561
0.237354 0.81883 0.4598
0.269902 0.829587 0.447333
0.312764 0.839109 0.433173
0.355383 0.848112 0.419181
0.403555 0.858625 0.406699
0.454734 0.870359 0.396979
0.515587 0.881148 0.390265
0.579767 0.891905 0.390341
0.643412 0.902464 0.399512
0.69958 0.910613 0.410498
0.74847 0.915908 0.409339
0.795911 0.919387 0.401175
0.840131 0.921798 0.392035
0.886305 0.923629 0.390723
0.930465 0.925429 0.404517
0.968338 0.928023 0.4477
0.994064 0.933883 0.530205
0.00222782 0.0108034 0.00970474
0.0248417 0.00950637 0.00238041
0.0562905 0.00157168 0
0.0888075 0 0
0.126787 0 0
0.178347 0 0
0.235096 0 0
0.289097 0 0
0.336507 0 0
0.380148 0 0
0.422156 0 0
0.461707 0 0
0.498268 0 0
0.53576 0 0
0.575082 0 0
0.619257 0 0
0.67364 0 0
3.0518e-05 0.0129702 0.00970474
0.0153201 0.0130465 0.00613413
0.0386358 0.00808728 0
0.0697642 0.00103761 0
0.107393 0 0
0.154528 0 0
0.20708 0 0
0.259937 0 0
0.313695 0 0
0.365469 0 0
0.417029 0 0
0.462776 0 0
0.505302 0 0
0.547372 0 0
0.590723 0 0
0.635355 0 0
0.691386 0 0
0 0.0201724 0.0083772
0.00234989 0.0244297 0.00534066
0.0352331 0.0260777 0.00102235
0.0755779 0.0138552 0
0.11928 0.00218204 0
0.167041 0 0
0.221057 0 0
0.273518 0 0
0.327184 0 0
0.382681 0 0
0.434882 0 0
0.479057 0 0
0.519997 0 0
0.561059 0 0
0.605539 0 0
0.655299 0 0
0.718776 0 0
0 0.0308537 0.00440986
0 0.0384985 0.000823987
0.019913 0.0521706 0.000274662
0.0836042 0.0475471 0
0.149905 0.0283207 0
0.214069 0.00776684 0
0.271717 0 0
0.323629 0 0
0.372 0 0
0.430762 0 0
0.479728 0 0
0.522728 0 0
0.562112 0 0
0.602991 0 0
0.644907 0 0
0.693233 0 0
0.753292 0 0
0 0.0564126 0.000564584
0 0.0672465 0
0 0.0877089 0
0.0550698 0.105577 0
0.163607 0.0941024 0
0.255116 0.0693523 0
0.333471 0.0448615 0
0.396567 0.021561 0
0.448218 0.00740063 0
0.493584 0.00216678 0
0.537408 0.00172427 0
0.579675 0.00560006 0
0.621241 0.00636301 0
0.662089 0.00421149 0
0.702388 0.00111391 0
0.747829 0 0
0.804501 0 0
0 0.0877852 0.000106813
0 0.101808 0
0 0.120592 0
0.0120851 0.153109 0
0.141909 0.167041 0
0.270344 0.150591 0
0.368811 0.130922 0
0.447059 0.115496 0
0.50457 0.101152 0
0.553292 0.0923323 0
0.600244 0.0901961 0
0.6448 0.0923629 0
0.687816 0.0957046 0
0.72929 0.0969711 0
0.771267 0.0934768 0
0.819409 0.0838026 0
0.872221 0.0762036 0
0 0.125414 0
0 0.141848 0
0 0.161074 0
0 0.195758 0
0.0870985 0.230594 0
0.253925 0.243702 0
0.383642 0.232807 0
0.475059 0.219379 0
0.544945 0.21265 0
0.60502 0.206149 0
0.659754 0.200305 0
0.707897 0.196185 0
0.751934 0.19588 0
0.794125 0.197238 0
0.83743 0.197391 0
0.885435 0.191211 0
0.934188 0.178943 0
0 0.172549 0
0 0.191211 0
0 0.213825 0
0 0.242206 0
0.0201877 0.294072 0
0.202564 0.334508 0
0.372549 0.345647 0
0.48574 0.339086 0
0.567254 0.33283 0
0.641611 0.326711 0
0.705852 0.320714 0
0.760159 0.313481 0
0.808621 0.306538 0
0.854459 0.303532 0
0.900404 0.300389 0
0.947204 0.296925 0
0.990295 0.281407 0
0 0.229801 0
0 0.250202 0
0 0.274723 0
0 0.301839 0
0 0.357366 0
0.152956 0.419089 0
0.337972 0.450446 0
0.479286 0.455406 0
0.579583 0.452491 0
0.666941 0.444068 0
0.741817 0.434165 0
0.801846 0.425589 0
0.855467 0.412985 0
0.907485 0.401816 0
0.956146 0.393866 0
0.998962 0.388251 0
1 0.377447 0
0 0.293278 0
0 0.315312 0
0 0.341039 0
0 0.368811 0
0 0.422248 0
0.11754 0.488945 0
0.308125 0.532311 0
0.463996 0.545815 0
0.576425 0.544427 0
0.676158 0.533822 0
0.761975 0.524147 0
0.834791 0.513939 0
0.899474 0.502815 0
0.95523 0.489494 0
0.996368 0.478981 0
1 0.471901 0
1 0.464027 0
0 0.36347 0
0 0.384817 0
0 0.409766 0
0 0.435309 0
0 0.483665 0
0.102602 0.547616 0
0.277043 0.589105 0
0.433448 0.608118 0
0.556649 0.617273 0
0.668193 0.612406 0
0.767117 0.60322 0
0.852628 0.596155 0
0.922057 0.586023 0
0.980316 0.576455 0
1 0.565927 0
1 0.55726 0
1 0.551431 0
0 0.434821 0.00869764
0 0.456306 0.000793469
0 0.477928 0
0 0.503059 0
0 0.550652 0
0.0994888 0.60592 0
0.255833 0.64097 0
0.40119 0.662684 0
0.533349 0.679454 0
0.658091 0.687663 0
0.761074 0.681086 0
0.84918 0.673304 0
0.922362 0.666041 0
0.979828 0.658061 0
1 0.651301 0
1 0.640467 0
1 0.638086 0
0 0.511238 0.0556802
0 0.531716 0.0356146
0 0.553262 0.0135348
0 0.582376 4.57771e-05
0 0.631296 0
0.103105 0.666865 0
0.24358 0.690974 0
0.382574 0.711849 0
0.512627 0.731411 0
0.643961 0.745892 0
0.75433 0.750423 0
0.839078 0.742397 0
0.907835 0.735546 0
0.961837 0.729839 0
0.998032 0.723674 0
1 0.720119 0
1 0.719875 0
0 0.591608 0.125628
0 0.612802 0.0980087
0 0.635248 0.0665293
0 0.670436 0.0353094
0 0.703502 0.00198367
0.114855 0.727535 0
0.253742 0.744457 0
0.382727 0.76112 0
0.507668 0.776593 0
0.630961 0.78732 0
0.739986 0.796246 0
0.823514 0.797101 0
0.885359 0.79237 0
0.936934 0.789899 0
0.97995 0.79144 0
1 0.794476 0
1 0.798489 0
0 0.673152 0.219272
0 0.695872 0.190555
0 0.724941 0.156298
0 0.748226 0.113207
0.0540932 0.767132 0.0653697
0.177722 0.782681 0.016968
0.297871 0.79794 0
0.411322 0.813306 0
0.523766 0.826673 0
0.638315 0.833936 0
0.733257 0.840101 0
0.809796 0.844739 0
0.870649 0.847135 0
0.919188 0.848066 0
0.957839 0.852155 0.012726
0.990173 0.857252 0.113985
1 0.860731 0.207538
0 0.770764 0.364813
0 0.786023 0.341619
0.011429 0.798947 0.309575
0.0914015 0.81004 0.271107
0.190433 0.81944 0.232761
0.286259 0.830564 0.204623
0.377661 0.843565 0.178927
0.468101 0.857633 0.167544
0.56231 0.869886 0.170703
0.651209 0.87837 0.172076
0.729152 0.884489 0.166537
0.795178 0.889525 0.1608
0.850828 0.892149 0.162402
0.898283 0.894484 0.18349
0.939071 0.895857 0.238666
0.97261 0.89958 0.331884
0.997452 0.905074 0.424445
0.185458 0.825315 0.477836
0.221118 0.834318 0.465461
0.26775 0.843626 0.452537
0.316136 0.852018 0.4383
0.36939 0.861311 0.42591
0.427192 0.871717 0.418769
0.488899 0.882933 0.415335
0.554696 0.894102 0.415229
0.622827 0.904601 0.422263
0.682658 0.913298 0.431952
0.733516 0.919432 0.432105
0.78349 0.923217 0.426978
0.831189 0.925704 0.422049
0.880079 0.927886 0.424216
0.927001 0.929931 0.439246
0.966171 0.93257 0.481239
0.993027 0.938216 0.560464
0.000183108 0.00970474 0.0189364
0.0171054 0.00918593 0.0178988
0.0568093 0.00593576 0.00665293
0.099733 0 0
0.146395 0 0
0.204349 0 0
0.262135 0 0
0.31397 0 0
0.359289 0 0
0.400198 0 0
0.436988 0 0
0.472145 0 0
0.506203 0 0
0.541283 0 0
0.579141 0 0
0.621164 0 0
0.673548 0 0
0 0.0115969 0.0234531
0.0101472 0.0119783 0.0230564
0.0431067 0.0107576 0.0137484
0.0852064 0.0015259 0
0.129854 0 0
0.185321 0 0
0.243839 0 0
0.296559 0 0
0.3458 0 0
0.393271 0 0
0.436881 0 0
0.476829 0 0
0.516426 0 0
0.557214 0 0
0.599023 0 0
0.641978 0 0
0.692485 0 0
0 0.0199588 0.0287785
0 0.0241703 0.0285039
0.032517 0.0283207 0.0215915
0.0776226 0.0163272 0.00447089
0.129381 0.00149538 0
0.18732 0 0
0.249714 0 0
0.306462 0 0
0.356847 0 0
0.402304 0 0
0.444999 0 0
0.483207 0 0
0.522377 0 0
0.564279 0 0
0.607431 0 0
0.653742 0 0
0.714107 0 0
0 0.0348363 0.029572
0 0.0437934 0.0260929
0.0129397 0.0577554 0.0256046
0.0763561 0.0560311 0.0133974
0.146715 0.0320439 0
0.213718 0.00944533 0
0.277821 0 0
0.335607 0 0
0.388525 0 0
0.437781 0 0
0.481315 0 0
0.521218 0 0
0.5608 0 0
0.601678 0 0
0.643961 0 0
0.690532 0 0
0.748638 0 0
0 0.0619974 0.0242618
0 0.0763714 0.016556
0 0.0952926 0.00988785
0.0373846 0.117739 0.0103609
0.154574 0.111879 0.00108339
0.250767 0.0827192 0
0.330312 0.0545968 0
0.393515 0.0294194 0
0.444526 0.00894179 0
0.486961 0.0018616 0
0.529488 0 0
0.571633 0 0
0.613794 0.00241093 0
0.656519 0.00291447 0
0.699199 0.00108339 0
0.745266 0 0
0.799969 0 0
0 0.0961166 0.019379
0 0.11487 0.00909438
0 0.133135 0.000503548
0 0.165713 0
0.118151 0.188052 0
0.266804 0.176562 0
0.368277 0.149371 0
0.443961 0.125872 0
0.497108 0.106523 0
0.540536 0.0918746 0
0.583093 0.0854047 0
0.626841 0.0881056 0
0.671824 0.09308 0
0.717586 0.0970321 0
0.763455 0.0974594 0
0.813718 0.0899367 0
0.865721 0.0770733 0
0 0.136965 0.016495
0 0.157626 0.00544747
0 0.178714 0
0 0.206149 0
0.0593271 0.248112 0
0.242802 0.26804 0
0.384558 0.252842 0
0.474891 0.232837 0
0.539483 0.221332 0
0.593362 0.20885 0
0.642466 0.195865 0
0.68867 0.192142 0
0.733349 0.19443 0
0.777447 0.200076 0
0.824201 0.205066 0
0.877607 0.199847 0
0.927535 0.179614 0
0 0.186694 0.013611
0 0.208377 0.00102235
0 0.230823 0
0 0.255421 0
0 0.304204 0
0.173922 0.347753 0
0.36759 0.361395 0
0.48481 0.349279 0
0.563943 0.338674 0
0.632242 0.330388 0
0.692119 0.321004 0
0.743297 0.311055 0
0.790982 0.305516 0
0.838376 0.304616 0
0.889296 0.306355 0
0.939788 0.304692 0
0.984894 0.285344 0
0 0.245457 0.0121004
0 0.267506 0.000289921
0 0.2907 0
0 0.31632 0
0 0.360143 0
0.113634 0.421286 0
0.315633 0.456916 0
0.4757 0.463249 0
0.575891 0.45716 0
0.658839 0.447242 0
0.729534 0.436576 0
0.788083 0.426551 0
0.842588 0.413733 0
0.895644 0.402716 0
0.945403 0.396887 0
0.991348 0.394842 0
1 0.383246 0
0 0.309636 0.0154726
0 0.332235 0.00210575
0 0.356252 0
0 0.382757 0
0 0.419379 0
0.0606394 0.483253 0
0.269261 0.531044 0
0.446632 0.547753 0
0.568566 0.547799 0
0.668971 0.536355 0
0.754177 0.526635 0
0.824781 0.515602 0
0.887358 0.504219 0
0.942977 0.491157 0
0.990677 0.480751 0
1 0.4757 0
1 0.47158 0
0 0.379385 0.0295872
0 0.399985 0.010132
0 0.422538 9.15541e-05
0 0.446967 0
0 0.480217 0
0.0282292 0.540368 0
0.230793 0.586236 0
0.403296 0.608591 0
0.542779 0.619242 0
0.661143 0.615854 0
0.759396 0.605554 0
0.841794 0.598047 0
0.91046 0.588342 0
0.967239 0.578317 0
1 0.568444 0
1 0.559945 0
1 0.559991 0
0 0.449683 0.0605631
0 0.469947 0.0404059
0 0.490272 0.0180819
0 0.512978 0.0011902
0 0.549584 0
0.027451 0.605905 0
0.202655 0.641032 0
0.361944 0.663417 0
0.509483 0.680552 0
0.644099 0.689906 0
0.752041 0.683192 0
0.838453 0.674296 0
0.909987 0.667628 0
0.965835 0.660151 0
0.999649 0.651804 0
1 0.645533 0
1 0.648127 0
0 0.52256 0.110277
0 0.542489 0.0860609
0 0.564309 0.059678
0 0.586923 0.0301518
0 0.627222 0.00654612
0.0237125 0.67155 0
0.186496 0.697444 0
0.337285 0.715602 0
0.479973 0.732891 0
0.619867 0.746868 0
0.740627 0.751827 0
0.828016 0.744289 0
0.895644 0.736889 0
0.948882 0.733059 0
0.993362 0.73022 0
1 0.730755 0
1 0.730663 0
0 0.599649 0.178683
0 0.619364 0.150881
0 0.639765 0.116075
0 0.666026 0.0790875
0 0.702739 0.0430762
0.0382544 0.73254 0.000427253
0.197314 0.75079 0
0.338689 0.768338 0
0.472602 0.783719 0
0.604944 0.794034 0
0.72369 0.801755 0
0.812802 0.802487 0
0.877272 0.798795 0
0.928557 0.799466 0
0.971008 0.803586 0
1 0.80763 0.0027924
1 0.809125 0.0611582
0 0.676951 0.270954
0 0.695109 0.239536
0 0.719066 0.206729
0 0.747158 0.168429
0 0.770352 0.120943
0.116121 0.787289 0.0764019
0.248463 0.802136 0.0340887
0.372686 0.817441 0.00714122
0.489845 0.832776 0
0.61088 0.841443 0
0.715129 0.847898 0
0.798489 0.853193 0
0.862486 0.856062 0
0.911589 0.856733 0.0190585
0.950393 0.860426 0.101076
0.982193 0.864897 0.208423
1 0.867475 0.288121
0 0.770871 0.39765
0 0.787442 0.379446
0 0.802533 0.355734
0.0167849 0.81442 0.322042
0.124514 0.824094 0.285466
0.235966 0.833326 0.256291
0.338598 0.845441 0.234562
0.435233 0.859327 0.221775
0.533486 0.87248 0.221729
0.626719 0.882795 0.224308
0.708873 0.890227 0.222858
0.780331 0.895018 0.223133
0.840116 0.897887 0.22945
0.89102 0.900236 0.251987
0.934081 0.901686 0.303273
0.968536 0.905333 0.387213
0.996521 0.910933 0.466926
0.120531 0.832197 0.49691
0.165911 0.839994 0.486397
0.216281 0.848188 0.473762
0.267384 0.856031 0.459922
0.327321 0.86453 0.446891
0.391974 0.873045 0.439261
0.456626 0.884276 0.437278
0.524971 0.895674 0.438758
0.597604 0.906081 0.443839
0.664012 0.915602 0.453742
0.717815 0.92256 0.456672
0.770611 0.927031 0.454887
0.821439 0.929946 0.45333
0.87274 0.932143 0.456703
0.92253 0.934554 0.472496
0.963516 0.937087 0.513024
0.991882 0.942489 0.591562
0 0.00758373 0.0315709
0.00859083 0.00602731 0.0347601
0.0473793 0.00123598 0.0270695
0.100572 0 0.0114137
0.158892 0 0.000259403
0.225299 0 0
0.286473 0 0
0.340169 0 0
0.382345 0 0
0.417517 0 0
0.448356 0 0
0.480751 0 0
0.513344 0 0
0.547295 0 0
0.582437 0 0
0.622217 0 0
0.673869 0 0
0 0.0081178 0.0415351
0.00131228 0.00773632 0.0490425
0.0323796 0.00421149 0.0477455
0.09131 0.000244144 0.0254063
0.150439 0 0.00209049
0.215274 0 0
0.276967 0 0
0.330755 0 0
0.376806 0 0
0.417731 0 0
0.453147 0 0
0.487633 0 0
0.52256 0 0
0.560235 0 0
0.598932 0 0
0.641428 0 0
