src/assets/luts/日系配方/FE卷.cube
LUT_3D_SIZE 5
0.0033875 0.0116884 0.00369268
0.0925917 0 0
0.284657 0 0
0.478355 0 0
0.664805 0 0
0 0.0476387 0
0.154147 0.0746929 0
0.457008 0.00518807 0
0.617731 0.00192264 0
0.806775 0 0
0 0.215015 0
0.004654 0.361456 0
0.5794 0.441444 0
0.856123 0.404593 0
1 0.370535 0
0 0.499397 0.0124514
0.0266728 0.632517 0
0.540581 0.730205 0
0.920027 0.735927 0
1 0.710689 0
0.237354 0.81883 0.4598
0.403555 0.858625 0.406699
0.643412 0.902464 0.399512
0.840131 0.921798 0.392035
0.994064 0.933883 0.530205
0 0.00376898 0.0516823
0.152361 0 0.019028
0.395392 0 0
0.530526 0 0
0.676936 0 0
0 0.0632181 0.144305
0.131212 0.131136 0.13814
0.46215 0.0339818 0.000762951
0.617258 0 0
0.776883 0 0
0 0.277607 0.154253
0 0.392905 0.0710307
0.568627 0.496986 0.00640879
0.831449 0.435691 0
1 0.404715 0
0 0.542428 0.245487
0 0.630533 0.120165
0.397742 0.750973 0
0.878721 0.7579 0
1 0.758679 0.0839399
0 0.8448 0.540078
0.206302 0.871717 0.499397
0.532113 0.907805 0.489281
0.796536 0.937667 0.51809
0.98883 0.950378 0.648829
0 0 0.156176
0.0219272 0 0.184161
0.345068 0 0.0972457
0.551125 0 0.0525673
0.749783 0 0
0 0.0454414 0.323842
0.0374762 0.07187 0.376242
0.492134 0 0.290242
0.651576 0 0.114443
0.798093 0 0.0413977
0 0.290166 0.480781
0 0.4336 0.516381
0.506996 0.533028 0.49633
0.797818 0.423987 0.353048
0.980514 0.38233 0.148531
0 0.591363 0.542321
0 0.677607 0.512276
0.261387 0.78381 0.451423
0.821958 0.804273 0.400092
0.996796 0.778241 0.427192
0 0.865278 0.661799
0 0.901259 0.64773
0.412345 0.916564 0.640101
0.74966 0.948623 0.681239
0.983322 0.960906 0.7626
0 0 0.207675
0 0 0.275029
0.18471 0 0.288029
0.466819 0 0.216114
0.728389 0 0.176165
0 0.0198978 0.426673
0 0.0513619 0.493767
0.323934 0 0.512825
0.587304 0 0.371679
0.869673 0.0654459 0.318898
0 0.273045 0.591516
0 0.328115 0.668116
0.379614 0.426703 0.692317
0.818952 0.309148 0.657328
0.933486 0.2327 0.434958
0 0.581659 0.725032
0 0.671 0.784787
0.00672923 0.809537 0.804807
0.77229 0.817884 0.726085
0.982849 0.747143 0.625162
0 0.88777 0.804028
0 0.927062 0.823545
0.310994 0.937362 0.815457
0.733104 0.956939 0.846098
0.979538 0.972091 0.882811
0 0 0.162951
0 0 0.24744
0.0774853 0 0.327474
0.356191 0 0.320485
0.558907 0 0.359762
0 0.0281224 0.429038
0 0.0696422 0.522698
0.179461 0.047303 0.584649
0.505165 0 0.591791
0.723064 0 0.537758
0 0.267109 0.634989
0 0.264027 0.685863
0.155138 0.357183 0.717708
0.576043 0.300267 0.824308
0.93022 0.185885 0.803845
0 0.577752 0.803708
0 0.62092 0.873564
0 0.669352 0.933165
0.689693 0.703487 0.888029
0.991928 0.654597 0.864637
0 0.897902 0.904036
0 0.932616 0.953048
0.167483 0.94641 0.961837
0.647303 0.966796 0.94815
0.975418 0.974914 0.944396
