src/assets/luts/日系配方/NC卷.cube
LUT_3D_SIZE 9
0 0 0
0 0 0
0.0661784 0.000274662 0
0.18706 0 0.0077821
0.340032 0 0
0.526177 0 0
0.718715 0 0
0.837705 0 0
0.884962 0 0
0 0.000747692 0
0 0.00991836 0
0.0797284 0.0104219 0
0.203952 0 0.0091249
0.374136 0 0
0.575296 0 0
0.755398 0 0
0.859419 0 0
0.884962 0 0
0.0112459 0.115038 0.0827192
0.0125734 0.132525 0.100343
0.135256 0.147982 0.102251
0.259495 0.148287 0.0654765
0.46511 0.07364 0
0.729137 0 0
0.830564 0.0548257 0.00108339
0.856916 0.133608 0.0122683
0.866667 0.143343 0.0137331
0 0.267582 0.20264
0 0.289509 0.212604
0 0.300191 0.205005
0.24387 0.308339 0.182849
0.534142 0.33518 0.018616
0.780911 0.313542 0.0238499
0.913725 0.315022 0.0316167
0.966278 0.343862 0.0392004
0.964218 0.333501 0.0383307
0 0.415106 0.264637
0 0.438453 0.270466
0 0.460883 0.265095
0.169146 0.468833 0.244388
0.395117 0.520211 0.266239
0.78529 0.586862 0.23418
0.96492 0.556848 0.0669108
0.995895 0.546029 0.0533913
0.994156 0.519509 0.0518196
0 0.571084 0.304082
0 0.582116 0.310185
0.00968948 0.593698 0.314473
0.140429 0.62591 0.334127
0.389441 0.660609 0.320104
0.622889 0.723247 0.399634
0.954452 0.814221 0.382055
1 0.816464 0.363394
1 0.790143 0.33846
0.249119 0.775814 0.535561
0.279973 0.796094 0.565957
0.28777 0.800855 0.572976
0.290166 0.812833 0.560861
0.430808 0.83418 0.5823
0.686702 0.860227 0.599802
0.877699 0.909239 0.641733
0.999268 0.951751 0.569482
1 0.951293 0.550713
0.602152 0.926574 0.801053
0.632151 0.934035 0.816953
0.632929 0.934234 0.817349
0.622782 0.937591 0.808927
0.695033 0.950866 0.825772
0.810742 0.960388 0.836332
0.916686 0.967849 0.853727
0.983108 0.982391 0.86566
0.996078 0.984405 0.838788
0.647074 0.937636 0.824628
0.647074 0.937636 0.824628
0.647074 0.937636 0.824628
0.662913 0.94757 0.830182
0.760037 0.965469 0.863584
0.861936 0.976837 0.889128
0.955795 0.985687 0.911788
0.988418 0.994568 0.936782
0.998993 0.998032 0.941909
0 0 0
0 0 0
0.063035 0.000595102 0
0.185229 0 0.00779736
0.338445 0 0
0.526375 0 0
0.720653 0 0
0.838392 0 0
0.884962 0 0
0 0.00708019 0.00148013
0 0.0163272 0.00732433
0.0849012 0.0165103 0.00318914
0.204211 0 0.00910964
0.376349 0 0
0.578485 0 0
0.759075 0 0
0.861753 0 0
0.884962 0 0
0.0146334 0.120485 0.0896773
0.0378729 0.135927 0.107179
0.142 0.155596 0.112734
0.267948 0.155184 0.0719921
0.465873 0.0916304 0
0.73637 0 0
0.818097 0.0906844 0.00572213
0.86714 0.148867 0.0140536
0.877195 0.158083 0.0157321
0 0.273121 0.205509
0 0.294957 0.214939
0.0115511 0.301427 0.203998
0.250111 0.317617 0.187366
0.548699 0.345586 0.021088
0.794064 0.324651 0.0243992
0.919524 0.3252 0.0326848
0.967987 0.351446 0.039765
0.965408 0.338247 0.0386969
0 0.421118 0.266285
0 0.444175 0.271321
0 0.467689 0.266331
0.174304 0.475807 0.24416
0.399878 0.526513 0.269108
0.79118 0.594491 0.238132
0.9682 0.564553 0.0802014
0.996124 0.551415 0.0534981
0.994629 0.525048 0.0523079
0 0.57319 0.30454
0 0.586343 0.313924
0.0173648 0.598398 0.318029
0.147234 0.631006 0.338689
0.391516 0.665339 0.324636
0.626612 0.727489 0.40325
0.955352 0.818875 0.386282
1 0.821057 0.368002
1 0.795865 0.343999
0.256474 0.780957 0.542901
0.28632 0.799924 0.571603
0.292332 0.803647 0.577203
0.296742 0.815991 0.565164
0.439628 0.837674 0.587442
0.6925 0.863767 0.607004
0.879499 0.91104 0.646723
0.999176 0.952804 0.574014
1 0.952728 0.555001
0.6094 0.928389 0.804944
0.63621 0.935134 0.819196
0.634028 0.934493 0.817914
0.624094 0.938415 0.809094
0.701701 0.952132 0.82829
0.816114 0.961456 0.838666
0.918639 0.968765 0.856413
0.983307 0.982727 0.867384
0.996078 0.984634 0.840635
0.647074 0.937636 0.824628
0.647074 0.937636 0.824628
0.647074 0.937636 0.824628
0.665019 0.948928 0.830945
0.766873 0.966369 0.86598
0.865263 0.977172 0.889632
0.955856 0.985687 0.911833
0.988052 0.994476 0.936599
0.998993 0.998032 0.941909
0 0.00457771 0.0508431
0 0.00466926 0.0473945
0.065919 0.0241093 0.0411231
0.191165 0.0315862 0.0660105
0.340154 0 0.0711376
0.531777 0 0.0303655
0.7299 0 0
0.84567 0 0
0.892882 0 0
0 0.0138552 0.0584878
0 0.0187228 0.0642557
0.0924849 0.0425879 0.0667124
0.218219 0.0294652 0.0839399
0.392767 0 0.105318
0.598474 0 0.112627
0.798444 0 0.00483711
0.873564 0 0
0.859739 0.0181582 0
0.00604257 0.146136 0.178714
0.00386053 0.162402 0.201389
0.153536 0.172549 0.170077
0.266438 0.16318 0.154482
0.41825 0.140459 0.11368
0.64065 0.105867 0.0657206
0.831998 0.130434 0.0129549
0.910765 0.187274 0.0208896
0.914122 0.190967 0.0215915
0 0.273289 0.21883
0 0.2972 0.235462
0.164233 0.303716 0.242725
0.283787 0.332189 0.241978
0.567529 0.346044 0.192142
0.802335 0.333486 0.141634
0.934524 0.338659 0.0349126
0.973571 0.37435 0.0419471
0.971222 0.361929 0.0408179
0 0.417563 0.287999
0.0558175 0.437812 0.295811
0.151919 0.465599 0.317128
0.237324 0.495964 0.291341
0.436973 0.541619 0.310643
0.814404 0.594461 0.252918
0.969726 0.560082 0.110201
0.996948 0.549996 0.0539559
0.995666 0.524529 0.0527199
0.132799 0.599466 0.375982
0.159075 0.62681 0.402701
0.157214 0.633646 0.398352
0.188281 0.643198 0.368826
0.399695 0.671809 0.339864
0.623499 0.725429 0.404791
0.95137 0.816449 0.385107
1 0.820584 0.367514
1 0.795666 0.343862
0.284977 0.78941 0.566491
0.3178 0.809262 0.597421
0.31574 0.809384 0.595895
0.29807 0.814206 0.563622
0.437598 0.834653 0.581476
0.685893 0.861479 0.602579
0.874876 0.908888 0.643946
0.998535 0.950988 0.574289
1 0.952529 0.554406
0.606577 0.92752 0.803372
0.630488 0.933654 0.816114
0.624826 0.93225 0.813397
0.613642 0.936416 0.802853
0.69633 0.949905 0.823102
0.812909 0.95996 0.834531
0.916121 0.967803 0.853895
0.981659 0.981735 0.864744
0.996063 0.984253 0.837613
0.647074 0.937636 0.824628
0.647074 0.937636 0.824628
0.650462 0.937942 0.826276
0.672007 0.950591 0.834012
0.774227 0.967346 0.868452
0.868727 0.977752 0.89134
0.955886 0.985885 0.91249
0.987564 0.994598 0.938521
0.999268 0.998413 0.945556
0 0.051667 0.161807
0 0.048188 0.157305
0 0.0624094 0.155673
0.184009 0.0906386 0.151171
0.296635 0.103227 0.154742
0.554376 0.00251774 0.1729
0.774044 0.00163272 0.184146
0.835279 0.023209 0.115038
0.813504 0.107012 0.0608072
0 0.0476844 0.156435
0 0.049424 0.159045
0 0.0734112 0.170672
0.204715 0.102037 0.168429
0.316823 0.127398 0.172198
0.589837 0.0243229 0.192386
0.846815 0.00350958 0.208011
0.831525 0.0780804 0.116762
0.839506 0.125048 0.105608
0 0.179477 0.27805
0 0.194354 0.299794
0.106569 0.176059 0.250294
0.271778 0.186084 0.239078
0.418891 0.196826 0.229511
0.663813 0.16051 0.203677
0.844663 0.15462 0.168109
0.921157 0.218875 0.169375
0.930617 0.227237 0.177264
0 0.304982 0.427161
0 0.325948 0.458457
0.13843 0.320165 0.415198
0.323613 0.351446 0.346593
0.556634 0.34406 0.329259
0.791836 0.346746 0.313283
0.931868 0.357488 0.287144
0.98085 0.395117 0.277226
0.977417 0.381491 0.262287
0.0798352 0.439155 0.347646
0.106447 0.471427 0.374823
0.171344 0.496376 0.395254
0.345083 0.532021 0.434913
0.511116 0.564691 0.430091
0.849531 0.599405 0.386282
0.981353 0.586725 0.360708
0.998764 0.575174 0.314748
0.997574 0.550774 0.294362
0.207828 0.640162 0.46923
0.22916 0.668391 0.499123
0.240238 0.671412 0.500389
0.354788 0.686351 0.523095
0.488457 0.705425 0.477623
0.700282 0.757259 0.520958
0.983169 0.827573 0.450141
1 0.812863 0.422156
1 0.788373 0.404334
0.400916 0.830442 0.668467
0.438132 0.850065 0.699168
0.434653 0.848264 0.695842
0.493507 0.854322 0.704585
0.537499 0.854887 0.659617
0.738567 0.879545 0.683635
0.891707 0.912779 0.693965
1 0.957351 0.595743
1 0.954208 0.577646
0.700328 0.942351 0.853452
0.718334 0.947921 0.863279
0.710307 0.945846 0.859297
0.739147 0.950851 0.866529
0.732036 0.955673 0.847547
0.83415 0.963256 0.853361
0.926848 0.971511 0.874159
0.984268 0.982956 0.875486
0.999435 0.987579 0.846632
0.744793 0.953719 0.874266
0.743877 0.954406 0.874937
0.743725 0.954665 0.875288
0.813962 0.967269 0.902068
0.832044 0.976837 0.904082
0.896788 0.983703 0.916472
0.965408 0.990494 0.934478
0.989364 0.996353 0.95375
0.999893 0.999298 0.956588
0 0.106538 0.239338
0 0.103792 0.235065
0 0.115053 0.244388
0.132021 0.118685 0.242252
0.294392 0.13344 0.227893
0.41352 0.169894 0.233906
0.660395 0.146029 0.222156
0.827573 0.102739 0.187106
0.87599 0.118257 0.173785
0 0.104799 0.236332
0 0.107408 0.240635
0 0.129458 0.266773
0.161105 0.128603 0.266606
0.325933 0.14197 0.247044
0.471473 0.183825 0.262531
0.71931 0.18262 0.261723
0.858457 0.164141 0.236057
0.887083 0.167712 0.231876
0 0.196323 0.346258
0 0.209033 0.364843
0 0.225483 0.379034
0.219165 0.193652 0.34905
0.429969 0.211215 0.320943
0.644755 0.258076 0.347829
0.868589 0.268757 0.344945
0.96112 0.281971 0.333745
0.969924 0.286641 0.332235
0 0.320974 0.548516
0 0.338033 0.593866
0.124758 0.323232 0.527626
0.278019 0.348669 0.467857
0.528725 0.366155 0.433082
0.774304 0.417502 0.467124
0.943084 0.412253 0.448035
0.990631 0.414954 0.411536
0.987182 0.396124 0.389807
0 0.468101 0.694591
0.0160067 0.485924 0.719081
0.133898 0.502739 0.706874
0.332036 0.549889 0.656229
0.57499 0.587686 0.576577
0.830335 0.592111 0.568215
0.98056 0.60528 0.552102
1 0.606027 0.512886
1 0.578637 0.488945
0.231922 0.692622 0.616922
0.252003 0.718944 0.647776
0.249958 0.712871 0.635935
0.363424 0.719127 0.625101
0.613794 0.751583 0.662928
0.770565 0.785534 0.679759
0.982254 0.824216 0.621836
1 0.826688 0.590936
1 0.805966 0.57319
0.445701 0.864836 0.750347
0.467506 0.877226 0.768002
0.458457 0.872236 0.761563
0.514458 0.875364 0.766491
0.697124 0.883986 0.79469
0.815625 0.897093 0.78912
0.915038 0.917281 0.797955
1 0.949676 0.70724
1 0.940658 0.685847
0.67454 0.953292 0.86685
0.677424 0.956222 0.870695
0.66804 0.953399 0.866636
0.731579 0.958389 0.879789
0.840314 0.961624 0.899977
0.880858 0.96585 0.879499
0.947662 0.976089 0.908476
0.989441 0.985 0.904402
1 0.988907 0.867628
0.709819 0.962402 0.88217
0.704646 0.962875 0.88246
0.705348 0.963195 0.883207
0.807263 0.9738 0.911864
0.904967 0.982315 0.942306
0.929091 0.986984 0.932433
0.978912 0.993484 0.957031
0.993149 0.997635 0.969192
1 0.99971 0.967758
0 0.154162 0.329137
0 0.152529 0.325689
0 0.158816 0.334188
0.0141451 0.157443 0.337148
0.255161 0.151766 0.340825
0.422187 0.166033 0.298665
0.627787 0.223316 0.329763
0.822446 0.236942 0.322683
0.891264 0.228595 0.305379
0 0.154223 0.329305
0 0.156435 0.334386
0 0.17113 0.358007
0.111696 0.15462 0.348058
0.298283 0.157733 0.363699
0.477455 0.179889 0.322316
0.688518 0.243412 0.363546
0.853864 0.277806 0.367453
0.893553 0.277317 0.36376
0 0.211231 0.414191
0 0.223117 0.434287
0 0.238666 0.456641
0.182895 0.206516 0.433265
0.393408 0.209781 0.451835
0.633921 0.249134 0.407385
0.852583 0.338964 0.478645
0.976516 0.419776 0.52369
0.985702 0.421729 0.522377
0 0.336645 0.645289
0 0.354467 0.69337
0.0699168 0.328252 0.641871
0.241672 0.347997 0.582345
0.471473 0.349386 0.58912
0.765255 0.406332 0.546502
0.95024 0.521569 0.631769
1 0.576226 0.660456
1 0.555886 0.638666
0.0318914 0.451774 0.83476
0.0557259 0.473106 0.853269
0.123629 0.492714 0.83566
0.315175 0.537743 0.774731
0.500893 0.566293 0.699062
0.789212 0.592752 0.66247
0.964187 0.668116 0.710887
1 0.677241 0.703746
1 0.652598 0.680919
0.265202 0.708446 0.904067
0.281758 0.730739 0.916594
0.273121 0.725124 0.911025
0.352682 0.730968 0.879866
0.578485 0.764004 0.837476
0.804318 0.792721 0.784253
0.967681 0.806516 0.782696
1 0.820447 0.76228
1 0.804471 0.744778
0.449516 0.894804 0.851652
0.469169 0.905592 0.867002
0.457862 0.900099 0.864469
0.487602 0.893812 0.829465
0.666529 0.893141 0.830564
0.85832 0.902403 0.846967
0.932891 0.92163 0.861418
0.999496 0.933547 0.831724
1 0.929152 0.819181
0.691066 0.964858 0.898741
0.697612 0.967041 0.902922
0.684779 0.963821 0.898177
0.707012 0.965728 0.899092
0.798383 0.964675 0.903716
0.919493 0.969207 0.918196
0.964248 0.979339 0.937026
0.992706 0.985779 0.930724
1 0.989868 0.898146
0.717479 0.970275 0.906523
0.715145 0.970474 0.907942
0.714687 0.970504 0.908186
0.783383 0.979721 0.924773
0.875715 0.984421 0.941482
0.962524 0.990219 0.960662
0.986893 0.99501 0.971923
0.996582 0.998581 0.982376
1 0.999863 0.979477
0 0.179995 0.388174
0 0.17937 0.386419
0 0.182513 0.392554
0 0.218311 0.458518
0.205509 0.181765 0.428916
0.390097 0.177111 0.428824
0.598474 0.209125 0.375174
0.779995 0.281621 0.422675
0.880385 0.335668 0.442863
0 0.180758 0.38996
0 0.182208 0.393133
0 0.194476 0.418997
0 0.214435 0.472282
0.244007 0.189532 0.460807
0.440635 0.183902 0.449302
0.656977 0.224353 0.403021
0.81471 0.301762 0.452689
0.875257 0.339345 0.477104
0 0.22295 0.468147
0 0.23473 0.491524
0 0.248386 0.522942
0.138827 0.220493 0.533104
0.333043 0.235477 0.58706
0.598657 0.226841 0.542138
0.852216 0.311864 0.535332
0.964019 0.452583 0.618708
0.978103 0.477089 0.635447
0 0.349294 0.740719
0 0.366415 0.776562
0 0.368811 0.771984
0.211627 0.356695 0.716991
0.420859 0.367651 0.732799
0.72105 0.357275 0.663401
0.95079 0.474647 0.678096
1 0.653544 0.793896
1 0.674495 0.803265
0.132998 0.473533 0.848432
0.163638 0.509209 0.869429
0.183474 0.517372 0.875425
0.305989 0.530358 0.852491
0.448737 0.559075 0.814511
0.737331 0.543755 0.789715
0.966461 0.646967 0.779644
1 0.78291 0.858763
1 0.787808 0.856809
0.205509 0.680522 0.953399
0.221515 0.698329 0.959045
0.218189 0.691463 0.956527
0.294972 0.717113 0.932677
0.539605 0.739315 0.899474
0.730922 0.768048 0.862104
0.950576 0.807889 0.858259
0.999084 0.862989 0.875715
1 0.856214 0.871702
0.45507 0.897322 0.997925
0.468544 0.907179 0.999161
0.455009 0.902144 0.998215
0.477562 0.904402 0.99649
0.631098 0.904784 0.978988
0.810437 0.906203 0.937087
0.950362 0.925032 0.908293
0.997635 0.927016 0.905089
1 0.921584 0.8972
0.66659 0.977234 0.978912
0.680125 0.978836 0.985138
0.669383 0.97554 0.986938
0.656962 0.976135 0.961532
0.760815 0.973159 0.934142
0.890547 0.971618 0.936126
0.974258 0.979248 0.957717
0.995972 0.986877 0.958419
1 0.987213 0.941436
0.665019 0.978042 0.95555
0.66891 0.97908 0.964889
0.667857 0.978836 0.9626
0.745251 0.984131 0.948882
0.856748 0.987488 0.955169
0.939742 0.991501 0.968658
0.992844 0.996353 0.985763
0.999176 0.999374 0.992065
1 0.999969 0.989929
0 0.192325 0.415991
0 0.192142 0.415579
0 0.191211 0.41355
0 0.231418 0.502571
0.170825 0.19884 0.500954
0.329976 0.207797 0.54995
0.550759 0.197635 0.48954
0.742809 0.249973 0.449973
0.839567 0.321981 0.487343
0 0.193179 0.417868
0 0.194171 0.42005
0 0.200855 0.435142
0 0.245029 0.536431
0.210361 0.208865 0.536919
0.380819 0.212406 0.580163
0.600778 0.204746 0.496834
0.789181 0.267659 0.478584
0.848508 0.318853 0.502876
0 0.225742 0.484154
0 0.237568 0.509697
0 0.249805 0.543481
0.080705 0.234409 0.610224
0.299107 0.257862 0.680476
0.542977 0.253742 0.700954
0.797528 0.276509 0.604791
0.959075 0.403174 0.645396
0.967285 0.425681 0.64715
0 0.35436 0.777203
0 0.370855 0.804242
0 0.370001 0.808057
0.207935 0.374075 0.810819
0.408377 0.395361 0.83125
0.701183 0.389319 0.812894
0.922179 0.432242 0.730602
1 0.608957 0.81503
1 0.63003 0.821668
0.215183 0.492363 0.880552
0.223423 0.507881 0.883375
0.225101 0.508064 0.883513
0.300282 0.54847 0.894118
0.42884 0.569177 0.884703
0.685924 0.570504 0.889555
0.93756 0.585016 0.8177
1 0.752636 0.896406
1 0.779904 0.905486
0.228107 0.652262 0.913771
0.242771 0.668559 0.919142
0.239597 0.662531 0.916594
0.313787 0.678019 0.917113
0.50042 0.7234 0.931472
0.677791 0.757885 0.922881
0.927337 0.752422 0.890166
1 0.850706 0.925063
1 0.869474 0.929488
0.390906 0.869978 0.990448
0.41004 0.882002 0.992187
0.40177 0.874861 0.991226
0.411688 0.869001 0.98996
0.556085 0.882734 0.981659
0.746441 0.883879 0.963745
0.903044 0.902342 0.941192
0.996567 0.926177 0.946822
1 0.945998 0.941176
0.697826 0.973465 1
0.704295 0.974182 1
0.689601 0.972427 1
0.683284 0.97145 1
0.760067 0.975158 1
0.860426 0.973571 0.999207
0.948653 0.976394 0.982559
0.997711 0.986526 0.978286
1 0.986709 0.976287
0.707347 0.97528 1
0.706752 0.975097 1
0.707546 0.975357 1
0.762951 0.981155 1
0.850004 0.986557 1
0.901518 0.992813 0.981491
0.982025 0.996033 0.984146
0.999908 0.999344 0.994797
1 0.999969 0.995712
0 0.197803 0.427848
0 0.197803 0.427848
0 0.197803 0.427848
0 0.234348 0.512032
0.144579 0.205768 0.533867
0.293324 0.223056 0.59678
0.505425 0.212482 0.594598
0.69369 0.226535 0.49897
0.830839 0.286625 0.508751
0 0.197803 0.427848
0 0.197803 0.427848
0 0.2009 0.435645
0 0.246159 0.541344
0.191058 0.213825 0.557763
0.345251 0.225223 0.615045
0.575235 0.211719 0.569207
0.756893 0.249119 0.502464
0.850797 0.300649 0.522133
0 0.224277 0.483177
0 0.236011 0.50869
0 0.246509 0.536843
0 0.253635 0.636378
0.275975 0.262333 0.697047
0.493095 0.267964 0.739757
0.767117 0.272023 0.634562
0.931334 0.369696 0.63328
0.970321 0.422049 0.659724
0 0.354131 0.781308
0 0.369696 0.805417
0 0.368444 0.810391
0.215381 0.384024 0.835782
0.411063 0.414633 0.859403
0.679698 0.407675 0.849622
0.907637 0.427771 0.74844
1 0.564813 0.79382
1 0.621988 0.826459
0.221637 0.486748 0.880232
0.226123 0.499672 0.882139
0.225772 0.498436 0.881971
0.282689 0.534951 0.891142
0.423636 0.572564 0.901289
0.657679 0.569406 0.901015
0.922957 0.56968 0.828931
1 0.710323 0.879805
1 0.773632 0.90959
0.226261 0.634379 0.905715
0.232593 0.6495 0.91075
0.230091 0.64361 0.908827
0.303868 0.657496 0.912718
0.470436 0.706905 0.92845
0.65005 0.746838 0.932448
0.914748 0.737743 0.911009
1 0.8159 0.915801
1 0.866407 0.940719
0.376593 0.849363 0.986984
0.392538 0.865278 0.989761
0.383398 0.856214 0.988174
0.388251 0.843137 0.984985
0.526299 0.862882 0.971466
0.732357 0.870298 0.960952
0.874586 0.891264 0.960021
0.991211 0.903761 0.943526
1 0.938598 0.969162
0.673884 0.969726 1
0.684443 0.970916 1
0.664225 0.968811 1
0.636393 0.966461 1
0.715267 0.970748 1
0.822477 0.970001 0.992569
0.933272 0.9691 0.983063
0.989639 0.978012 0.98262
1 0.986068 0.98674
0.701198 0.972854 1
0.701198 0.972854 1
0.701198 0.972854 1
0.747387 0.977691 1
0.837125 0.984894 1
0.91162 0.989166 1
0.971511 0.994659 0.999573
0.997742 0.998718 0.996536
1 0.999954 0.998672
