src/assets/luts/日系配方/NC卷.cube
LUT_3D_SIZE 5
0 0 0
0.0661784 0.000274662 0
0.340032 0 0
0.718715 0 0
0.884962 0 0
0.0112459 0.115038 0.0827192
0.135256 0.147982 0.102251
0.46511 0.07364 0
0.830564 0.0548257 0.00108339
0.866667 0.143343 0.0137331
0 0.415106 0.264637
0 0.460883 0.265095
0.395117 0.520211 0.266239
0.96492 0.556848 0.0669108
0.994156 0.519509 0.0518196
0.249119 0.775814 0.535561
0.28777 0.800855 0.572976
0.430808 0.83418 0.5823
0.877699 0.909239 0.641733
1 0.951293 0.550713
0.647074 0.937636 0.824628
0.647074 0.937636 0.824628
0.760037 0.965469 0.863584
0.955795 0.985687 0.911788
0.998993 0.998032 0.941909
0 0.00457771 0.0508431
0.065919 0.0241093 0.0411231
0.340154 0 0.0711376
0.7299 0 0
0.892882 0 0
0.00604257 0.146136 0.178714
0.153536 0.172549 0.170077
0.41825 0.140459 0.11368
0.831998 0.130434 0.0129549
0.914122 0.190967 0.0215915
0 0.417563 0.287999
0.151919 0.465599 0.317128
0.436973 0.541619 0.310643
0.969726 0.560082 0.110201
0.995666 0.524529 0.0527199
0.284977 0.78941 0.566491
0.31574 0.809384 0.595895
0.437598 0.834653 0.581476
0.874876 0.908888 0.643946
1 0.952529 0.554406
0.647074 0.937636 0.824628
0.650462 0.937942 0.826276
0.774227 0.967346 0.868452
0.955886 0.985885 0.91249
0.999268 0.998413 0.945556
0 0.106538 0.239338
0 0.115053 0.244388
0.294392 0.13344 0.227893
0.660395 0.146029 0.222156
0.87599 0.118257 0.173785
0 0.196323 0.346258
0 0.225483 0.379034
0.429969 0.211215 0.320943
0.868589 0.268757 0.344945
0.969924 0.286641 0.332235
0 0.468101 0.694591
0.133898 0.502739 0.706874
0.57499 0.587686 0.576577
0.98056 0.60528 0.552102
1 0.578637 0.488945
0.445701 0.864836 0.750347
0.458457 0.872236 0.761563
0.697124 0.883986 0.79469
0.915038 0.917281 0.797955
1 0.940658 0.685847
0.709819 0.962402 0.88217
0.705348 0.963195 0.883207
0.904967 0.982315 0.942306
0.978912 0.993484 0.957031
1 0.99971 0.967758
0 0.179995 0.388174
0 0.182513 0.392554
0.205509 0.181765 0.428916
0.598474 0.209125 0.375174
0.880385 0.335668 0.442863
0 0.22295 0.468147
0 0.248386 0.522942
0.333043 0.235477 0.58706
0.852216 0.311864 0.535332
0.978103 0.477089 0.635447
0.132998 0.473533 0.848432
0.183474 0.517372 0.875425
0.448737 0.559075 0.814511
0.966461 0.646967 0.779644
1 0.787808 0.856809
0.45507 0.897322 0.997925
0.455009 0.902144 0.998215
0.631098 0.904784 0.978988
0.950362 0.925032 0.908293
1 0.921584 0.8972
0.665019 0.978042 0.95555
0.667857 0.978836 0.9626
0.856748 0.987488 0.955169
0.992844 0.996353 0.985763
1 0.999969 0.989929
0 0.197803 0.427848
0 0.197803 0.427848
0.144579 0.205768 0.533867
0.505425 0.212482 0.594598
0.830839 0.286625 0.508751
0 0.224277 0.483177
0 0.246509 0.536843
0.275975 0.262333 0.697047
0.767117 0.272023 0.634562
0.970321 0.422049 0.659724
0.221637 0.486748 0.880232
0.225772 0.498436 0.881971
0.423636 0.572564 0.901289
0.922957 0.56968 0.828931
1 0.773632 0.90959
0.376593 0.849363 0.986984
0.383398 0.856214 0.988174
0.526299 0.862882 0.971466
0.874586 0.891264 0.960021
1 0.938598 0.969162
0.701198 0.972854 1
0.701198 0.972854 1
0.837125 0.984894 1
0.971511 0.994659 0.999573
1 0.999954 0.998672
