src/assets/luts/日系配方/NC卷.cube
LUT_3D_SIZE 17
0 0 0
0 0 0
0 0 0
0.00894179 0 0
0.0661784 0.000274662 0
0.128496 0.0136416 0
0.18706 0 0.0077821
0.258747 0 0.00663767
0.340032 0 0
0.424094 0 0
0.526177 0 0
0.62855 0 0
0.718715 0 0
0.788952 0 0
0.837705 0 0
0.874174 0 0
0.884962 0 0
0 0 0
0 0 0
0 0 0
0.00727855 0 0
0.0672618 0.000335698 0
0.1337 0.0142061 0
0.196185 0 0.00843824
0.274403 0 0.00541695
0.359442 0 0
0.448844 0 0
0.555779 0 0
0.656199 0 0
0.741176 0 0
0.807889 0 0
0.852811 0 0
0.884962 0 0
0.884962 0 0
0 0.000747692 0
0 0.00271611 0
0 0.00991836 0
0.0243687 0.0114137 0
0.0797284 0.0104219 0
0.139528 0.0149386 0.00172427
0.203952 0 0.0091249
0.286885 0 0.00408942
0.374136 0 0
0.467033 0 0
0.575296 0 0
0.673777 0 0
0.755398 0 0
0.816251 0 0
0.859419 0 0
0.884962 0 0
0.884962 0 0
0 0.0380255 0.0195315
0.000579843 0.0441901 0.0242466
0.00756847 0.0538491 0.03122
0.0508736 0.0720836 0.0398871
0.115602 0.0808728 0.0422675
0.17116 0.0782177 0.0459602
0.240848 0.0370642 0.0422522
0.318425 0 0.0128328
0.401175 0 0
0.491844 0 0
0.594385 0 0
0.683253 0 0
0.763302 0 0
0.821775 0 0
0.864836 0 0
0.884962 0 0
0.884962 0 0
0.0112459 0.115038 0.0827192
0.0119936 0.125551 0.0937362
0.0125734 0.132525 0.100343
0.0645151 0.140398 0.106371
0.135256 0.147982 0.102251
0.189761 0.158663 0.0927901
0.259495 0.148287 0.0654765
0.343969 0.124941 0.0102388
0.46511 0.07364 0
0.601968 0 0
0.729137 0 0
0.818967 0 0
0.830564 0.0548257 0.00108339
0.839384 0.0992905 0.00735485
0.856916 0.133608 0.0122683
0.867323 0.144305 0.0138399
0.866667 0.143343 0.0137331
0 0.188586 0.148257
0 0.202853 0.160327
0 0.21323 0.168536
0.00256352 0.216327 0.167514
0.110491 0.210681 0.158358
0.18909 0.219043 0.14931
0.275563 0.229618 0.113863
0.387381 0.227466 0.00646983
0.496818 0.220859 0.0056611
0.614862 0.210178 0.0135958
0.729793 0.197147 0.0161288
0.819303 0.196445 0.0175479
0.877363 0.209461 0.0211643
0.910338 0.227741 0.0245823
0.928725 0.246586 0.0279088
0.93109 0.247959 0.0283818
0.929824 0.245426 0.0280003
0 0.267582 0.20264
0 0.279591 0.208057
0 0.289509 0.212604
0 0.299672 0.21529
0 0.300191 0.205005
0.156374 0.293446 0.172335
0.24387 0.308339 0.182849
0.366781 0.329152 0.148974
0.534142 0.33518 0.018616
0.670909 0.328069 0.0204623
0.780911 0.313542 0.0238499
0.859586 0.307744 0.0268711
0.913725 0.315022 0.0316167
0.949859 0.329732 0.0361028
0.966278 0.343862 0.0392004
0.96556 0.339101 0.0387579
0.964218 0.333501 0.0383307
0 0.342245 0.234348
0 0.355871 0.24062
0 0.365911 0.245243
0 0.375204 0.248508
0 0.389944 0.247868
0.0917525 0.370352 0.226963
0.246983 0.380285 0.183124
0.312047 0.408881 0.221302
0.440162 0.428336 0.207965
0.649149 0.454337 0.160311
0.810101 0.446097 0.0292973
0.895125 0.435477 0.0337835
0.946807 0.431846 0.0396277
0.978729 0.439338 0.0452583
0.986999 0.446799 0.0474098
0.985901 0.437217 0.0469215
0.984863 0.429297 0.0465248
0 0.415106 0.264637
0 0.427955 0.268254
0 0.438453 0.270466
0 0.44744 0.271122
0 0.460883 0.265095
0.0485847 0.44622 0.244099
0.169146 0.468833 0.244388
0.334508 0.485817 0.241215
0.395117 0.520211 0.266239
0.548943 0.543511 0.270558
0.78529 0.586862 0.23418
0.914214 0.577539 0.175753
0.96492 0.556848 0.0669108
0.98822 0.545983 0.0506447
0.995895 0.546029 0.0533913
0.994904 0.529976 0.0522774
0.994156 0.519509 0.0518196
0 0.489219 0.278523
0 0.506035 0.28217
0 0.519478 0.285481
0 0.528511 0.288029
0 0.53846 0.281407
0.0269322 0.526009 0.26302
0.149599 0.552377 0.289189
0.287221 0.5682 0.248554
0.399496 0.594476 0.301122
0.512261 0.632593 0.328679
0.678203 0.655192 0.331777
0.897032 0.712581 0.308659
0.981964 0.707454 0.284184
0.998505 0.689632 0.241825
1 0.675181 0.20882
0.999771 0.654948 0.17406
0.999512 0.640528 0.148684
0 0.571084 0.304082
0 0.575326 0.304768
0 0.582116 0.310185
0 0.587411 0.315145
0.00968948 0.593698 0.314473
0.0441596 0.60412 0.309621
0.140429 0.62591 0.334127
0.232364 0.646876 0.336736
0.389441 0.660609 0.320104
0.483787 0.685908 0.364309
0.622889 0.723247 0.399634
0.796002 0.765255 0.403296
0.954452 0.814221 0.382055
0.999329 0.822705 0.373037
1 0.816464 0.363394
1 0.802045 0.350103
1 0.790143 0.33846
0.0938277 0.65774 0.386023
0.116686 0.676112 0.406271
0.133623 0.688914 0.421576
0.142535 0.695689 0.429908
0.145296 0.697841 0.432425
0.148363 0.70631 0.425605
0.18819 0.71812 0.428672
0.265507 0.737621 0.449042
0.364767 0.749737 0.431815
0.524926 0.765606 0.446159
0.617487 0.791089 0.476921
0.765499 0.833432 0.513237
0.900191 0.870451 0.50367
0.991592 0.903563 0.473121
1 0.90753 0.464302
1 0.897826 0.450095
1 0.888838 0.438758
0.249119 0.775814 0.535561
0.26836 0.788693 0.554604
0.279973 0.796094 0.565957
0.28658 0.800107 0.571862
0.28777 0.800855 0.572976
0.284855 0.804913 0.569497
0.290166 0.812833 0.560861
0.351308 0.824979 0.578241
0.430808 0.83418 0.5823
0.546868 0.844282 0.573495
0.686702 0.860227 0.599802
0.755734 0.877577 0.615335
0.877699 0.909239 0.641733
0.957259 0.927764 0.608362
0.999268 0.951751 0.569482
1 0.954757 0.561181
1 0.951293 0.550713
0.403067 0.859464 0.671946
0.432639 0.87158 0.693614
0.448981 0.878065 0.705547
0.455604 0.880705 0.710552
0.455848 0.880796 0.710735
0.448737 0.879438 0.705394
0.444663 0.885603 0.697215
0.483543 0.894392 0.705974
0.552163 0.903487 0.720989
0.627192 0.910933 0.724056
0.735805 0.918654 0.72636
0.823636 0.925093 0.744549
0.870375 0.934859 0.752865
0.942336 0.953353 0.761837
0.984512 0.965209 0.734722
0.998642 0.973373 0.708675
0.999039 0.972381 0.693019
0.602152 0.926574 0.801053
0.623972 0.932113 0.813016
0.632151 0.934035 0.816953
0.635111 0.934859 0.818631
0.632929 0.934234 0.817349
0.623713 0.932082 0.812894
0.622782 0.937591 0.808927
0.644541 0.943893 0.812726
0.695033 0.950866 0.825772
0.74815 0.956451 0.834928
0.810742 0.960388 0.836332
0.886992 0.962386 0.84033
0.916686 0.967849 0.853727
0.952163 0.974594 0.863279
0.983108 0.982391 0.86566
0.996063 0.985977 0.851575
0.996078 0.984405 0.838788
0.647074 0.937636 0.824628
0.647074 0.937636 0.824628
0.647074 0.937636 0.824628
0.647074 0.937636 0.824628
0.647074 0.937636 0.824628
0.647074 0.937636 0.824628
0.66183 0.94696 0.829862
0.698802 0.956954 0.842725
0.758267 0.965255 0.863005
0.811215 0.971313 0.878202
0.862898 0.976928 0.88922
0.917952 0.981186 0.895552
0.958114 0.986252 0.913939
0.970657 0.989593 0.920775
0.988327 0.992935 0.924056
0.99707 0.995392 0.921965
0.997925 0.994919 0.914031
0.647074 0.937636 0.824628
0.647074 0.937636 0.824628
0.647074 0.937636 0.824628
0.647074 0.937636 0.824628
0.647074 0.937636 0.824628
0.647074 0.937636 0.824628
0.662913 0.94757 0.830182
0.702022 0.957519 0.843854
0.760037 0.965469 0.863584
0.811383 0.971313 0.878202
0.861936 0.976837 0.889128
0.913634 0.980987 0.895293
0.955795 0.985687 0.911788
0.970703 0.990448 0.925582
0.988418 0.994568 0.936782
0.997009 0.997192 0.940917
0.998993 0.998032 0.941909
0 0 0
0 0 0
0 0 0
0.00788891 0 0
0.0643626 0.000106813 0
0.127398 0.0135195 0
0.186725 0 0.00781262
0.258885 0 0.00662242
0.340291 0 0
0.424536 0 0
0.527855 0 0
0.630426 0 0
0.720653 0 0
0.790463 0 0
0.838575 0 0
0.874952 0 0
0.884962 0 0
0 0 0
0 0 0
0 0 0
0.00675975 0 0
0.0672007 0.000335698 0
0.134493 0.014374 0.000198367
0.19765 0 0.00852979
0.276646 0 0.00517281
0.362631 0 0
0.452857 0 0
0.56051 0 0
0.660822 0 0
0.74583 0 0
0.809171 0 0
0.853864 0 0
0.884962 0 0
0.884962 0 0
0 0.00115969 0
0 0.00309758 0
0 0.0112459 0
0.0258183 0.0127108 0
0.0822309 0.0126192 0
0.139467 0.0149386 0.00170901
0.204044 0 0.00910964
0.287678 0 0.00407416
0.374762 0 0
0.468727 0 0
0.576761 0 0
0.675532 0 0
0.757321 0 0
0.817411 0 0
0.860471 0 0
0.884962 0 0
0.884962 0 0
0 0.0394598 0.0207218
0.000839246 0.046067 0.0256046
0.00970474 0.0569162 0.03299
0.0540017 0.0758984 0.0425727
0.117815 0.0849928 0.0448768
0.17351 0.082002 0.0483711
0.243473 0.0426947 0.0426947
0.323247 0 0.0140841
0.407065 0 0
0.498054 0 0
0.60029 0 0
0.692317 0 0
0.763897 0 0
0.822477 0 0
0.865583 0 0
0.884962 0 0
0.884962 0 0
0.0116426 0.118013 0.0860609
0.0121309 0.128252 0.0963607
0.0165103 0.134768 0.1028
0.066804 0.143282 0.10898
0.137957 0.150805 0.10399
0.192157 0.161517 0.0942702
0.264866 0.152483 0.0652934
0.348653 0.130541 0.00703441
0.467201 0.0815442 0
0.607843 0.00227359 0
0.736004 0 0
0.817243 0.00213626 0
0.823484 0.074815 0.00367742
0.840467 0.116152 0.00975052
0.862455 0.141909 0.0131838
0.872755 0.151965 0.0146487
0.871916 0.150881 0.0144808
0 0.192615 0.151919
0 0.206912 0.163287
0 0.217823 0.172183
0.00553903 0.219089 0.169329
0.112932 0.214435 0.158968
0.191211 0.223575 0.151293
0.279561 0.234516 0.115328
0.393896 0.232609 0.00578317
0.50544 0.226215 0.00643931
0.622782 0.215671 0.0141299
0.73756 0.202991 0.0167239
0.825025 0.202441 0.018265
0.881239 0.215198 0.0217594
0.913893 0.234104 0.0256962
0.931609 0.252018 0.0288701
0.93312 0.252293 0.0290379
0.932052 0.249882 0.0287327
0 0.270756 0.204181
0 0.283574 0.210163
0 0.292714 0.214069
0 0.30399 0.216541
0 0.303243 0.205661
0.157992 0.298497 0.174029
0.24712 0.313695 0.185
0.371725 0.334447 0.151629
0.543191 0.340917 0.018265
0.68127 0.335195 0.0210422
0.789258 0.320043 0.0243381
0.865202 0.314244 0.0277409
0.918074 0.321706 0.0325933
0.952544 0.33521 0.0369116
0.967468 0.348394 0.0396429
0.966232 0.34255 0.0390631
0.965194 0.336538 0.0387274
0 0.346227 0.23592
0 0.359457 0.24239
0 0.36965 0.24686
0 0.379278 0.249744
0 0.392935 0.248539
0.102358 0.374655 0.228946
0.250507 0.385046 0.184848
0.315312 0.414405 0.223545
0.443015 0.433356 0.21207
0.653147 0.460456 0.16434
0.813901 0.451286 0.0298161
0.898894 0.441688 0.0344854
0.949279 0.436805 0.0401617
0.979599 0.44358 0.0456397
0.987579 0.450599 0.0478828
0.986358 0.439918 0.0472877
0.985275 0.432349 0.0466163
0 0.418387 0.26537
0 0.431418 0.269215
0 0.441733 0.271015
0 0.451453 0.271443
0 0.465202 0.265507
0.0643473 0.449821 0.245548
0.171954 0.473365 0.244694
0.336461 0.490349 0.243427
0.398596 0.524163 0.268101
0.552056 0.547936 0.273442
0.789929 0.592126 0.236713
0.917845 0.583246 0.183032
0.967681 0.562783 0.0769665
0.989212 0.550835 0.0512245
0.996094 0.549676 0.0536202
0.995193 0.533852 0.0526284
0.994446 0.523232 0.0520638
0 0.494331 0.279622
0 0.510735 0.283238
0 0.523903 0.286702
0 0.53254 0.289403
0 0.541588 0.281498
0.038056 0.530449 0.265705
0.152819 0.556191 0.290517
0.290639 0.572106 0.250858
0.402228 0.598337 0.30338
0.515892 0.635691 0.331029
0.682429 0.659571 0.334432
0.900282 0.718273 0.312245
0.983825 0.713512 0.28864
0.998932 0.695613 0.248966
1 0.681025 0.218265
0.999863 0.659754 0.18294
0.999619 0.645289 0.156695
0 0.572351 0.304387
0 0.577401 0.306157
0 0.58497 0.312688
0.000579843 0.590799 0.318181
0.0158541 0.597604 0.31783
0.0502174 0.607492 0.31281
0.14403 0.629267 0.337255
0.236423 0.651102 0.339254
0.392752 0.664424 0.324163
0.487282 0.689632 0.367391
0.626459 0.726711 0.402502
0.799222 0.769329 0.406744
0.955596 0.817456 0.384726
0.999466 0.826764 0.376852
1 0.819593 0.366613
1 0.805859 0.353567
1 0.794614 0.343023
0.0999008 0.662654 0.391516
0.123354 0.680827 0.412161
0.139803 0.693462 0.427314
0.14902 0.700526 0.43592
0.150515 0.701717 0.437339
0.153216 0.710246 0.429923
0.195026 0.723079 0.43447
0.271748 0.742092 0.454185
0.372229 0.754238 0.437369
0.532021 0.770916 0.453391
0.623774 0.795453 0.483299
0.770565 0.837598 0.518715
0.901884 0.873152 0.508003
0.991882 0.905638 0.476432
1 0.910185 0.468238
1 0.900633 0.454093
1 0.891508 0.441794
0.253697 0.779141 0.540139
0.272862 0.79173 0.558968
0.2851 0.799176 0.570459
0.291279 0.802991 0.576211
0.29218 0.803555 0.57705
0.28925 0.808377 0.5738
0.295628 0.815732 0.565209
0.358495 0.827863 0.583078
0.438224 0.837491 0.587442
0.552941 0.847288 0.578897
0.691875 0.862928 0.605325
0.759777 0.880049 0.62002
0.879789 0.910872 0.645869
0.957946 0.929168 0.61294
0.999329 0.953079 0.573114
1 0.955734 0.564431
1 0.952346 0.553872
0.411704 0.862989 0.678157
0.44033 0.874586 0.69926
0.455039 0.880461 0.710109
0.461662 0.883009 0.714519
0.461463 0.882918 0.714366
0.453056 0.881651 0.708659
0.450858 0.887892 0.701106
0.491936 0.896559 0.710903
0.55964 0.905547 0.7252
0.633921 0.9131 0.728496
0.741314 0.920424 0.731167
0.826947 0.926543 0.748379
0.873014 0.936187 0.756909
0.943557 0.954437 0.766018
0.984573 0.965728 0.738231
0.99852 0.973602 0.712474
0.998932 0.972732 0.69752
0.608011 0.928008 0.804349
0.628763 0.933227 0.815229
0.636851 0.935271 0.819516
0.639124 0.935836 0.820691
0.635599 0.934966 0.818875
0.626276 0.932631 0.814145
0.626215 0.93872 0.810529
0.649897 0.945022 0.815152
0.700923 0.952224 0.828672
0.753475 0.957336 0.837293
0.815244 0.961395 0.838621
0.889662 0.963317 0.842878
0.91899 0.968887 0.856687
0.95317 0.975113 0.865125
0.98352 0.982757 0.867231
0.996094 0.986236 0.853376
0.996078 0.984649 0.840757
0.647074 0.937636 0.824628
0.647074 0.937636 0.824628
0.647074 0.937636 0.824628
0.647074 0.937636 0.824628
0.647074 0.937636 0.824628
0.647074 0.937636 0.824628
0.662821 0.947524 0.830167
0.702525 0.95761 0.844068
0.76173 0.965667 0.86421
0.813519 0.971572 0.878752
0.864424 0.977066 0.889448
0.91902 0.981216 0.895537
0.958236 0.986297 0.914107
0.970947 0.989731 0.921279
0.988434 0.993011 0.924605
0.997024 0.995377 0.922118
0.99794 0.99498 0.914458
0.647074 0.937636 0.824628
0.647074 0.937636 0.824628
0.647074 0.937636 0.824628
0.647074 0.937636 0.824628
0.647074 0.937636 0.824628
0.647181 0.937682 0.824674
0.663859 0.948272 0.830564
0.706218 0.958175 0.845396
0.763684 0.965881 0.864851
0.814054 0.971649 0.87892
0.8636 0.976989 0.889342
0.914855 0.981033 0.895323
0.955901 0.985718 0.911879
0.970703 0.990448 0.925582
0.988342 0.994553 0.936721
0.996933 0.997162 0.940871
0.998993 0.998032 0.941909
0 0 0
0 0 0
0 0 0
0.00764477 0 0
0.063035 0.000595102 0
0.124758 0.0130922 0
0.185229 0 0.00779736
0.25655 0 0.00683604
0.338445 0 0
0.423102 0 0
0.526375 0 0
0.629908 0 0
0.720653 0 0
0.790173 0 0
0.838392 0 0
0.874601 0 0
0.884962 0 0
0 0 0
0 0 0
0 0 0
0.00741588 0 0
0.067689 0.00112917 0
0.133532 0.0142061 0
0.196582 0 0.00849927
0.275486 0 0.00526436
0.361654 0 0
0.451759 0 0
0.559869 0 0
0.66041 0 0
0.74583 0 0
0.808972 0 0
0.853544 0 0
0.884962 0 0
0.884962 0 0
0 0.00708019 0.00148013
0 0.00910964 0.00318914
0 0.0163272 0.00732433
0.0286564 0.0174868 0.00653086
0.0849012 0.0165103 0.00318914
0.139574 0.0160067 0.00543221
0.204211 0 0.00910964
0.288304 0 0.00399786
0.376349 0 0
0.470329 0 0
0.578485 0 0
0.678004 0 0
0.759075 0 0
0.819043 0 0
0.861753 0 0
0.884962 0 0
0.884962 0 0
0.00109865 0.0430304 0.0260014
0.00257877 0.0514687 0.0329137
0.0173342 0.0635996 0.0419318
0.065568 0.0819562 0.0554513
0.121172 0.0895857 0.0569772
0.173724 0.0858167 0.0565194
0.243229 0.0495308 0.0461128
0.324681 0 0.0167697
0.407691 0 0
0.500999 0 0
0.604685 0 0
0.696269 0 0
0.769619 0 0
0.822385 0 0
0.865644 0 0
0.884962 0 0
0.884962 0 0
0.0146334 0.120485 0.0896773
0.0218051 0.12961 0.10013
0.0378729 0.135927 0.107179
0.0821851 0.146426 0.115846
0.142 0.155596 0.112734
0.195346 0.164126 0.102281
0.267948 0.155184 0.0719921
0.350713 0.135378 0.00578317
0.465873 0.0916304 0
0.607309 0.0180209 0
0.73637 0 0
0.814893 0.0107271 0
0.818097 0.0906844 0.00572213
0.844999 0.124163 0.0107118
0.86714 0.148867 0.0140536
0.87744 0.158465 0.0157015
0.877195 0.158083 0.0157321
0 0.194873 0.153506
0 0.209369 0.165591
0 0.218814 0.174273
0.0304112 0.216541 0.1691
0.12256 0.217929 0.162829
0.195377 0.22797 0.15613
0.283452 0.238056 0.119951
0.398749 0.236515 0.00708019
0.510704 0.23032 0.00689708
0.629664 0.22089 0.014725
0.74345 0.207996 0.0174105
0.829038 0.207309 0.0189517
0.884245 0.220249 0.0224765
0.915969 0.238193 0.026154
0.933608 0.256291 0.0293278
0.934783 0.256413 0.0293584
0.933547 0.253315 0.02916
0 0.273121 0.205509
0 0.285817 0.21117
0 0.294957 0.214939
0 0.307454 0.218982
0.0115511 0.301427 0.203998
0.163455 0.30222 0.175433
0.250111 0.317617 0.187366
0.374334 0.33817 0.154131
0.548699 0.345586 0.021088
0.688182 0.340139 0.0216831
0.794064 0.324651 0.0243992
0.868818 0.319265 0.0281987
0.919524 0.3252 0.0326848
0.953918 0.338537 0.0372778
0.967987 0.351446 0.039765
0.966812 0.34464 0.0394446
0.965408 0.338247 0.0386969
0 0.348791 0.237324
0 0.36228 0.243763
0 0.371832 0.247776
0 0.382315 0.251209
0 0.394766 0.249622
0.111391 0.377096 0.230381
0.251545 0.388434 0.186328
0.317327 0.418647 0.225162
0.444068 0.436118 0.214099
0.655985 0.464805 0.167407
0.81677 0.455253 0.0298924
0.900938 0.445167 0.0348058
0.950393 0.439689 0.0403906
0.979934 0.445701 0.0457313
0.987808 0.45243 0.0479896
0.986587 0.44181 0.0473945
0.985443 0.433555 0.0467079
0 0.421118 0.266285
0 0.43389 0.269657
0 0.444175 0.271321
0 0.454688 0.272465
0 0.467689 0.266331
0.0715343 0.452979 0.247044
0.174304 0.475807 0.24416
0.337453 0.49305 0.244099
0.399878 0.526513 0.269108
0.551934 0.549371 0.274876
0.79118 0.594491 0.238132
0.919676 0.586725 0.187716
0.9682 0.564553 0.0802014
0.989456 0.55256 0.0513313
0.996124 0.551415 0.0534981
0.995346 0.535882 0.0528267
0.994629 0.525048 0.0523079
0 0.49749 0.280324
0 0.514382 0.28426
0 0.526711 0.287449
0 0.534539 0.289586
0 0.542733 0.28101
0.0468147 0.532586 0.267964
0.155123 0.55816 0.291081
0.290883 0.573938 0.252033
0.402609 0.599466 0.303838
0.51574 0.636744 0.331456
0.68368 0.661601 0.336217
0.900496 0.719844 0.31371
0.9841 0.715343 0.290059
0.999023 0.697871 0.251743
1 0.682704 0.221195
0.999878 0.661646 0.185809
0.99968 0.647898 0.161807
0 0.57319 0.30454
0 0.578912 0.307683
0 0.586343 0.313924
0.00350958 0.591974 0.319081
0.0173648 0.598398 0.318029
0.053727 0.608988 0.314214
0.147234 0.631006 0.338689
0.237369 0.651881 0.339696
0.391516 0.665339 0.324636
0.487877 0.690852 0.368566
0.626612 0.727489 0.40325
0.799924 0.771359 0.408865
0.955352 0.818875 0.386282
0.999435 0.828107 0.377813
1 0.821057 0.368002
1 0.807294 0.354742
1 0.795865 0.343999
0.102846 0.665064 0.39379
0.126986 0.683818 0.41561
0.142367 0.695537 0.42974
0.149889 0.701198 0.436744
0.151156 0.702388 0.437797
0.15465 0.711498 0.430503
0.19791 0.724285 0.43592
0.274144 0.743221 0.455268
0.374136 0.755795 0.439673
0.532021 0.771954 0.454719
0.62504 0.796597 0.484977
0.771069 0.838483 0.520241
0.900862 0.873106 0.508888
0.991531 0.905867 0.477501
1 0.910948 0.46949
1 0.901457 0.455299
1 0.892287 0.442954
0.256474 0.780957 0.542901
0.275715 0.793332 0.56173
0.28632 0.799924 0.571603
0.29218 0.803555 0.577066
0.292332 0.803647 0.577203
0.288716 0.808606 0.573114
0.296742 0.815991 0.565164
0.360708 0.828122 0.583368
0.439628 0.837674 0.587442
0.553826 0.847929 0.580209
0.6925 0.863767 0.607004
0.759884 0.88043 0.621103
0.879499 0.91104 0.646723
0.957321 0.929244 0.61445
0.999176 0.952804 0.574014
1 0.955947 0.565164
1 0.952728 0.555001
0.414145 0.864134 0.680186
0.441993 0.875349 0.700633
0.456886 0.881224 0.711498
0.462028 0.883192 0.714855
0.460365 0.882536 0.713649
0.452735 0.881926 0.708141
0.449821 0.887694 0.699855
0.492317 0.896269 0.71014
0.561028 0.905531 0.725017
0.634485 0.912978 0.727977
0.740932 0.92047 0.731304
0.827298 0.926833 0.749233
0.872847 0.936355 0.757534
0.943175 0.954452 0.766796
0.984253 0.965698 0.73962
0.998474 0.973724 0.713771
0.998917 0.972763 0.6981
0.6094 0.928389 0.804944
0.629435 0.933379 0.815564
0.63621 0.935134 0.819196
0.637446 0.935439 0.819821
0.634028 0.934493 0.817914
0.624598 0.932525 0.813123
0.624094 0.938415 0.809094
0.650874 0.944991 0.814984
0.701701 0.952132 0.82829
0.754177 0.957275 0.836927
0.816114 0.961456 0.838666
0.889662 0.963409 0.843107
0.918639 0.968765 0.856413
0.952865 0.975021 0.865034
0.983307 0.982727 0.867384
0.996063 0.986175 0.853101
0.996078 0.984634 0.840635
0.647074 0.937636 0.824628
0.647074 0.937636 0.824628
0.647074 0.937636 0.824628
0.647074 0.937636 0.824628
0.647074 0.937636 0.824628
0.647257 0.937713 0.82472
0.663752 0.948165 0.830518
0.705913 0.958129 0.845273
0.764446 0.965972 0.86508
0.815656 0.971832 0.879194
0.865736 0.977218 0.889677
0.919249 0.981231 0.895582
0.95816 0.986267 0.913985
0.970581 0.989593 0.920806
0.988022 0.992844 0.923812
0.996841 0.995254 0.921599
0.997909 0.994873 0.913603
0.647074 0.937636 0.824628
0.647074 0.937636 0.824628
0.647074 0.937636 0.824628
0.647074 0.937636 0.824628
0.647074 0.937636 0.824628
0.648325 0.938415 0.825223
0.665019 0.948928 0.830945
0.709728 0.958602 0.846616
0.766873 0.966369 0.86598
0.816541 0.971923 0.879332
0.865263 0.977172 0.889632
0.91545 0.981064 0.895354
0.955856 0.985687 0.911833
0.970504 0.990372 0.925429
0.988052 0.994476 0.936599
0.996811 0.997116 0.940841
0.998993 0.998032 0.941909
0 0 0.00807202
0 0 0.00709544
0 0 0.00801099
0.0127108 0 0.00677501
0.062974 0.010605 0.00650034
0.124712 0.0187839 0.0165713
0.186679 0.00891127 0.027985
0.255009 0 0.0179751
0.334569 0 0
0.419379 0 0
0.522911 0 0
0.626886 0 0
0.717723 0 0
0.788296 0 0
0.836759 0 0
0.873503 0 0
0.884962 0 0
0 0 0.00535592
0 0 0.004654
0 0 0.00643931
0.0134279 0.000213626 0.00724804
0.0688487 0.013489 0.00950637
0.134844 0.0213779 0.0232242
0.200519 0.00657664 0.0366369
0.276234 0 0.027863
0.362539 0 0.016968
0.454246 0 0
0.559457 0 0
0.657618 0 0
0.743404 0 0
0.807202 0 0
0.852232 0 0
0.884962 0 0
