src/assets/luts/日系配方/NV卷.cube
LUT_3D_SIZE 5
0.0871138 0.0674144 0.0688182
0.194446 0.10695 0.0600137
0.457908 0.10277 0.0325933
0.623331 0.124025 0.0210422
0.665919 0.131075 0.0209049
0.0924697 0.129503 0.101137
0.194049 0.147951 0.101045
0.501823 0.124849 0.0300755
0.670878 0.153414 0.0188754
0.742702 0.205509 0.0175631
0.0676432 0.303014 0.0534066
0.0816358 0.339071 0.0385748
0.592218 0.489052 0.0855879
0.848325 0.501106 0.0187381
0.892989 0.544274 0.0322728
0.0589456 0.509544 0.00782788
0.0593423 0.51342 0.00660716
0.421576 0.61239 0.0957809
0.79144 0.745739 0.214115
0.853101 0.790341 0.304738
0.191455 0.708202 0.40473
0.334188 0.710369 0.281437
0.551492 0.718471 0.224628
0.807202 0.828122 0.397223
0.852125 0.841718 0.436484
0.128115 0.0967727 0.150729
0.191852 0.11249 0.140658
0.446769 0.0978103 0.0491188
0.615488 0.120302 0.022385
0.657465 0.125002 0.0652781
0.0868849 0.147005 0.16553
0.187701 0.160845 0.165576
0.499931 0.124498 0.0966201
0.659144 0.150973 0.100511
0.71107 0.174548 0.123781
0.0385443 0.331014 0.115267
0.0562295 0.357931 0.0977951
0.588205 0.491417 0.102495
0.838849 0.487419 0.0178988
0.879805 0.477409 0.00607309
0 0.510536 0.254856
0.0174868 0.506127 0.172503
0.419181 0.602365 0.0960555
0.769253 0.71075 0.168505
0.870604 0.7205 0.185229
0.224399 0.736782 0.499382
0.380621 0.771771 0.475807
0.466392 0.739559 0.337484
0.706004 0.799954 0.356909
0.855314 0.849226 0.514794
0.181918 0.152193 0.408499
0.196292 0.147387 0.385794
0.497047 0.138277 0.312764
0.692622 0.190127 0.312215
0.770489 0.242649 0.359854
0.15935 0.173388 0.418418
0.197955 0.196231 0.442435
0.566781 0.193362 0.382879
0.73312 0.248997 0.379843
0.789319 0.286793 0.405219
0.0118868 0.382284 0.493126
0.00770581 0.414023 0.518654
0.548699 0.553033 0.487449
0.793103 0.519997 0.420127
0.839689 0.478691 0.374456
0 0.536858 0.523461
0 0.538888 0.495949
0.342107 0.683085 0.42443
0.746883 0.742977 0.474174
0.864195 0.724361 0.437049
0.254078 0.758694 0.598444
0.37319 0.778988 0.548196
0.522622 0.809674 0.546288
0.722057 0.821225 0.56051
0.859297 0.865629 0.609155
0.2159 0.325978 0.636744
0.218585 0.309331 0.623835
0.570932 0.318822 0.5888
0.738003 0.347066 0.590555
0.80087 0.405844 0.618463
0.20087 0.323796 0.627192
0.217548 0.335317 0.629801
0.610376 0.363592 0.611246
0.760189 0.405035 0.627268
0.80499 0.434089 0.637095
0.0129244 0.43006 0.610056
0.066041 0.462913 0.640833
0.52575 0.576074 0.660822
0.771359 0.572412 0.641703
0.841428 0.538598 0.59469
0 0.572946 0.657496
0.0112306 0.576013 0.653712
0.390341 0.718685 0.652415
0.738338 0.766079 0.641443
0.85095 0.754818 0.601846
0.32401 0.790906 0.699413
0.393668 0.800824 0.648005
0.524605 0.831617 0.650843
0.7691 0.850401 0.667201
0.860822 0.87686 0.699397
0.249683 0.53695 0.742535
0.250111 0.536995 0.742504
0.574273 0.585718 0.736919
0.771008 0.603586 0.732952
0.827375 0.611109 0.744045
0.231586 0.536309 0.741634
0.247807 0.539727 0.741222
0.607217 0.579232 0.72958
0.776074 0.596933 0.730098
0.823346 0.595193 0.736461
0.143816 0.600778 0.743893
0.163577 0.598306 0.7449
0.471626 0.664759 0.760494
0.756252 0.654398 0.731838
0.828122 0.62298 0.729229
0.00199893 0.62501 0.735271
0.146944 0.659419 0.74081
0.412604 0.722515 0.737377
0.704097 0.768154 0.736385
0.845121 0.776074 0.727138
0.423377 0.810361 0.735119
0.521553 0.829267 0.738109
0.587015 0.842176 0.739895
0.758495 0.866285 0.731853
0.856733 0.882185 0.755871
