src/assets/luts/日系配方/NV卷.cube
LUT_3D_SIZE 9
0.0871138 0.0674144 0.0688182
0.111604 0.0740368 0.0691997
0.194446 0.10695 0.0600137
0.337087 0.104845 0.0386206
0.457908 0.10277 0.0325933
0.551202 0.111284 0.0263523
0.623331 0.124025 0.0210422
0.661021 0.130236 0.0185245
0.665919 0.131075 0.0209049
0.0862287 0.0753948 0.0742504
0.104158 0.0798505 0.0740826
0.197375 0.108263 0.059556
0.356481 0.104112 0.037995
0.476661 0.103273 0.0315557
0.569512 0.113909 0.0250095
0.633555 0.126024 0.0202945
0.66482 0.130892 0.0198062
0.665919 0.131075 0.0209049
0.0924697 0.129503 0.101137
0.0922713 0.138933 0.106142
0.194049 0.147951 0.101045
0.375265 0.130343 0.0368811
0.501823 0.124849 0.0300755
0.602564 0.136721 0.0229343
0.670878 0.153414 0.0188754
0.716487 0.173892 0.0170291
0.742702 0.205509 0.0175631
0.0855116 0.202792 0.1093
0.0802014 0.217639 0.10042
0.110842 0.224918 0.0860914
0.413321 0.292744 0.048188
0.613596 0.297368 0.0263371
0.71519 0.312169 0.0239109
0.78085 0.333394 0.0222782
0.819623 0.353094 0.0226902
0.84033 0.388113 0.0110018
0.0676432 0.303014 0.0534066
0.0635691 0.324208 0.0461128
0.0816358 0.339071 0.0385748
0.310582 0.411002 0.0767834
0.592218 0.489052 0.0855879
0.75819 0.493187 0.0309148
0.848325 0.501106 0.0187381
0.888121 0.514168 0.0190585
0.892989 0.544274 0.0322728
0.0551919 0.410956 0.0220951
0.0556497 0.422309 0.0188602
0.0582132 0.438331 0.014725
0.208103 0.464973 0.033341
0.47303 0.576288 0.111879
0.700389 0.617304 0.125872
0.839155 0.630137 0.10045
0.889906 0.646647 0.0940414
0.884337 0.671611 0.122408
0.0589456 0.509544 0.00782788
0.0590677 0.505241 0.00700389
0.0593423 0.51342 0.00660716
0.103777 0.527214 0.00958267
0.421576 0.61239 0.0957809
0.616419 0.697566 0.153109
0.79144 0.745739 0.214115
0.857786 0.769924 0.266178
0.853101 0.790341 0.304738
0.0148013 0.562051 0.136706
0.037171 0.567849 0.108797
0.135302 0.578088 0.0373388
0.234119 0.620768 0.0787823
0.429572 0.67715 0.154955
0.606439 0.757046 0.266972
0.777157 0.818586 0.372274
0.852125 0.841718 0.436484
0.852125 0.841718 0.436484
0.191455 0.708202 0.40473
0.284138 0.730709 0.383062
0.334188 0.710369 0.281437
0.451438 0.685969 0.179843
0.551492 0.718471 0.224628
0.667979 0.784802 0.302022
0.807202 0.828122 0.397223
0.852125 0.841718 0.436484
0.852125 0.841718 0.436484
0.0939956 0.0738079 0.0877852
0.114946 0.0773938 0.0842603
0.191699 0.106676 0.0647288
0.335073 0.105043 0.0387732
0.457008 0.102754 0.0326543
0.5505 0.111055 0.0263066
0.621607 0.123842 0.0213779
0.659937 0.130068 0.0186007
0.665919 0.131075 0.0209049
0.0878614 0.0802014 0.0853895
0.105821 0.0835889 0.08542
0.197742 0.109026 0.0655528
0.356817 0.104097 0.037995
0.477607 0.103487 0.0316014
0.569848 0.114046 0.0250248
0.632364 0.125811 0.0203861
0.664088 0.130755 0.018967
0.665644 0.130892 0.0218509
0.0920882 0.131762 0.102617
0.0919509 0.140658 0.107546
0.198322 0.150958 0.101259
0.38352 0.133257 0.0366979
0.510079 0.129641 0.0294194
0.608942 0.141024 0.0227665
0.669001 0.152941 0.0189059
0.706538 0.164157 0.0172274
0.731807 0.191608 0.0183871
0.0842451 0.206256 0.106935
0.0796521 0.219837 0.0986801
0.128237 0.228016 0.0814527
0.42118 0.302113 0.0483864
0.622705 0.306813 0.0234684
0.719982 0.320012 0.0254063
0.776944 0.328557 0.0223087
0.808255 0.330251 0.0246128
0.821912 0.356649 0.0223545
0.0670481 0.306783 0.0533608
0.0625162 0.32459 0.0481575
0.0906996 0.341176 0.0367742
0.317098 0.418372 0.0783093
0.59559 0.494163 0.086717
0.758328 0.494469 0.0315557
0.84332 0.492592 0.0162966
0.883879 0.491005 0.00852979
0.887617 0.509636 0.017319
0.0414893 0.411566 0.0559091
0.047364 0.417151 0.0395056
0.063447 0.432837 0.0157015
0.221988 0.469627 0.0371099
0.470497 0.575586 0.111467
0.695598 0.613184 0.123857
0.831724 0.615488 0.0926375
0.894743 0.620142 0.0751202
0.891844 0.637385 0.0865187
0.0301061 0.500862 0.0820172
0.0399176 0.491051 0.053315
0.0613718 0.498924 0.0112459
0.12549 0.520272 0.0122988
0.407736 0.602136 0.0904707
0.595651 0.681987 0.141741
0.775158 0.719188 0.178393
0.863767 0.736034 0.206165
0.860731 0.756909 0.241016
0 0.562707 0.25684
0.00714122 0.565011 0.22472
0.116747 0.580118 0.156191
0.22768 0.596796 0.0504616
0.383597 0.654292 0.115755
0.560388 0.722911 0.217243
0.730465 0.791287 0.304723
0.841154 0.826047 0.389807
0.851942 0.838865 0.428061
0.210742 0.72578 0.456321
0.312016 0.752529 0.450263
0.360204 0.754116 0.416648
0.39826 0.726253 0.309972
0.516152 0.705852 0.226307
0.607843 0.757549 0.267781
0.760174 0.813672 0.358862
0.850248 0.841276 0.436774
0.852613 0.844434 0.467109
0.128115 0.0967727 0.150729
0.129335 0.0955215 0.146578
0.191852 0.11249 0.140658
0.356909 0.0948501 0.0875868
0.446769 0.0978103 0.0491188
0.541924 0.107469 0.029099
0.615488 0.120302 0.022385
0.653468 0.125963 0.0372625
0.657465 0.125002 0.0652781
0.122927 0.0990158 0.144854
0.125933 0.100649 0.147143
0.203845 0.114641 0.146365
0.385412 0.0928511 0.097612
0.472786 0.0962692 0.0809186
0.558648 0.108675 0.075349
0.621805 0.119783 0.073167
0.654108 0.124376 0.0825971
0.667292 0.130877 0.111406
0.0868849 0.147005 0.16553
0.0873884 0.155108 0.179858
0.187701 0.160845 0.165576
0.394018 0.128588 0.111666
0.499931 0.124498 0.0966201
0.59649 0.139879 0.0995193
0.659144 0.150973 0.100511
0.688884 0.152956 0.0997177
0.71107 0.174548 0.123781
0.0718547 0.219486 0.138262
0.0626993 0.237064 0.14815
0.0748913 0.253635 0.139849
0.424582 0.317372 0.126955
0.607187 0.318746 0.13492
0.704311 0.332296 0.128389
0.76376 0.340307 0.11989
0.796475 0.326101 0.102419
0.799512 0.3337 0.107225
0.0385443 0.331014 0.115267
0.0304723 0.349828 0.131228
0.0562295 0.357931 0.0977951
0.320333 0.420233 0.100587
0.588205 0.491417 0.102495
0.753216 0.490257 0.0396277
0.838849 0.487419 0.0178988
0.88043 0.478996 0.00636301
0.879805 0.477409 0.00607309
0.00958267 0.435248 0.191623
0.01149 0.438437 0.174975
0.0299229 0.439017 0.109499
0.243107 0.473136 0.0517128
0.464515 0.57174 0.110704
0.691585 0.611337 0.123644
0.827649 0.611841 0.0906081
0.895552 0.608423 0.0661479
0.895201 0.60737 0.0652323
0 0.510536 0.254856
0.000411994 0.500328 0.23061
0.0174868 0.506127 0.172503
0.196963 0.529961 0.0619821
0.419181 0.602365 0.0960555
0.587808 0.677729 0.139406
0.769253 0.71075 0.168505
0.860975 0.714717 0.177951
0.870604 0.7205 0.185229
0 0.567498 0.369421
0 0.570626 0.340932
0.149523 0.623499 0.31722
0.218982 0.637827 0.217655
0.391104 0.652476 0.142397
0.542046 0.707744 0.192035
0.701854 0.772091 0.265553
0.825269 0.804959 0.337713
0.850111 0.81706 0.396048
0.224399 0.736782 0.499382
0.310918 0.758694 0.487327
0.380621 0.771771 0.475807
0.401831 0.764111 0.42977
0.466392 0.739559 0.337484
0.595346 0.742947 0.309682
0.706004 0.799954 0.356909
0.824277 0.836866 0.462959
0.855314 0.849226 0.514794
0.163104 0.121599 0.279881
0.161181 0.119951 0.270893
0.191867 0.120409 0.260258
0.342565 0.10959 0.197208
0.474052 0.104585 0.158251
0.576013 0.11696 0.153323
0.646876 0.136645 0.15874
0.691768 0.153536 0.166079
0.719005 0.170123 0.198535
0.160815 0.119539 0.269505
0.161807 0.120531 0.274174
0.207858 0.125338 0.276738
0.374044 0.111833 0.217075
0.504097 0.115007 0.193194
0.615641 0.135058 0.198016
0.679896 0.1561 0.206531
0.720668 0.175113 0.217136
0.74255 0.196872 0.259037
0.0972 0.155474 0.301213
0.0898756 0.162387 0.320256
0.187152 0.167636 0.325383
0.408118 0.15874 0.271107
0.547967 0.149538 0.226841
0.653941 0.170062 0.225757
0.709667 0.189395 0.234028
0.741009 0.20325 0.236378
0.755306 0.221225 0.258991
0.0522316 0.237568 0.34078
0.0438849 0.256641 0.366445
0.0400549 0.278752 0.387655
0.378531 0.365515 0.35079
0.607996 0.357046 0.30016
0.71957 0.351858 0.286015
0.769329 0.345678 0.267048
0.793118 0.33489 0.252689
0.793805 0.328878 0.248692
0.0212406 0.357534 0.359869
0.0177157 0.374197 0.382376
0.0173648 0.386923 0.372808
0.2121 0.487297 0.314824
0.557122 0.533684 0.310597
0.730892 0.509178 0.248295
0.802533 0.507073 0.230579
0.841886 0.500801 0.212131
0.838331 0.489494 0.211109
0.00350958 0.453544 0.394858
0.00215152 0.458015 0.390646
0 0.46247 0.337865
0.163851 0.519066 0.248569
0.476722 0.57792 0.245823
0.673365 0.619776 0.253422
0.808667 0.618448 0.20148
0.881666 0.616617 0.172381
0.884642 0.606439 0.164187
0 0.521569 0.423346
0 0.514458 0.398672
0 0.52488 0.348516
0.16144 0.583902 0.281209
0.408423 0.626398 0.22565
0.581781 0.683253 0.262043
0.751293 0.719631 0.312734
0.843397 0.721721 0.306218
0.861982 0.717479 0.297932
0 0.573953 0.464958
0 0.57937 0.447059
0.135073 0.633158 0.406104
0.252125 0.685176 0.377935
0.38085 0.702632 0.321202
0.572045 0.720012 0.326528
0.700954 0.778851 0.388479
0.820111 0.805982 0.44976
0.852033 0.808072 0.463905
0.233661 0.746029 0.54522
0.309529 0.763531 0.52192
0.377066 0.774792 0.510918
0.436057 0.784436 0.500313
0.480812 0.782834 0.464118
0.586023 0.775296 0.433005
0.701015 0.804959 0.470253
0.811124 0.84094 0.522103
0.858061 0.856031 0.560708
0.181918 0.152193 0.408499
0.180774 0.150103 0.40238
0.196292 0.147387 0.385794
0.367269 0.147539 0.355703
0.497047 0.138277 0.312764
0.599619 0.155032 0.303197
0.692622 0.190127 0.312215
0.748394 0.220218 0.330541
0.770489 0.242649 0.359854
0.181155 0.150805 0.404639
0.182254 0.15285 0.410559
0.216281 0.154009 0.405081
0.414542 0.155474 0.377295
0.537667 0.153216 0.348638
0.633921 0.17673 0.346548
0.712413 0.213565 0.356298
0.764385 0.245716 0.375402
0.778881 0.264698 0.405295
0.15935 0.173388 0.418418
0.153033 0.182589 0.431342
0.197955 0.196231 0.442435
0.431846 0.198947 0.409964
0.566781 0.193362 0.382879
0.661219 0.212909 0.373434
0.73312 0.248997 0.379843
0.779461 0.273457 0.391806
0.789319 0.286793 0.405219
0.0352789 0.25626 0.44445
0.0286259 0.276951 0.467048
0.0505837 0.295964 0.489433
0.372747 0.380026 0.492149
0.594324 0.401022 0.472877
0.701534 0.394614 0.442817
0.78436 0.389166 0.415412
0.819883 0.377722 0.398871
0.819654 0.366751 0.392203
0.0118868 0.382284 0.493126
0.00972 0.399573 0.508019
0.00770581 0.414023 0.518654
0.221881 0.515526 0.527947
0.548699 0.553033 0.487449
0.702708 0.540032 0.448035
0.793103 0.519997 0.420127
0.838682 0.493629 0.384436
0.839689 0.478691 0.374456
0.00387579 0.476356 0.519097
0.00384527 0.480568 0.521035
0.0037232 0.483528 0.512062
0.129259 0.535866 0.480079
0.415579 0.628885 0.439689
0.646433 0.658259 0.461616
0.784878 0.639338 0.411383
0.849928 0.628077 0.387793
0.854078 0.616068 0.380301
0 0.536858 0.523461
0 0.530175 0.511437
0 0.538888 0.495949
0.141833 0.603189 0.438941
0.342107 0.683085 0.42443
0.595972 0.705028 0.446403
0.746883 0.742977 0.474174
0.844892 0.728344 0.450263
0.864195 0.724361 0.437049
0 0.58529 0.544656
0.00895705 0.59173 0.534997
0.12636 0.63859 0.490105
0.249165 0.701808 0.460807
0.38764 0.742611 0.461906
0.547066 0.762951 0.463645
0.709987 0.794553 0.52134
0.819226 0.820584 0.54258
0.855238 0.814664 0.543587
0.254078 0.758694 0.598444
0.315404 0.770886 0.564218
0.37319 0.778988 0.548196
0.430518 0.79237 0.543282
0.522622 0.809674 0.546288
0.605005 0.812696 0.534966
0.722057 0.821225 0.56051
0.804028 0.853544 0.589044
0.859297 0.865629 0.609155
0.204639 0.215381 0.530083
0.203326 0.210712 0.524437
0.212039 0.202853 0.509987
0.394614 0.204547 0.491554
0.543786 0.198795 0.459663
0.631601 0.210071 0.445075
0.704036 0.240467 0.443427
0.763943 0.284611 0.465064
0.787976 0.312703 0.495277
0.2047 0.215824 0.530632
0.206119 0.22179 0.538094
0.234394 0.221363 0.531807
0.448585 0.226764 0.514305
0.580377 0.223682 0.490318
0.663417 0.240894 0.483452
0.724926 0.269535 0.482124
0.776715 0.309346 0.500908
0.790753 0.333974 0.529412
0.18587 0.226032 0.521798
0.182483 0.239017 0.53225
0.212696 0.248707 0.536263
0.453956 0.252628 0.518639
0.590478 0.255009 0.50193
0.679164 0.276188 0.501579
0.740734 0.300755 0.499641
0.788205 0.331914 0.509636
0.796628 0.344625 0.521324
0.0410925 0.28925 0.522637
0.0350195 0.310018 0.54313
0.0892653 0.334737 0.560815
0.382834 0.408164 0.576928
0.584146 0.438407 0.553414
0.701411 0.427024 0.547982
0.777447 0.415396 0.522057
0.822477 0.418128 0.50724
0.825513 0.409812 0.503273
0.00721752 0.397772 0.548898
0.00529488 0.412436 0.562448
0.0142519 0.428626 0.57995
0.24184 0.520531 0.600244
0.528588 0.560189 0.583612
0.686381 0.562921 0.565637
0.769085 0.550744 0.532845
0.842512 0.528511 0.50135
0.848753 0.514107 0.492042
0.000701915 0.491981 0.585412
0.000915541 0.493751 0.587777
0 0.502129 0.59379
0.143526 0.562036 0.597467
0.426093 0.650172 0.581506
0.649058 0.668223 0.567254
0.777096 0.657801 0.532509
0.838956 0.643549 0.519905
0.852918 0.629618 0.506874
0 0.551537 0.594965
0 0.544396 0.586709
0 0.556435 0.589242
0.128389 0.612009 0.572564
0.330159 0.708904 0.548318
0.604135 0.732967 0.532387
0.735515 0.760601 0.569512
0.826108 0.748394 0.553002
0.847196 0.742336 0.534142
0 0.60293 0.612604
0.0166171 0.609537 0.606134
0.125689 0.64976 0.578622
0.254292 0.71632 0.540322
0.381109 0.761975 0.541817
0.566369 0.790875 0.547784
0.731426 0.805829 0.583078
0.813931 0.833387 0.607019
0.850233 0.828153 0.605356
0.27483 0.773632 0.654505
0.33434 0.784421 0.617594
0.375631 0.787533 0.593469
0.429633 0.801495 0.589487
0.521416 0.82211 0.598001
0.643458 0.834714 0.603403
0.750378 0.837613 0.619486
0.808438 0.860548 0.641718
0.859449 0.873259 0.657526
0.2159 0.325978 0.636744
0.215122 0.321416 0.633066
0.218585 0.309331 0.623835
0.396597 0.312322 0.604913
0.570932 0.318822 0.5888
0.668132 0.325063 0.585992
0.738003 0.347066 0.590555
0.781888 0.376318 0.597131
0.80087 0.405844 0.618463
0.216754 0.334462 0.642466
0.217151 0.341451 0.647456
0.233417 0.336706 0.641154
0.452567 0.345449 0.622354
0.6038 0.352132 0.611322
0.692363 0.359289 0.611734
0.754543 0.382101 0.619608
0.794751 0.408362 0.627237
0.806653 0.441123 0.652583
0.20087 0.323796 0.627192
0.198505 0.332921 0.632334
0.217548 0.335317 0.629801
0.457267 0.348913 0.617166
0.610376 0.363592 0.611246
0.69868 0.381353 0.618021
0.760189 0.405035 0.627268
0.798184 0.41912 0.626123
0.80499 0.434089 0.637095
0.0992142 0.358557 0.604501
0.106737 0.379019 0.619272
0.13254 0.406088 0.635401
0.380545 0.46302 0.654994
0.595376 0.47837 0.62887
0.689494 0.485023 0.6318
0.764797 0.475563 0.634501
0.813275 0.459113 0.61471
0.817258 0.452689 0.609995
0.0129244 0.43006 0.610056
0.0188144 0.439261 0.621622
0.066041 0.462913 0.640833
0.258045 0.546227 0.673289
0.52575 0.576074 0.660822
0.668879 0.592309 0.647898
0.771359 0.572412 0.641703
0.834638 0.548302 0.604242
0.841428 0.538598 0.59469
0 0.514763 0.643671
0 0.507668 0.638712
0.0206302 0.518502 0.64686
0.181292 0.589548 0.666224
0.434256 0.647669 0.666941
0.621012 0.675181 0.658686
0.759503 0.679988 0.644114
0.820752 0.67129 0.612055
0.836149 0.658885 0.60058
0 0.572946 0.657496
0 0.56202 0.647395
0.0112306 0.576013 0.653712
0.171588 0.65127 0.659266
0.390341 0.718685 0.652415
0.586572 0.753292 0.630594
0.738338 0.766079 0.641443
0.822675 0.760143 0.621134
0.85095 0.754818 0.601846
0.000335698 0.628702 0.672175
0.0339361 0.631708 0.661158
0.134127 0.669764 0.648936
0.258778 0.729305 0.627207
0.397116 0.774777 0.621805
0.564294 0.807965 0.628565
0.749569 0.816541 0.640497
0.814527 0.837476 0.663417
0.852903 0.834653 0.66389
0.32401 0.790906 0.699413
0.361501 0.798718 0.673991
0.393668 0.800824 0.648005
0.439902 0.811429 0.641611
0.524605 0.831617 0.650843
0.637369 0.846784 0.656672
0.7691 0.850401 0.667201
0.81886 0.864454 0.685496
0.860822 0.87686 0.699397
0.231861 0.474067 0.715724
0.231861 0.474266 0.715785
0.229908 0.461616 0.709316
0.383764 0.470161 0.697246
0.582788 0.477256 0.684169
0.686412 0.49308 0.685344
0.756237 0.509209 0.695293
0.802014 0.531411 0.709728
0.819318 0.55314 0.721294
0.239399 0.498894 0.726055
0.241489 0.507073 0.729091
0.248783 0.49868 0.724422
0.431113 0.5122 0.713161
0.612222 0.512581 0.697673
0.705455 0.525826 0.69868
0.769863 0.545174 0.711452
0.81619 0.576059 0.730282
0.82594 0.600946 0.74078
0.216297 0.47718 0.71545
0.21593 0.47953 0.715938
0.226658 0.472892 0.71194
0.431571 0.494331 0.703197
0.615732 0.504784 0.692271
0.706889 0.52845 0.698085
0.769924 0.55079 0.711772
0.815488 0.573281 0.727337
0.8224 0.588602 0.734005
0.157473 0.48777 0.697505
0.163729 0.498787 0.705791
0.17203 0.50692 0.711284
0.34876 0.551049 0.71664
0.587747 0.555673 0.707805
0.69929 0.571099 0.703761
0.766735 0.578058 0.712581
0.814969 0.577005 0.721004
0.820554 0.571572 0.719844
0.0928817 0.511757 0.688884
0.109972 0.521874 0.697459
0.143236 0.556893 0.71931
0.276905 0.612009 0.737163
0.495247 0.63444 0.740185
0.670573 0.635386 0.720668
0.757458 0.635493 0.716457
0.817975 0.612116 0.716213
0.828122 0.595041 0.710384
0.0280766 0.566705 0.711864
0.0340429 0.550286 0.701045
0.0770123 0.562478 0.707515
0.21677 0.635798 0.733043
0.421317 0.682872 0.745449
0.607721 0.698207 0.733333
0.741527 0.70457 0.717418
0.825437 0.686778 0.70927
0.844648 0.670756 0.695903
0 0.60412 0.713878
0 0.589868 0.703532
0.0860761 0.606226 0.695583
0.239155 0.678981 0.709194
0.426856 0.720119 0.714824
0.582666 0.747707 0.712627
0.71017 0.768765 0.705379
0.80943 0.776272 0.701762
0.83949 0.771328 0.683543
0.0749676 0.673014 0.717311
0.144747 0.694499 0.707362
0.223224 0.72166 0.69839
0.326497 0.751476 0.694041
0.454353 0.784787 0.700298
0.587106 0.814984 0.702785
0.726879 0.831342 0.691386
0.81268 0.841856 0.711528
0.849897 0.842863 0.709316
0.401785 0.806317 0.731441
0.437156 0.81442 0.717723
0.438636 0.815518 0.701625
0.465965 0.820371 0.695628
0.539834 0.836805 0.703304
0.637995 0.853681 0.708141
0.755032 0.861646 0.702953
0.830564 0.868574 0.723461
0.860105 0.880095 0.731228
0.249683 0.53695 0.742535
0.249683 0.53695 0.742535
0.250111 0.536995 0.742504
0.388113 0.567803 0.740398
0.574273 0.585718 0.736919
0.702708 0.593561 0.726925
0.771008 0.603586 0.732952
0.814694 0.608072 0.740887
0.827375 0.611109 0.744045
0.249683 0.53695 0.742535
0.249683 0.53695 0.742535
0.263569 0.539712 0.741848
0.439933 0.575418 0.740642
0.610971 0.587671 0.734188
0.720577 0.598016 0.728557
0.782574 0.607553 0.735897
0.822904 0.610529 0.74284
0.827207 0.610651 0.743709
0.231586 0.536309 0.741634
0.230365 0.536965 0.741772
0.247807 0.539727 0.741222
0.428046 0.571252 0.738109
0.607217 0.579232 0.72958
0.71397 0.588174 0.723476
0.776074 0.596933 0.730098
0.81883 0.596338 0.736248
0.823346 0.595193 0.736461
0.188479 0.574838 0.74612
0.189548 0.572534 0.746288
0.19971 0.572747 0.748058
0.349157 0.605814 0.747448
0.557534 0.610971 0.742565
0.69546 0.607904 0.725872
0.765362 0.608942 0.727184
0.814054 0.597528 0.730755
0.823301 0.595071 0.731472
0.143816 0.600778 0.743893
0.151171 0.598474 0.74403
0.163577 0.598306 0.7449
0.276463 0.636133 0.754086
0.471626 0.664759 0.760494
0.654963 0.657603 0.744442
0.756252 0.654398 0.731838
0.813489 0.631846 0.730312
0.828122 0.62298 0.729229
0.074403 0.614542 0.744549
0.0951553 0.613321 0.744595
0.118029 0.613565 0.744442
0.208972 0.649226 0.751461
0.411551 0.694209 0.759503
0.58819 0.710735 0.756176
0.737118 0.710597 0.736461
0.809644 0.699046 0.727459
0.837995 0.686946 0.724437
0.00199893 0.62501 0.735271
0.0294041 0.625574 0.738399
0.146944 0.659419 0.74081
0.257832 0.694926 0.739178
0.412604 0.722515 0.737377
0.56939 0.746883 0.733318
0.704097 0.768154 0.736385
0.801694 0.777676 0.730022
0.845121 0.776074 0.727138
0.140215 0.716091 0.736477
0.244511 0.751614 0.736156
0.321874 0.754681 0.730129
0.387732 0.764675 0.730449
0.492119 0.787167 0.733837
0.60296 0.811048 0.732769
0.713436 0.829892 0.721675
0.808804 0.839414 0.732448
0.844572 0.849607 0.743954
0.423377 0.810361 0.735119
0.491768 0.823392 0.737133
0.521553 0.829267 0.738109
0.532326 0.831418 0.736767
0.587015 0.842176 0.739895
0.669001 0.856474 0.738567
0.758495 0.866285 0.731853
0.832883 0.872145 0.743755
0.856733 0.882185 0.755871
