src/assets/luts/日系配方/NV卷.cube
LUT_3D_SIZE 17
0.0871138 0.0674144 0.0688182
0.0906691 0.0681163 0.068452
0.111604 0.0740368 0.0691997
0.153323 0.0920577 0.0732586
0.194446 0.10695 0.0600137
0.263722 0.108812 0.0405432
0.337087 0.104845 0.0386206
0.404883 0.102342 0.0356146
0.457908 0.10277 0.0325933
0.504051 0.105638 0.0296483
0.551202 0.111284 0.0263523
0.591348 0.117937 0.0235294
0.623331 0.124025 0.0210422
0.647211 0.127886 0.01944
0.661021 0.130236 0.0185245
0.665919 0.131075 0.0209049
0.665919 0.131075 0.0209049
0.0866102 0.0684367 0.069398
0.0887312 0.0687724 0.0692912
0.108034 0.0730144 0.0690166
0.151461 0.0912184 0.0729076
0.195361 0.107118 0.0597543
0.270146 0.108293 0.0397803
0.347753 0.104448 0.0383001
0.416403 0.102129 0.0350195
0.468498 0.102892 0.0319829
0.516396 0.107012 0.028748
0.562524 0.112764 0.0255589
0.600565 0.119829 0.0228733
0.631037 0.125551 0.0204929
0.652216 0.128481 0.019089
0.664042 0.130755 0.0189212
0.665919 0.131075 0.0209049
0.665919 0.131075 0.0209049
0.0862287 0.0753948 0.0742504
0.0865949 0.0767376 0.0750286
0.104158 0.0798505 0.0740826
0.148379 0.0929885 0.0749371
0.197375 0.108263 0.059556
0.277699 0.107988 0.0398108
0.356481 0.104112 0.037995
0.424887 0.102174 0.0346075
0.476661 0.103273 0.0315557
0.524895 0.107958 0.0283818
0.569512 0.113909 0.0250095
0.605219 0.120592 0.0222324
0.633555 0.126024 0.0202945
0.653681 0.128756 0.018967
0.66482 0.130892 0.0198062
0.665919 0.131075 0.0209049
0.665919 0.131075 0.0209049
0.0899672 0.0978408 0.0844434
0.0900893 0.101137 0.0860151
0.09308 0.103532 0.0872206
0.146258 0.111025 0.0914778
0.196139 0.120211 0.071107
0.273518 0.115709 0.0426947
0.356756 0.107332 0.038056
0.427604 0.103365 0.0343175
0.480323 0.104326 0.0314183
0.529595 0.108873 0.0280308
0.573007 0.114946 0.0248112
0.608591 0.12134 0.0222019
0.636545 0.12694 0.0201724
0.656947 0.130358 0.0187533
0.670954 0.1346 0.0199435
0.676936 0.138888 0.0190738
0.684184 0.144671 0.0180972
0.0924697 0.129503 0.101137
0.0924544 0.134768 0.104189
0.0922713 0.138933 0.106142
0.113863 0.139834 0.10454
0.194049 0.147951 0.101045
0.291127 0.141619 0.0607309
0.375265 0.130343 0.0368811
0.443519 0.123781 0.0336156
0.501823 0.124849 0.0300755
0.554589 0.129656 0.0264744
0.602564 0.136721 0.0229343
0.640421 0.14493 0.0205844
0.670878 0.153414 0.0188754
0.696147 0.161593 0.0174563
0.716487 0.173892 0.0170291
0.729534 0.188647 0.0172122
0.742702 0.205509 0.0175631
0.090837 0.165179 0.114778
0.090074 0.171344 0.115602
0.0897383 0.176043 0.115587
0.0908827 0.179294 0.115282
0.169741 0.177508 0.109133
0.287205 0.198245 0.0774701
0.41706 0.19469 0.0524605
0.515282 0.19089 0.0274052
0.573648 0.194507 0.0240024
0.622766 0.201389 0.0220493
0.6663 0.209674 0.020264
0.701976 0.219959 0.0195926
0.732647 0.231022 0.0193179
0.758526 0.242588 0.0197147
0.77644 0.257511 0.0198215
0.784817 0.274968 0.0217746
0.793683 0.296407 0.0231632
0.0855116 0.202792 0.1093
0.0827802 0.210529 0.104509
0.0802014 0.217639 0.10042
0.0792401 0.222492 0.0965133
0.110842 0.224918 0.0860914
0.233997 0.260517 0.0966201
0.413321 0.292744 0.048188
0.544625 0.292073 0.0243992
0.613596 0.297368 0.0263371
0.669154 0.304128 0.0245212
0.71519 0.312169 0.0239109
0.75111 0.32253 0.020737
0.78085 0.333394 0.0222782
0.8056 0.342855 0.0230716
0.819623 0.353094 0.0226902
0.827466 0.366369 0.019913
0.84033 0.388113 0.0110018
0.0748455 0.248005 0.0788891
0.0736858 0.25832 0.0732891
0.072282 0.267811 0.0679942
0.0713359 0.275685 0.064332
0.0929274 0.280735 0.0572061
0.211398 0.30396 0.0682078
0.325521 0.370718 0.0851148
0.516747 0.395895 0.0581216
0.626978 0.400366 0.0229648
0.699245 0.407462 0.0107881
0.756664 0.412985 0.00656138
0.79765 0.419379 0.0107576
0.829526 0.426642 0.0121462
0.855207 0.432471 0.004654
0.867506 0.439292 0.00047303
0.871778 0.450248 0.00236515
0.87863 0.47013 0.00483711
0.0676432 0.303014 0.0534066
0.0665141 0.313268 0.0501717
0.0635691 0.324208 0.0461128
0.063386 0.332433 0.043122
0.0816358 0.339071 0.0385748
0.178103 0.353216 0.0428626
0.310582 0.411002 0.0767834
0.449912 0.470542 0.0949416
0.592218 0.489052 0.0855879
0.68629 0.491264 0.0500343
0.75819 0.493187 0.0309148
0.809125 0.496635 0.019791
0.848325 0.501106 0.0187381
0.87866 0.507897 0.0187839
0.888121 0.514168 0.0190585
0.889815 0.524727 0.0246128
0.892989 0.544274 0.0322728
0.0607462 0.357763 0.0365454
0.0590982 0.367269 0.0332952
0.0575113 0.376211 0.0307012
0.0568551 0.384604 0.0280919
0.0681163 0.392035 0.0249943
0.130541 0.399298 0.0244144
0.269398 0.443809 0.0537118
0.395956 0.507103 0.0974746
0.53814 0.544106 0.108049
0.650248 0.557321 0.107515
0.737758 0.557855 0.0818341
0.803143 0.561059 0.0593271
0.851835 0.566003 0.0471199
0.887495 0.574929 0.0450446
0.895827 0.583474 0.0487984
0.895766 0.593912 0.0555734
0.895445 0.611826 0.0684977
0.0551919 0.410956 0.0220951
0.0555123 0.417136 0.0206302
0.0556497 0.422309 0.0188602
0.0560616 0.43064 0.0165408
0.0582132 0.438331 0.014725
0.0858625 0.443503 0.0140078
0.208103 0.464973 0.033341
0.363119 0.518196 0.0808576
0.47303 0.576288 0.111879
0.595346 0.60412 0.120912
0.700389 0.617304 0.125872
0.78024 0.623575 0.117113
0.839155 0.630137 0.10045
0.880934 0.638468 0.0908522
0.889906 0.646647 0.0940414
0.887831 0.655909 0.103227
0.884337 0.671611 0.122408
0.0578012 0.46334 0.0105592
0.0576181 0.465217 0.0099031
0.0576791 0.465095 0.0099031
0.0581064 0.470451 0.00924697
0.057908 0.478874 0.00929274
0.0634775 0.484489 0.00923171
0.140215 0.491691 0.0152743
0.29958 0.542504 0.0558328
0.439139 0.592371 0.109422
0.541085 0.637324 0.124804
0.65687 0.663005 0.135607
0.750866 0.679118 0.145617
0.816175 0.688045 0.152499
0.861631 0.698207 0.157534
0.873579 0.708721 0.169238
0.870756 0.720394 0.184161
0.866331 0.736217 0.206943
0.0589456 0.509544 0.00782788
0.0592203 0.507774 0.00663767
0.0590677 0.505241 0.00700389
0.0588998 0.505806 0.00741588
0.0593423 0.51342 0.00660716
0.0599222 0.520714 0.00622568
0.103777 0.527214 0.00958267
0.261357 0.567376 0.0423285
0.421576 0.61239 0.0957809
0.506081 0.661097 0.131182
0.616419 0.697566 0.153109
0.716365 0.724132 0.180392
0.79144 0.745739 0.214115
0.838483 0.759014 0.242222
0.857786 0.769924 0.266178
0.855268 0.779187 0.283238
0.853101 0.790341 0.304738
0.0519722 0.541497 0.0251621
0.0558633 0.53724 0.0160678
0.0585031 0.534966 0.00817884
0.0603037 0.536583 0.00550851
0.0605325 0.544045 0.00529488
0.0706188 0.551049 0.00756847
0.131487 0.560418 0.0184787
0.267597 0.602655 0.0543832
0.406683 0.64094 0.103822
0.507973 0.679835 0.157229
0.58938 0.728359 0.199222
0.690547 0.762631 0.246494
0.774517 0.789029 0.296452
0.828992 0.807294 0.340032
0.85095 0.816129 0.363409
0.850904 0.822095 0.378515
0.851453 0.82916 0.398657
0.0148013 0.562051 0.136706
0.0185092 0.563561 0.124758
0.037171 0.567849 0.108797
0.0981918 0.574121 0.0799878
0.135302 0.578088 0.0373388
0.167086 0.59144 0.0526284
0.234119 0.620768 0.0787823
0.31957 0.653895 0.111254
0.429572 0.67715 0.154955
0.536034 0.709865 0.212909
0.606439 0.757046 0.266972
0.697108 0.794324 0.317525
0.777157 0.818586 0.372274
0.828031 0.834211 0.41532
0.852125 0.841718 0.436484
0.852125 0.841718 0.436484
0.852125 0.841718 0.436484
0.0237278 0.612726 0.312367
0.0982834 0.635279 0.305821
0.16347 0.66511 0.295384
0.199283 0.666468 0.242161
0.249561 0.657435 0.167468
0.305592 0.653559 0.116777
0.350912 0.661418 0.123644
0.41677 0.674632 0.148913
0.498283 0.694667 0.188632
0.567376 0.729366 0.237308
0.630854 0.769955 0.282155
0.720211 0.801617 0.331731
0.790066 0.822797 0.383032
0.835615 0.836606 0.421225
0.852125 0.841718 0.436484
0.852125 0.841718 0.436484
0.852125 0.841718 0.436484
0.191455 0.708202 0.40473
0.250965 0.727077 0.401816
0.284138 0.730709 0.383062
0.302113 0.723598 0.341512
0.334188 0.710369 0.281437
0.391058 0.694087 0.220127
0.451438 0.685969 0.179843
0.501137 0.695583 0.190265
0.551492 0.718471 0.224628
0.597772 0.751659 0.261051
0.667979 0.784802 0.302022
0.748852 0.810315 0.350759
0.807202 0.828122 0.397223
0.845762 0.839445 0.430274
0.852125 0.841718 0.436484
0.852125 0.841718 0.436484
0.852125 0.841718 0.436484
0.0879225 0.0682536 0.0722667
0.0925765 0.0694743 0.0717937
0.110735 0.0739757 0.070161
0.152102 0.0914778 0.0730602
0.19292 0.106645 0.0606851
0.262196 0.108873 0.0408637
0.336889 0.104829 0.0386053
0.405066 0.102327 0.0355993
0.458091 0.10277 0.0325933
0.504051 0.105638 0.0296483
0.551202 0.111284 0.0263523
0.590997 0.117876 0.0235599
0.622644 0.123949 0.0211795
0.646708 0.127886 0.0195315
0.660655 0.130175 0.0185397
0.665919 0.131075 0.0209049
0.665919 0.131075 0.0209049
0.0870527 0.0691539 0.0714885
0.0892958 0.069398 0.0709392
0.106661 0.0724651 0.0690623
0.150866 0.0909895 0.072755
0.195315 0.107118 0.0597543
0.271473 0.108232 0.039765
0.349462 0.104356 0.0382239
0.41799 0.102083 0.0349279
0.4701 0.103014 0.0319982
0.518257 0.107134 0.0287175
0.563531 0.112917 0.0254826
0.600809 0.11989 0.0228428
0.630304 0.125414 0.0205539
0.651469 0.128405 0.0191348
0.663783 0.130709 0.0186618
0.665919 0.131075 0.0209049
0.665919 0.131075 0.0209049
0.0862898 0.075639 0.074403
0.086656 0.076936 0.0751354
0.104891 0.0805524 0.0742046
0.148653 0.093431 0.0751354
0.197772 0.108522 0.0595102
0.277623 0.107988 0.0398108
0.356619 0.104097 0.037995
0.425437 0.102174 0.0345769
0.476997 0.103349 0.0315862
0.525597 0.108034 0.028336
0.569467 0.113893 0.0250095
0.604761 0.120485 0.0222629
0.632731 0.125872 0.0203555
0.652796 0.128573 0.0190433
0.664408 0.130816 0.0193332
0.665919 0.131075 0.0209049
0.665919 0.131075 0.0209049
0.0900282 0.0986496 0.0848249
0.0902419 0.102022 0.0865492
0.0940871 0.104433 0.087953
0.147601 0.112322 0.0920729
0.197955 0.121202 0.0712444
0.275853 0.116274 0.0425879
0.358297 0.107652 0.0378424
0.428305 0.103639 0.0342565
0.481025 0.104738 0.0313725
0.529763 0.109178 0.0280156
0.572457 0.115007 0.0248569
0.607767 0.121294 0.0222324
0.635019 0.126665 0.0202029
0.65565 0.130022 0.0188602
0.669169 0.133318 0.019501
0.674952 0.13753 0.0192874
0.68249 0.14313 0.018265
0.0923476 0.130739 0.101717
0.0923781 0.136065 0.104829
0.0924239 0.140108 0.106569
0.115892 0.141299 0.104936
0.196918 0.149813 0.10045
0.294942 0.142672 0.0606851
0.380591 0.131868 0.0369116
0.448218 0.125734 0.0332647
0.506554 0.127352 0.0297093
0.559609 0.132448 0.0260624
0.605859 0.13846 0.0229953
0.641123 0.145724 0.0205539
0.669505 0.152514 0.0188754
0.69192 0.158801 0.0178225
0.710674 0.168109 0.0167391
0.72398 0.18204 0.0170901
0.737682 0.198978 0.0173648
0.0906081 0.166873 0.115023
0.0901045 0.172671 0.115724
0.0895247 0.177615 0.115511
0.0914168 0.18088 0.115557
0.174014 0.179797 0.110063
0.293355 0.202579 0.0753185
0.423178 0.199374 0.052369
0.521263 0.195361 0.0268864
0.579705 0.199481 0.0230716
0.627649 0.206455 0.021561
0.6701 0.213809 0.0204166
0.7028 0.221057 0.0195773
0.730266 0.228412 0.0193027
0.753338 0.235477 0.0192874
0.769757 0.246601 0.0195773
0.778256 0.262303 0.020325
0.788785 0.284321 0.0225528
0.085008 0.204761 0.108064
0.0822309 0.212329 0.103517
0.0798962 0.219059 0.0991531
0.0796674 0.224384 0.0948196
0.119844 0.227268 0.0827649
0.23711 0.265949 0.0956588
0.418708 0.298161 0.0481117
0.550561 0.297688 0.0230716
0.61883 0.302525 0.0248112
0.674098 0.310262 0.0232242
0.717266 0.31606 0.0244602
0.751293 0.323003 0.0206455
0.777966 0.329488 0.0222477
0.79968 0.334112 0.0238499
0.813443 0.340185 0.0243229
0.818738 0.3514 0.0229953
0.831495 0.373114 0.0176852
0.0747234 0.250507 0.0777295
0.0733959 0.260273 0.0719615
0.0719921 0.269703 0.0669261
0.0712291 0.277531 0.0630503
0.0968338 0.283223 0.0556344
0.21735 0.309728 0.0684062
0.329793 0.376287 0.0851606
0.520867 0.401587 0.0591745
0.630014 0.40589 0.0244602
0.701335 0.411704 0.0114137
0.757076 0.414847 0.00662242
0.796628 0.418479 0.0104677
0.826093 0.422126 0.0124971
0.849805 0.423499 0.00447089
0.862409 0.426551 0
0.865858 0.434516 0
0.873396 0.45452 0.00294499
0.0677501 0.304738 0.0531624
0.0660258 0.314549 0.049546
0.0632639 0.325124 0.0457771
0.0645304 0.333165 0.0426032
0.0847791 0.341329 0.0375219
0.184817 0.358251 0.0435798
0.314733 0.415534 0.0778668
0.454734 0.474464 0.0957504
0.594369 0.492378 0.0859693
0.687602 0.493538 0.0510872
0.75819 0.493492 0.0310674
0.807385 0.494484 0.0187839
0.844999 0.495598 0.0172885
0.873426 0.498543 0.0153964
0.885771 0.500862 0.012604
0.887449 0.508659 0.0168002
0.890318 0.527642 0.0255283
0.0605325 0.357626 0.0369421
0.0591135 0.366629 0.0338598
0.0579538 0.374533 0.0312352
0.0576028 0.383948 0.027924
0.0725567 0.392615 0.0245975
0.140688 0.40177 0.0252689
0.273564 0.446967 0.05449
0.398001 0.509789 0.0980392
0.539452 0.545907 0.108537
0.650401 0.557809 0.107652
0.736904 0.556161 0.081117
0.801236 0.557 0.0576028
0.847471 0.559152 0.0439155
0.882933 0.563317 0.0397498
0.895369 0.568978 0.0417487
0.895384 0.576761 0.0454414
0.895766 0.594659 0.055848
0.0526284 0.408423 0.0275425
0.0536355 0.412665 0.0253452
0.0552834 0.417884 0.0214542
0.0572824 0.427024 0.0178073
0.0602121 0.436194 0.0152285
0.0931868 0.442847 0.0145113
0.212955 0.466697 0.0343633
0.364645 0.518975 0.0816052
0.472251 0.575769 0.111681
0.59324 0.602457 0.120043
0.697414 0.614252 0.124361
0.776364 0.617365 0.113664
0.834028 0.620981 0.0955978
0.877165 0.625742 0.0838026
0.893034 0.631815 0.0826886
0.891783 0.639155 0.0881361
0.888121 0.654948 0.102113
0.0532387 0.45832 0.0205692
0.0551003 0.458579 0.016434
0.0565805 0.457511 0.0128634
0.057908 0.464042 0.010193
0.0579538 0.473854 0.00921645
0.0677348 0.48127 0.00875868
0.148287 0.49041 0.0167849
0.299062 0.540581 0.0557565
0.436088 0.589075 0.108156
0.536263 0.633371 0.124483
0.648966 0.657053 0.133562
0.744213 0.670481 0.140841
0.809232 0.676066 0.141787
0.858076 0.681788 0.140063
0.878813 0.690318 0.145602
0.876234 0.698955 0.156222
0.871534 0.717266 0.180606
0.050248 0.502586 0.0265354
0.0537728 0.498802 0.0183261
0.0563363 0.495491 0.0133211
0.0579843 0.4963 0.00947585
0.058793 0.50721 0.00746166
0.0616007 0.515267 0.00714122
0.108446 0.522988 0.010071
0.255955 0.560983 0.0406348
0.411124 0.605798 0.091722
0.496208 0.65272 0.127092
0.604028 0.687861 0.146288
0.706905 0.712306 0.166445
0.781888 0.7299 0.190677
0.83415 0.74081 0.211063
0.861814 0.75285 0.233982
0.859953 0.761303 0.249775
0.856092 0.775387 0.276539
0.0339818 0.536492 0.071397
0.0406806 0.531044 0.0529183
0.0458839 0.527565 0.0388952
0.0518502 0.528283 0.027451
0.0629129 0.53611 0.00645457
0.0757 0.544274 0.00671397
0.128527 0.553216 0.0133059
0.249897 0.589258 0.0447242
0.38587 0.630198 0.0904707
0.491966 0.666484 0.140841
0.568673 0.712398 0.176883
0.669108 0.745998 0.215747
0.756756 0.771939 0.261234
0.81857 0.791897 0.303304
0.851164 0.803922 0.333623
0.851209 0.809491 0.346273
0.85098 0.81854 0.369375
0.00263981 0.561608 0.197498
0.0053254 0.562036 0.182223
0.0191501 0.565164 0.166369
0.0755169 0.572686 0.14258
0.126772 0.573678 0.0750439
0.168109 0.580774 0.0386816
0.220905 0.603601 0.0598306
0.294667 0.638758 0.0906996
0.398383 0.665446 0.133669
0.506889 0.694835 0.188952
0.581765 0.739788 0.243763
0.665125 0.780102 0.290471
0.75436 0.807004 0.34078
0.814282 0.825635 0.389883
0.85005 0.838148 0.425879
0.852079 0.841184 0.434867
0.852125 0.841718 0.436484
0.0209812 0.618997 0.356909
0.0920424 0.640162 0.346929
0.152865 0.668879 0.336828
0.197528 0.68603 0.316686
0.221225 0.678218 0.252995
0.272602 0.664897 0.1729
0.332052 0.658885 0.123003
0.388769 0.668727 0.137484
0.464912 0.68545 0.171008
0.544182 0.713909 0.21883
0.602243 0.754513 0.264057
0.68455 0.790402 0.311055
0.765606 0.815488 0.363363
0.819776 0.831693 0.408453
0.851621 0.84155 0.436088
0.852125 0.841718 0.436484
0.852125 0.841718 0.436484
0.20209 0.71873 0.433295
0.257908 0.735256 0.431006
0.310948 0.746914 0.427527
0.325902 0.744137 0.401312
0.337804 0.734218 0.357046
0.36788 0.718898 0.296208
0.422827 0.702525 0.239277
0.48426 0.695277 0.202319
0.534142 0.708797 0.211383
0.57908 0.738521 0.246662
0.636072 0.772244 0.284718
0.719081 0.801236 0.330907
0.787198 0.821851 0.380484
0.833021 0.835843 0.419501
0.852125 0.841718 0.436484
0.852125 0.841718 0.436484
0.852125 0.84181 0.437583
0.0939956 0.0738079 0.0877852
0.0948043 0.0735943 0.0868849
0.114946 0.0773938 0.0842603
0.15378 0.0919661 0.080293
0.191699 0.106676 0.0647288
0.259022 0.108888 0.0415045
0.335073 0.105043 0.0387732
0.403296 0.102358 0.0356909
0.457008 0.102754 0.0326543
0.503182 0.105547 0.0296941
0.5505 0.111055 0.0263066
0.590219 0.117632 0.0235599
0.621607 0.123842 0.0213779
0.645853 0.127825 0.0196841
0.659937 0.130068 0.0186007
0.665919 0.131075 0.0209049
0.665919 0.131075 0.0209049
0.0926528 0.0735027 0.0858778
0.0922408 0.0726787 0.0840314
0.112169 0.0761883 0.0825971
0.153445 0.0918288 0.0800793
0.195621 0.107469 0.0644541
0.269932 0.108309 0.0397803
0.348165 0.104433 0.0382849
0.417227 0.102098 0.0349737
0.469474 0.102998 0.0320287
0.517617 0.107088 0.0287175
0.562921 0.11281 0.0255436
0.599985 0.119646 0.0228733
0.62948 0.125109 0.0205539
0.650263 0.128283 0.0192416
0.66331 0.130632 0.0182498
0.665919 0.131075 0.0209049
0.665919 0.131075 0.0209049
0.0878614 0.0802014 0.0853895
0.0881819 0.0814221 0.0869612
0.105821 0.0835889 0.08542
0.149432 0.0942397 0.0817884
0.197742 0.109026 0.0655528
0.277058 0.108034 0.0396429
0.356817 0.104097 0.037995
0.425849 0.102174 0.0345464
0.477607 0.103487 0.0316014
0.52636 0.10811 0.028275
0.569848 0.114046 0.0250248
0.604883 0.120516 0.0222477
0.632364 0.125811 0.0203861
0.652186 0.128481 0.019089
0.664088 0.130755 0.018967
0.665919 0.131075 0.0209049
0.665644 0.130892 0.0218509
0.0894179 0.100038 0.0891585
0.0897078 0.103807 0.0926375
0.0936294 0.106432 0.095079
0.146395 0.113008 0.0957504
0.197055 0.121843 0.076585
0.274907 0.116869 0.0450752
0.35729 0.108156 0.0378729
0.426703 0.103914 0.0342718
0.478965 0.104906 0.0315251
0.528405 0.109422 0.0281376
0.571694 0.115129 0.0249332
0.606668 0.121248 0.0222477
0.633829 0.126452 0.0202945
0.654276 0.129595 0.0189517
0.667567 0.132403 0.0188907
0.673182 0.136202 0.0196231
0.679713 0.140688 0.0223087
0.0920882 0.131762 0.102617
0.0919203 0.137026 0.106065
0.0919509 0.140658 0.107546
0.118196 0.142336 0.106355
0.198322 0.150958 0.101259
0.297505 0.143908 0.0614786
0.38352 0.133257 0.0366979
0.451362 0.127321 0.0333257
0.510079 0.129641 0.0294194
0.56318 0.1346 0.0260929
0.608942 0.141024 0.0227665
0.642664 0.147478 0.0204623
0.669001 0.152941 0.0189059
0.689189 0.157427 0.0179751
0.706538 0.164157 0.0172274
0.718059 0.175586 0.0166629
0.731807 0.191608 0.0183871
0.0904402 0.168002 0.115206
0.0897993 0.173648 0.115709
0.0894026 0.178149 0.115633
0.0926528 0.181323 0.115465
0.178378 0.181216 0.110613
0.29633 0.20528 0.0743267
0.426871 0.202777 0.052018
0.525078 0.199817 0.0272984
0.583169 0.203494 0.0229801
0.631601 0.211063 0.0214237
0.673075 0.218036 0.0202945
0.704372 0.223804 0.0195773
0.729824 0.22858 0.0193332
0.749538 0.231357 0.0188754
0.764614 0.237736 0.0190433
0.772183 0.250233 0.0200809
0.782254 0.27042 0.0211032
0.0842451 0.206256 0.106935
0.0816968 0.213748 0.102724
0.0796521 0.219837 0.0986801
0.0805219 0.224842 0.0942397
0.128237 0.228016 0.0814527
0.239872 0.270512 0.0948196
0.42118 0.302113 0.0483864
0.553658 0.301366 0.0218509
0.622705 0.306813 0.0234684
0.677317 0.314137 0.0226596
0.719982 0.320012 0.0254063
0.752667 0.32517 0.0201572
0.776944 0.328557 0.0223087
0.796002 0.329244 0.0240482
0.808255 0.330251 0.0246128
0.811963 0.337514 0.0244602
0.821912 0.356649 0.0223545
0.0744488 0.252522 0.0766155
0.0730144 0.262028 0.0715038
0.0716106 0.270604 0.0669718
0.07187 0.277226 0.0631266
0.103685 0.284337 0.0544289
0.222538 0.313848 0.0690318
0.332204 0.379339 0.085481
0.523613 0.405112 0.0603189
0.631449 0.409079 0.0251774
0.703059 0.415152 0.0123598
0.758618 0.417929 0.00698863
0.79707 0.41915 0.010605
0.824689 0.419867 0.0125124
0.84564 0.417655 0.00503548
0.857923 0.416342 0.00015259
0.859297 0.419745 0
0.866835 0.437125 0.000274662
0.0670481 0.306783 0.0533608
0.0649577 0.316167 0.0506294
0.0625162 0.32459 0.0481575
0.0663767 0.332097 0.0433814
0.0906996 0.341176 0.0367742
0.193225 0.362188 0.0452125
0.317098 0.418372 0.0783093
0.454871 0.476616 0.0958724
0.59559 0.494163 0.086717
0.68806 0.494697 0.0521401
0.758328 0.494469 0.0315557
0.806928 0.494072 0.0184482
0.84332 0.492592 0.0162966
0.870527 0.491905 0.0132753
0.883879 0.491005 0.00852979
0.884382 0.493797 0.00970474
0.887617 0.509636 0.017319
0.055787 0.360265 0.0452735
0.0542458 0.369055 0.0438392
0.0541695 0.374716 0.0402075
0.0582437 0.381537 0.0314946
0.0796521 0.390799 0.0245365
0.15375 0.402899 0.0269169
0.277852 0.449104 0.0560311
0.398489 0.510842 0.0980697
0.538872 0.546563 0.108873
0.650507 0.558495 0.108156
0.736492 0.556405 0.0814527
0.799985 0.555261 0.057023
0.845029 0.555032 0.0424353
0.87892 0.55552 0.0367895
0.894423 0.557839 0.0373846
0.894499 0.56144 0.0387427
0.895293 0.576013 0.0449836
0.0414893 0.411566 0.0559091
0.0430915 0.414771 0.0519875
0.047364 0.417151 0.0395056
0.0573281 0.422492 0.0234989
0.063447 0.432837 0.0157015
0.10695 0.441749 0.0157473
0.221988 0.469627 0.0371099
0.365835 0.519768 0.0821851
0.470497 0.575586 0.111467
0.591745 0.602258 0.119936
0.695598 0.613184 0.123857
0.773892 0.614069 0.111727
0.831724 0.615488 0.0926375
0.87425 0.6168 0.0782635
0.894743 0.620142 0.0751202
0.894331 0.623987 0.0775464
0.891844 0.637385 0.0865187
0.0372015 0.458961 0.0622263
0.0404822 0.457267 0.0531777
0.0443732 0.454337 0.043183
0.052491 0.45774 0.0224155
0.0605478 0.467887 0.00970474
0.0770123 0.478492 0.00918593
0.164126 0.491279 0.0197299
0.303517 0.541024 0.0573434
0.43473 0.587518 0.107652
0.531991 0.630945 0.124147
0.645319 0.654169 0.13312
0.739971 0.665629 0.138964
0.80441 0.668406 0.137255
0.854902 0.670695 0.128374
0.88304 0.676127 0.128023
0.881849 0.680476 0.133822
0.877272 0.695125 0.151965
0.0301061 0.500862 0.0820172
0.0354467 0.49575 0.0656138
0.0399176 0.491051 0.053315
0.0465705 0.490074 0.0390631
0.0613718 0.498924 0.0112459
0.0697185 0.51075 0.00834669
0.12549 0.520272 0.0122988
0.261509 0.560372 0.0425879
0.407736 0.602136 0.0904707
0.490684 0.647898 0.1252
0.595651 0.681987 0.141741
0.699229 0.704555 0.159564
0.775158 0.719188 0.178393
0.829526 0.726146 0.190814
0.863767 0.736034 0.206165
0.86482 0.742763 0.216876
0.860731 0.756909 0.241016
0.0133059 0.534676 0.143999
0.0189212 0.528206 0.122377
0.0234989 0.524193 0.103746
0.0311589 0.525139 0.0892348
0.0661631 0.529061 0.0418708
0.0945754 0.538262 0.0103456
0.148058 0.54995 0.0158694
0.251865 0.584939 0.0430762
0.378744 0.623896 0.0856031
0.482841 0.658228 0.132219
0.555886 0.702403 0.165438
0.656199 0.73463 0.196262
0.743801 0.758618 0.234684
0.808713 0.776501 0.272145
0.846372 0.787961 0.298833
0.852888 0.794247 0.313115
0.851591 0.804685 0.33579
0 0.562707 0.25684
0 0.5626 0.241535
0.00714122 0.565011 0.22472
0.0567178 0.572625 0.205692
0.116747 0.580118 0.156191
0.167163 0.580987 0.0811017
0.22768 0.596796 0.0504616
0.290486 0.62826 0.0780957
0.383597 0.654292 0.115755
0.487297 0.681392 0.166445
0.560388 0.722911 0.217243
0.638086 0.763287 0.25951
0.730465 0.791287 0.304723
0.798993 0.811978 0.351675
0.841154 0.826047 0.389807
0.851408 0.831739 0.406271
0.851942 0.838865 0.428061
0.0202792 0.622065 0.392645
0.0869764 0.641108 0.378424
0.144228 0.666941 0.366354
0.194049 0.688014 0.351186
0.220615 0.691814 0.318807
0.24126 0.683696 0.254246
0.298878 0.67126 0.178698
0.371557 0.666987 0.136843
0.438575 0.679149 0.158892
0.518502 0.701946 0.20116
0.580743 0.739712 0.247898
0.65069 0.77847 0.293019
0.736934 0.806806 0.342687
0.800076 0.826001 0.391623
0.842634 0.838529 0.428046
0.852125 0.841794 0.437369
0.852049 0.84271 0.449454
0.210742 0.72578 0.456321
0.264286 0.741558 0.454139
0.312016 0.752529 0.450263
0.354559 0.75967 0.44448
0.360204 0.754116 0.416648
0.369726 0.743282 0.37174
0.39826 0.726253 0.309972
0.452842 0.709728 0.25658
0.516152 0.705852 0.226307
0.560876 0.724926 0.231693
0.607843 0.757549 0.267781
0.68275 0.789578 0.309697
0.760174 0.813672 0.358862
0.815641 0.830488 0.404425
0.850248 0.841276 0.436774
0.852125 0.84303 0.453025
0.852613 0.844434 0.467109
0.108782 0.083711 0.115023
