src/assets/luts/日系配方/TR卷.cube
LUT_3D_SIZE 5
0.0273594 0.0300145 0.0295567
0.114794 0.0260319 0.0270085
0.399496 0.0180056 0.0108186
0.708385 0.00227359 0.0109407
0.937194 0.0625925 0.174823
0.0192721 0.0902571 0.0271916
0.119844 0.115373 0.0322423
0.487831 0.0691386 0.00573739
0.792874 0.0413062 0.013611
0.953094 0.114855 0.190127
0.00180056 0.370764 0.0222629
0.0213474 0.434073 0.015671
0.521462 0.528878 0.0309606
0.905425 0.495506 0.128099
0.982605 0.45481 0.218402
0.227924 0.758389 0.040116
0.277867 0.783383 0.0478218
0.567529 0.811231 0.149844
0.833646 0.84445 0.249241
1 0.805341 0.309483
0.555474 0.929732 0.129915
0.555474 0.929732 0.129915
0.686488 0.947219 0.287846
0.799329 0.979614 0.478599
0.926833 1 0.575296
0.0101472 0.028275 0.0936446
0.11281 0.029221 0.105333
0.408804 0.0248722 0.0548104
0.709255 0.00347906 0.0339513
0.942046 0.0693675 0.187243
0.00776684 0.102998 0.116014
0.12517 0.136141 0.150362
0.50515 0.0907759 0.103059
0.79382 0.0784619 0.161883
0.954757 0.166644 0.293812
0.00117494 0.397116 0.0934768
0.00189212 0.47039 0.131411
0.525719 0.544869 0.116915
0.903258 0.503899 0.205722
0.98439 0.461326 0.245884
0.206638 0.764172 0.0552377
0.247364 0.783764 0.0594644
0.570993 0.811582 0.152178
0.829129 0.845273 0.253529
1 0.807996 0.312016
0.555474 0.929732 0.129915
0.555611 0.929808 0.130022
0.692317 0.949081 0.305837
0.798337 0.979538 0.483207
0.930098 1 0.581521
0 0.0132448 0.31104
0.000976577 0.0154269 0.336355
0.419242 0.00518807 0.403845
0.701091 0.0282444 0.385733
0.938704 0.102724 0.442176
0 0.0671397 0.343465
0 0.107866 0.395087
0.513222 0.100587 0.497353
0.790555 0.144854 0.489296
0.955352 0.204242 0.520607
0.00747692 0.435492 0.464744
0.0120699 0.48571 0.513161
0.54757 0.574701 0.582315
0.894942 0.53109 0.544289
1 0.515785 0.55491
0.0371252 0.789883 0.511864
0.0371252 0.797452 0.523232
0.480598 0.821424 0.562692
0.823514 0.839826 0.611368
1 0.805722 0.638331
0.2177 0.941558 0.49958
0.193683 0.942 0.513176
0.604685 0.959243 0.589349
0.791318 0.985046 0.680888
0.947188 1 0.730877
0 0.0163577 0.476448
0 0.0162203 0.469535
0.401251 0.00624094 0.618799
0.722286 0.000793469 0.650278
0.916762 0.224781 0.642908
0 0.0233768 0.499123
0 0.0613107 0.525597
0.498222 0.110933 0.690715
0.809659 0.150317 0.750469
0.957305 0.377523 0.762448
0.0140688 0.445182 0.667597
0.0191043 0.47892 0.710796
0.509544 0.561135 0.784207
0.861891 0.564401 0.843824
1 0.585428 0.803418
0.0469215 0.807385 0.805844
0.0475013 0.811902 0.815076
0.125582 0.814267 0.820584
0.822095 0.851637 0.845579
1 0.820188 0.812802
0.0269932 0.942473 0.756466
0.0269017 0.942382 0.761669
0.395834 0.97615 0.777951
0.770108 1 0.842161
0.948486 1 0.879835
0 0.0185092 0.614481
0 0.0185092 0.614481
0.343572 0.0126802 0.80708
0.70927 0.0391089 0.873579
0.923278 0.114076 0.889937
0 0.0220035 0.629526
0 0.0420081 0.643473
0.461082 0.120684 0.858
0.782422 0.191363 0.915663
0.964263 0.268818 0.941711
0.000335698 0.460822 0.798001
0.00590524 0.47808 0.809812
0.458457 0.543893 0.92932
0.823575 0.579187 1
1 0.563378 1
0.0600443 0.788724 0.966308
0.0600443 0.793057 0.966369
0.352316 0.801266 0.994278
0.786831 0.831662 1
0.982559 0.831128 1
0.0381323 0.931517 0.957382
0.0381323 0.931517 0.957382
0.216114 0.953033 0.977722
0.706874 0.997787 1
0.959991 1 1
