src/assets/luts/日系配方/TR卷.cube
LUT_3D_SIZE 9
0.0273594 0.0300145 0.0295567
0.0383917 0.0298009 0.0292821
0.114794 0.0260319 0.0270085
0.234836 0.0227512 0.0178073
0.399496 0.0180056 0.0108186
0.556069 0.00791943 0.00741588
0.708385 0.00227359 0.0109407
0.857862 0.0151217 0.0826429
0.937194 0.0625925 0.174823
0.0226902 0.0381476 0.0284123
0.0372015 0.0413519 0.0282597
0.124132 0.0287327 0.0253147
0.256458 0.0229343 0.0170901
0.430091 0.0167086 0.00973526
0.5888 0.00701915 0.000244144
0.745251 0.00163272 0.0159457
0.895186 0.0287633 0.117556
0.937194 0.0625925 0.174823
0.0192721 0.0902571 0.0271916
0.0167239 0.0986801 0.0283055
0.119844 0.115373 0.0322423
0.30605 0.0979171 0.0272679
0.487831 0.0691386 0.00573739
0.64828 0.0432593 0
0.792874 0.0413062 0.013611
0.935164 0.0933242 0.1561
0.953094 0.114855 0.190127
0.0043946 0.19469 0.0334478
0.00395209 0.216831 0.032929
0.0299687 0.251423 0.0375982
0.28719 0.283375 0.0242924
0.543725 0.275792 0.0357061
0.675288 0.270085 0.026215
0.809247 0.252171 0.0290379
0.960601 0.281758 0.164584
0.967819 0.275792 0.179004
0.00180056 0.370764 0.0222629
0.00172427 0.401999 0.0186618
0.0213474 0.434073 0.015671
0.176867 0.47602 0.0322728
0.521462 0.528878 0.0309606
0.773327 0.532403 0.0444495
0.905425 0.495506 0.128099
0.988724 0.475578 0.229618
0.982605 0.45481 0.218402
0.0137026 0.572122 0.011902
0.0253758 0.600809 0.0155337
0.0612955 0.615061 0.0182803
0.302068 0.644434 0.0531472
0.449744 0.668116 0.0800793
0.701732 0.708644 0.0669413
0.926284 0.694774 0.0847944
1 0.648203 0.317983
1 0.627817 0.312428
0.227924 0.758389 0.040116
0.268574 0.77882 0.0464332
0.277867 0.783383 0.0478218
0.444968 0.793988 0.0739147
0.567529 0.811231 0.149844
0.662135 0.826169 0.206912
0.833646 0.84445 0.249241
1 0.818463 0.313817
1 0.805341 0.309483
0.521721 0.911574 0.110506
0.544869 0.923232 0.122377
0.545281 0.923491 0.122683
0.587762 0.919188 0.147601
0.665415 0.924407 0.255238
0.724407 0.935302 0.357809
0.787945 0.942016 0.443168
0.903075 0.94725 0.494453
0.966873 0.933761 0.475319
0.555474 0.929732 0.129915
0.555474 0.929732 0.129915
0.555474 0.929732 0.129915
0.608133 0.934661 0.168246
0.686488 0.947219 0.287846
0.742382 0.962875 0.391959
0.799329 0.979614 0.478599
0.87364 0.994827 0.55198
0.926833 1 0.575296
0.0244907 0.0282597 0.0395666
0.03888 0.0273899 0.0415808
0.112673 0.0261082 0.0290837
0.232441 0.0228428 0.0179904
0.398062 0.0181277 0.0109255
0.556146 0.00791943 0.00740063
0.710063 0.00221256 0.010956
0.858763 0.0153506 0.0835584
0.937194 0.0625925 0.174823
0.018616 0.0411231 0.040238
0.0379339 0.0450752 0.0444953
0.12813 0.0310674 0.0323186
0.25684 0.0229343 0.0170596
0.432197 0.0165866 0.00961318
0.591379 0.00714122 0.000320439
0.749386 0.00289921 0.016434
0.899245 0.0306859 0.122103
0.937194 0.0625925 0.174823
0.0173953 0.0929885 0.0299229
0.0130617 0.104616 0.0399481
0.120897 0.12192 0.0438392
0.313344 0.104265 0.0319371
0.493446 0.0762493 0.00630198
0.654002 0.0500954 0
0.797391 0.0500801 0.0136263
0.937407 0.103471 0.156725
0.954787 0.125551 0.190753
0.00396735 0.200061 0.0329137
0.00354009 0.222797 0.0324102
0.0355993 0.26215 0.0420844
0.294957 0.293507 0.0234531
0.554437 0.286305 0.035462
0.685832 0.280797 0.0301671
0.815686 0.263096 0.034638
0.965133 0.291264 0.173083
0.967803 0.279667 0.178332
0.00166323 0.379278 0.0212406
0.00173953 0.409751 0.0172122
0.0304265 0.443534 0.0160983
0.18674 0.48481 0.0333257
0.525643 0.537285 0.0323491
0.777661 0.538094 0.0446326
0.910719 0.500587 0.13164
0.990448 0.479957 0.232181
0.983413 0.459098 0.220218
0.0153658 0.579644 0.0129549
0.0269932 0.60589 0.0155795
0.0740368 0.620005 0.0202182
0.310201 0.648386 0.0534066
0.453956 0.671946 0.0810407
0.7037 0.712505 0.069749
0.927916 0.699397 0.0872816
1 0.652064 0.318715
1 0.631952 0.313359
0.239124 0.763897 0.0408942
0.27628 0.782742 0.0478981
0.283635 0.786267 0.0482948
0.454627 0.796796 0.0771649
0.572412 0.814191 0.15314
0.664851 0.829511 0.211658
0.83386 0.846769 0.256779
1 0.82092 0.318318
1 0.808438 0.312352
0.528313 0.914473 0.11342
0.547707 0.924956 0.124453
0.546014 0.923919 0.123201
0.594186 0.919631 0.15198
0.668711 0.925704 0.261204
0.726558 0.936614 0.361501
0.788922 0.943603 0.445212
0.902052 0.948104 0.496315
0.966018 0.934752 0.476524
0.555474 0.929732 0.129915
0.555474 0.929732 0.129915
0.555474 0.929732 0.129915
0.615396 0.935409 0.174777
0.689921 0.94818 0.294926
0.744198 0.963317 0.395071
0.79942 0.979629 0.478706
0.872694 0.994629 0.551263
0.926833 1 0.575296
0.0101472 0.028275 0.0936446
0.0156558 0.0287785 0.0937667
0.11281 0.029221 0.105333
0.253468 0.0353704 0.0760662
0.408804 0.0248722 0.0548104
0.560037 0.013138 0.0382849
0.709255 0.00347906 0.0339513
0.856916 0.0158083 0.0928817
0.942046 0.0693675 0.187243
0.0109102 0.035935 0.0932174
0.0144198 0.0380255 0.0990921
0.127565 0.0353246 0.121782
0.283742 0.0385138 0.0945296
0.450202 0.0250095 0.0831159
0.602838 0.011841 0.0839857
0.750347 0.0103761 0.115053
0.897963 0.0451667 0.202762
0.940246 0.0881971 0.252445
0.00776684 0.102998 0.116014
0.00767529 0.110979 0.127855
0.12517 0.136141 0.150362
0.340581 0.111589 0.118532
0.50515 0.0907759 0.103059
0.650767 0.0754864 0.113176
0.79382 0.0784619 0.161883
0.932799 0.143816 0.26952
0.954757 0.166644 0.293812
0.0030518 0.21973 0.0962081
0.00218204 0.243687 0.114611
0.0164492 0.293385 0.14641
0.292988 0.321935 0.152255
0.543587 0.311467 0.161425
0.697215 0.294347 0.135393
0.845701 0.273548 0.158755
0.984634 0.327077 0.287053
0.986618 0.316564 0.283711
0.00117494 0.397116 0.0934768
0.00125124 0.428992 0.112215
0.00189212 0.47039 0.131411
0.185473 0.508476 0.159777
0.525719 0.544869 0.116915
0.767422 0.54229 0.103456
0.903258 0.503899 0.205722
0.989151 0.482261 0.265354
0.98439 0.461326 0.245884
0.0172274 0.59704 0.0920882
0.0208286 0.620005 0.100618
0.0237888 0.629084 0.0944381
0.281224 0.651728 0.11751
0.44596 0.672908 0.113085
0.700542 0.711009 0.0692912
0.925917 0.698634 0.0867933
1 0.651682 0.31873
1 0.631815 0.313298
0.206638 0.764172 0.0552377
0.236545 0.782406 0.0631876
0.247364 0.783764 0.0594644
0.449363 0.79411 0.0918135
0.570993 0.811582 0.152178
0.661402 0.827909 0.208804
0.829129 0.845273 0.253529
1 0.820127 0.315496
1 0.807996 0.312016
0.525917 0.913344 0.112428
0.543679 0.922438 0.121279
0.539559 0.920165 0.118532
0.596674 0.915969 0.152026
0.668086 0.922637 0.261418
0.725292 0.934646 0.358923
0.786572 0.942168 0.441917
0.899626 0.946563 0.493919
0.967468 0.933196 0.474662
0.555474 0.929732 0.129915
0.555474 0.929732 0.129915
0.555611 0.929808 0.130022
0.622477 0.93579 0.184588
0.692317 0.949081 0.305837
0.745937 0.963851 0.403738
0.798337 0.979538 0.483207
0.870985 0.994156 0.551919
0.930098 1 0.581521
0 0.0158694 0.212955
0 0.016846 0.206149
0.0709087 0.0250095 0.233646
0.251225 0.0169985 0.247822
0.409262 0.0499123 0.216358
0.563394 0.0196536 0.20116
0.708537 0.00825513 0.213367
0.847333 0.0291752 0.263981
0.938964 0.102129 0.33019
0 0.0169985 0.204974
0 0.0165255 0.208453
0.0896315 0.021561 0.257542
0.287648 0.0134127 0.282765
0.447745 0.0520333 0.26537
0.603845 0.020264 0.263111
0.747829 0.010544 0.283421
0.88893 0.0496834 0.342031
0.93933 0.104234 0.380377
0 0.0906233 0.240772
0 0.0999619 0.25243
0.0667277 0.123705 0.289479
0.321706 0.116106 0.333761
0.508324 0.129641 0.31397
0.658518 0.100526 0.314488
0.793561 0.0933547 0.338003
0.926604 0.160952 0.397253
0.952331 0.19205 0.418494
0.00686656 0.237156 0.269566
0.00668345 0.259968 0.295369
0.00616464 0.30135 0.333684
0.305806 0.346578 0.364233
0.552819 0.33254 0.343114
0.718608 0.321035 0.342199
0.852293 0.315312 0.362615
0.979431 0.360967 0.428595
0.99324 0.359472 0.436179
0 0.420356 0.269886
0.000244144 0.446815 0.30103
0.00244144 0.485801 0.329564
0.173037 0.535515 0.374853
0.525521 0.561379 0.387289
0.747585 0.54844 0.405234
0.886915 0.515129 0.370718
1 0.491402 0.418738
1 0.476783 0.41416
0.0217594 0.614771 0.308553
0.0244297 0.634226 0.328237
0.0259098 0.644572 0.326894
0.112154 0.662989 0.344411
0.441535 0.687144 0.389807
0.697307 0.710033 0.382391
0.921218 0.691341 0.410391
1 0.660121 0.470893
1 0.642634 0.459632
0.034699 0.775128 0.28542
0.0351415 0.790265 0.303441
0.0350652 0.789502 0.296696
0.264897 0.797589 0.323613
0.537484 0.810925 0.390936
0.645441 0.827558 0.434592
0.826307 0.839445 0.443336
0.993957 0.820111 0.458549
1 0.802152 0.491203
0.365377 0.916625 0.312276
0.376974 0.92549 0.332235
0.36585 0.921538 0.328588
0.495171 0.915618 0.354864
0.631968 0.915908 0.428412
0.707561 0.92845 0.496742
0.773571 0.940475 0.546532
0.90164 0.944427 0.576761
0.983017 0.930388 0.565301
0.427909 0.936233 0.326604
0.412558 0.937072 0.343862
0.407095 0.937179 0.349172
0.54313 0.94197 0.393576
0.656977 0.948806 0.474281
0.72958 0.962768 0.543648
0.790051 0.981201 0.591104
0.865171 0.998123 0.6327
0.937255 1 0.657206
0 0.0132448 0.31104
0 0.0131838 0.306432
0.000976577 0.0154269 0.336355
0.229465 0.0087129 0.390967
0.419242 0.00518807 0.403845
0.554849 0.0572976 0.387762
0.701091 0.0282444 0.385733
0.837812 0.0287327 0.402213
0.938704 0.102724 0.442176
0 0.0131991 0.308171
0 0.0132601 0.312474
0.0241245 0.0158083 0.366659
0.275456 0.00733959 0.423255
0.463539 0.00350958 0.440711
0.595651 0.0602426 0.434089
0.741573 0.0401617 0.440452
0.878874 0.0547646 0.460533
0.93698 0.105913 0.48249
0 0.0671397 0.343465
0 0.0793774 0.350729
0 0.107866 0.395087
0.30013 0.110033 0.463294
0.513222 0.100587 0.497353
0.650339 0.169268 0.488304
0.790555 0.144854 0.489296
0.923369 0.174273 0.507301
0.955352 0.204242 0.520607
0 0.230976 0.40148
0.00251774 0.255329 0.426963
0.00537118 0.289876 0.462074
0.256931 0.340352 0.48687
0.538277 0.35697 0.540627
0.708812 0.382467 0.542718
0.852506 0.365225 0.535088
0.979934 0.391012 0.552163
0.994415 0.389807 0.551873
0.00747692 0.435492 0.464744
0.0099031 0.46302 0.492332
0.0120699 0.48571 0.513161
0.0218051 0.530068 0.554208
0.54757 0.574701 0.582315
0.74078 0.559655 0.562875
0.894942 0.53109 0.544289
1 0.523796 0.555215
1 0.515785 0.55491
0.0245823 0.628244 0.505486
0.0270237 0.645716 0.522271
0.026688 0.643565 0.519829
0.0296788 0.668635 0.531289
0.474205 0.703075 0.574609
0.703349 0.719127 0.59382
0.889326 0.69926 0.597574
1 0.664546 0.574212
1 0.6448 0.568505
0.0371252 0.789883 0.511864
0.0372625 0.802731 0.525521
0.0371252 0.797452 0.523232
0.0417792 0.801251 0.518685
0.480598 0.821424 0.562692
0.666789 0.833051 0.604334
0.823514 0.839826 0.611368
0.986526 0.820157 0.624475
1 0.805722 0.638331
0.12047 0.920607 0.495094
0.126879 0.927504 0.506874
0.106889 0.921447 0.505501
0.312108 0.920317 0.523232
0.558984 0.921263 0.567727
0.693019 0.928298 0.618601
0.776638 0.942046 0.654795
0.904952 0.945205 0.672236
0.991287 0.932036 0.663249
0.2177 0.941558 0.49958
0.198505 0.941772 0.510292
0.193683 0.942 0.513176
0.416205 0.95137 0.540078
0.604685 0.959243 0.589349
0.715282 0.968414 0.639994
0.791318 0.985046 0.680888
0.859663 1 0.710658
0.947188 1 0.730877
0 0.0148013 0.393332
0 0.0148165 0.389502
0 0.0148165 0.40061
0.203189 0.00932326 0.492744
0.415732 0.00448615 0.518456
0.576394 0.002121 0.529519
0.690394 0.0859388 0.516899
0.827893 0.075639 0.518975
0.928267 0.114031 0.530861
0 0.0148013 0.39353
0 0.0148013 0.399695
0 0.0155337 0.432975
0.258534 0.007187 0.525765
0.465141 0.00367742 0.550698
0.624445 0.00155642 0.567285
0.732845 0.104234 0.558358
0.86923 0.122377 0.565621
0.930266 0.148165 0.574777
0 0.0429694 0.422843
0 0.0575265 0.429618
0 0.0881208 0.461891
0.277729 0.106737 0.554803
0.507561 0.1037 0.59266
0.673121 0.112932 0.619684
0.783825 0.235233 0.609613
0.925994 0.256825 0.618479
0.957458 0.268528 0.624537
0 0.231403 0.47718
0 0.258 0.499077
0 0.289219 0.527153
0.222873 0.344762 0.573495
0.536645 0.370489 0.640055
0.713069 0.387976 0.680766
0.848966 0.43653 0.671
0.979278 0.430213 0.658427
0.996902 0.422797 0.653178
0.0141146 0.434531 0.573373
0.0169375 0.461295 0.598581
0.0187686 0.475853 0.61622
0.0708476 0.524193 0.668956
0.528908 0.567102 0.678172
0.719646 0.571847 0.706035
0.872572 0.565133 0.683146
1 0.549813 0.668437
1 0.542214 0.662379
0.036408 0.637125 0.65211
0.0382696 0.652995 0.667659
0.0384527 0.648264 0.666239
0.0404822 0.669779 0.683299
0.321996 0.698573 0.707347
0.712932 0.726299 0.724987
0.884916 0.706233 0.698726
1 0.680552 0.685649
1 0.666133 0.679591
0.0381323 0.80351 0.652308
0.0380102 0.815595 0.662867
0.037705 0.808362 0.659327
0.038117 0.805631 0.656748
0.309758 0.829847 0.674266
0.663935 0.845731 0.708125
0.825864 0.84654 0.723507
0.971206 0.826413 0.732372
1 0.814908 0.718059
0.0309453 0.929763 0.631937
0.034165 0.935271 0.64007
0.030869 0.927169 0.640467
0.0863203 0.92369 0.639887
0.453696 0.933471 0.663661
0.665995 0.939101 0.704952
0.788663 0.946059 0.744488
0.908156 0.949035 0.759274
0.991318 0.936736 0.752117
0.047013 0.944472 0.6224
0.0429236 0.944656 0.632944
0.0423438 0.944656 0.634775
0.236774 0.958206 0.644038
0.523018 0.97113 0.675502
0.686 0.980713 0.718349
0.794095 0.991104 0.761318
0.860121 1 0.785748
0.948882 1 0.802472
0 0.0163577 0.476448
0 0.0162966 0.473732
0 0.0162203 0.469535
0.135988 0.00915541 0.577142
0.401251 0.00624094 0.618799
0.579095 0.00268559 0.639307
0.722286 0.000793469 0.650278
0.813733 0.160128 0.635111
0.916762 0.224781 0.642908
0 0.016434 0.479774
0 0.0165713 0.486213
0 0.0168154 0.501274
0.213474 0.00794995 0.617746
0.458808 0.00383001 0.65539
0.628412 0.00180056 0.677104
0.770443 0.00296025 0.694728
0.860685 0.200427 0.687083
0.930129 0.298665 0.704295
0 0.0233768 0.499123
0 0.0369573 0.5075
0 0.0613107 0.525597
0.224033 0.0917983 0.641978
0.498222 0.110933 0.690715
0.666362 0.120241 0.725078
0.809659 0.150317 0.750469
0.925078 0.336889 0.757275
0.957305 0.377523 0.762448
0 0.226719 0.549706
0 0.254566 0.567163
0 0.281544 0.585275
0.170138 0.341497 0.656565
0.525139 0.380743 0.743175
0.701045 0.402502 0.788952
0.855055 0.394934 0.818967
0.972061 0.485359 0.802731
0.991028 0.49456 0.792157
0.0140688 0.445182 0.667597
0.0178531 0.471839 0.699016
0.0191043 0.47892 0.710796
0.087953 0.524254 0.762463
0.509544 0.561135 0.784207
0.707561 0.571801 0.822538
0.861891 0.564401 0.843824
0.995285 0.590738 0.817105
1 0.585428 0.803418
0.0465553 0.631739 0.77612
0.0489357 0.649104 0.799008
0.0491951 0.646082 0.800595
0.0507515 0.660105 0.821317
0.439673 0.691157 0.835676
0.687861 0.715068 0.8392
0.85742 0.711772 0.854551
0.995239 0.700526 0.825559
1 0.688273 0.809476
0.0469215 0.807385 0.805844
0.046891 0.819272 0.818402
0.0475013 0.811902 0.815076
0.0474556 0.807279 0.810864
0.125582 0.814267 0.820584
0.591379 0.845533 0.844358
0.822095 0.851637 0.845579
0.958114 0.833448 0.823972
1 0.820188 0.812802
0.028275 0.935592 0.769726
0.0274815 0.939483 0.775769
0.0289769 0.93193 0.772641
0.0339361 0.922225 0.767254
0.290379 0.932784 0.780331
0.580941 0.948913 0.805936
0.782788 0.952056 0.838788
0.900465 0.954574 0.852201
0.98555 0.941543 0.859602
0.0269932 0.942473 0.756466
0.0268864 0.942336 0.763607
0.0269017 0.942382 0.761669
0.0734417 0.95317 0.7617
0.395834 0.97615 0.777951
0.613519 0.993072 0.803403
0.770108 1 0.842161
0.860182 1 0.871733
0.948486 1 0.879835
0 0.0177157 0.561608
0 0.0176852 0.559762
0 0.0175021 0.550759
0.0132448 0.0162356 0.635691
0.376226 0.0065919 0.722103
0.569451 0.00729381 0.755489
0.721279 0.00149538 0.771847
0.847623 0.0204623 0.780209
0.91545 0.205905 0.777188
0 0.0178683 0.569177
0 0.0180362 0.577691
0 0.0181125 0.58085
0.109087 0.0117189 0.700679
0.444099 0.0138247 0.768795
0.619913 0.0119326 0.799466
0.765484 0.0131991 0.818799
0.888167 0.062562 0.837018
0.937499 0.149523 0.840574
0 0.0199741 0.580896
0 0.0283665 0.590906
0 0.0426032 0.601312
0.128191 0.0800183 0.721645
0.477668 0.118883 0.800107
0.649332 0.14667 0.843061
0.795514 0.179034 0.873518
0.934722 0.239628 0.908431
0.96289 0.257755 0.913207
0 0.224582 0.629801
0 0.256687 0.647944
0 0.278202 0.659724
0.0925917 0.340917 0.740658
0.49662 0.375631 0.855497
0.68423 0.424186 0.907591
0.831464 0.429618 0.942504
0.973159 0.430564 0.966171
0.993362 0.416129 0.957946
0.00579843 0.457176 0.76257
0.0115816 0.485893 0.799756
0.0110475 0.486931 0.804257
0.0822766 0.519661 0.842573
0.48455 0.551904 0.897231
0.683787 0.573953 0.949386
0.840223 0.580163 0.974563
0.987152 0.564446 0.991135
1 0.547494 0.981247
0.0504158 0.648219 0.908171
0.0521401 0.663233 0.929046
0.0516823 0.659403 0.927153
0.0518349 0.659037 0.944656
0.462562 0.694575 0.939605
0.669841 0.707729 0.967681
0.839521 0.713726 0.982071
0.974746 0.701442 0.990372
1 0.683787 0.979889
0.0594339 0.796826 0.951263
0.0594186 0.809171 0.96582
0.0595102 0.803784 0.964202
0.0598154 0.792538 0.95906
0.317769 0.808652 0.969009
0.639567 0.830106 0.964004
0.799741 0.839796 0.950301
0.930526 0.837613 0.959625
0.993759 0.823896 0.951965
0.0359808 0.932113 0.925963
0.0354467 0.934112 0.93135
0.03682 0.928878 0.927031
0.0396124 0.917296 0.918929
0.167254 0.920882 0.925353
0.518761 0.938918 0.939941
0.744915 0.951507 0.954437
0.899382 0.954681 0.955322
0.982742 0.945846 0.944549
0.03299 0.936584 0.903914
0.0334173 0.936141 0.908766
0.0327916 0.936767 0.901717
0.0397955 0.943267 0.892531
0.321111 0.965423 0.895872
0.548287 0.9879 0.910018
0.733166 1 0.933867
0.871046 1 0.955764
0.944411 1 0.962966
0 0.0185092 0.614481
0 0.0185092 0.614481
0 0.0185092 0.614481
0 0.024033 0.693919
0.343572 0.0126802 0.80708
0.55935 0.0367895 0.852888
0.70927 0.0391089 0.873579
0.838285 0.0623484 0.88191
0.923278 0.114076 0.889937
0 0.0185092 0.614481
0 0.0185092 0.614481
0 0.0184939 0.615244
0.0487221 0.0206149 0.734966
0.424079 0.0259709 0.831876
0.608682 0.0435035 0.870375
0.752331 0.0555123 0.891371
0.879133 0.0914168 0.900664
0.939742 0.142794 0.906264
0 0.0220035 0.629526
0 0.0312352 0.635233
0 0.0420081 0.643473
0.0716106 0.0917678 0.762448
0.461082 0.120684 0.858
0.636103 0.169512 0.895232
0.782422 0.191363 0.915663
0.922667 0.240528 0.93431
0.964263 0.268818 0.941711
0 0.235462 0.683421
0 0.266285 0.693065
0 0.284337 0.704616
0.0657664 0.346746 0.792767
0.46833 0.369284 0.903059
0.670314 0.425971 0.950118
0.814664 0.430121 0.971649
0.955474 0.428305 0.983474
0.993713 0.429786 0.984878
0.000335698 0.460822 0.798001
0.00654612 0.479942 0.811154
0.00590524 0.47808 0.809812
0.0649882 0.510643 0.861112
0.458457 0.543893 0.92932
0.663279 0.562768 0.98262
0.823575 0.579187 1
0.969055 0.567361 1
1 0.563378 1
0.047776 0.637049 0.914717
0.0498054 0.649271 0.92166
0.0493629 0.644663 0.919188
0.0483558 0.643702 0.936065
0.447059 0.683268 0.951705
0.655421 0.69778 0.997772
0.824933 0.707958 1
0.958556 0.700954 1
1 0.692409 1
0.0600443 0.788724 0.966308
0.0594339 0.798047 0.965911
0.0600443 0.793057 0.966369
0.0603799 0.781598 0.973632
0.352316 0.801266 0.994278
0.633204 0.823896 0.989639
0.786831 0.831662 1
0.918669 0.833204 1
0.982559 0.831128 1
0.0413825 0.921752 0.95906
0.0401617 0.925795 0.95848
0.0424964 0.918532 0.95967
0.0466011 0.904509 0.965484
0.0963912 0.904356 0.984375
0.527443 0.924407 1
0.748074 0.937591 1
0.88629 0.94789 1
0.970199 0.949615 1
0.0381323 0.931517 0.957382
0.0381323 0.931517 0.957382
0.0381323 0.931517 0.957382
0.0368963 0.935866 0.963073
0.216114 0.953033 0.977722
0.518456 0.976562 0.994263
0.706874 0.997787 1
0.860563 1 1
0.959991 1 1
