src/assets/luts/日系配方/TR卷.cube
LUT_3D_SIZE 17
0.0273594 0.0300145 0.0295567
0.0273594 0.0300145 0.0295567
0.0383917 0.0298009 0.0292821
0.071107 0.0285191 0.0280156
0.114794 0.0260319 0.0270085
0.166003 0.0226596 0.0247654
0.234836 0.0227512 0.0178073
0.319371 0.0216526 0.0143587
0.399496 0.0180056 0.0108186
0.474968 0.0137331 0.00733959
0.556069 0.00791943 0.00741588
0.628 0.00547799 0
0.708385 0.00227359 0.0109407
0.787045 0.0047303 0.0312963
0.857862 0.0151217 0.0826429
0.920592 0.0462959 0.148287
0.937194 0.0625925 0.174823
0.0273594 0.0300145 0.0295567
0.0273747 0.0300298 0.029572
0.0356909 0.0298772 0.0293736
0.0693217 0.0285649 0.0280919
0.115526 0.0259861 0.026978
0.171542 0.022446 0.0244602
0.246296 0.0228428 0.0175021
0.335225 0.0213169 0.0140993
0.416632 0.0173648 0.0103151
0.495201 0.0116274 0.0059968
0.575006 0.00740063 0.000793469
0.654917 0.00383001 0.0101015
0.730114 0 0.0139467
0.811917 0.00619516 0.0435645
0.884153 0.0226596 0.104936
0.937194 0.0625925 0.174823
0.937194 0.0625925 0.174823
0.0226902 0.0381476 0.0284123
0.0220798 0.0395514 0.0281071
0.0372015 0.0413519 0.0282597
0.0776532 0.0362097 0.0270848
0.124132 0.0287327 0.0253147
0.177722 0.0222477 0.0241703
0.256458 0.0229343 0.0170901
0.347616 0.0208743 0.013489
0.430091 0.0167086 0.00973526
0.510552 0.0106355 0.00482185
0.5888 0.00701915 0.000244144
0.665949 0.00575265 0
0.745251 0.00163272 0.0159457
0.823987 0.00717174 0.0513619
0.895186 0.0287633 0.117556
0.937194 0.0625925 0.174823
0.937194 0.0625925 0.174823
0.0227665 0.059617 0.0252232
0.0230411 0.0622416 0.0249332
0.028336 0.0659342 0.0254826
0.0716259 0.0707256 0.026566
0.135668 0.0675975 0.0310979
0.210788 0.0557107 0.0200809
0.291905 0.0428016 0.0160983
0.375982 0.0291447 0.0120394
0.448783 0.0197147 0.00851453
0.524269 0.0107729 0.00479133
0.597787 0.00747692 0.000595102
0.677882 0.00184634 0.00953689
0.75404 0.00259403 0.0182193
0.832898 0.0087129 0.0592203
0.904067 0.0332036 0.127184
0.937194 0.0625925 0.174823
0.937194 0.0625925 0.174823
0.0192721 0.0902571 0.0271916
0.0181582 0.0952621 0.0280003
0.0167239 0.0986801 0.0283055
0.0350652 0.108659 0.033753
0.119844 0.115373 0.0322423
0.223972 0.108385 0.0386206
0.30605 0.0979171 0.0272679
0.402243 0.0822614 0.0142824
0.487831 0.0691386 0.00573739
0.570306 0.0557717 0.0019379
0.64828 0.0432593 0
0.719036 0.0393835 0.000274662
0.792874 0.0413062 0.013611
0.868132 0.0534066 0.073106
0.935164 0.0933242 0.1561
0.953246 0.115541 0.190265
0.953094 0.114855 0.190127
0.00891127 0.132052 0.0317235
0.0074464 0.139864 0.0324102
0.00656138 0.145769 0.0323796
0.0168765 0.157214 0.0347601
0.052369 0.175311 0.0394598
0.190692 0.183825 0.0332647
0.347478 0.170825 0.0366827
0.413993 0.170184 0.0317845
0.492149 0.163272 0.0174105
0.571801 0.153262 0.00668345
0.653727 0.139574 0.000259403
0.735348 0.127031 0
0.811933 0.128801 0.0121157
0.886702 0.141085 0.0634928
0.950103 0.188418 0.157519
0.962173 0.200702 0.183932
0.96231 0.198886 0.184497
0.0043946 0.19469 0.0334478
0.00407416 0.206806 0.0329747
0.00395209 0.216831 0.032929
0.00376898 0.229221 0.033051
0.0299687 0.251423 0.0375982
0.0946212 0.270481 0.0379034
0.28719 0.283375 0.0242924
0.481056 0.269352 0.021622
0.543725 0.275792 0.0357061
0.611551 0.274693 0.03682
0.675288 0.270085 0.026215
0.738781 0.261295 0.0208743
0.809247 0.252171 0.0290379
0.888655 0.254292 0.0741283
0.960601 0.281758 0.164584
0.967758 0.280247 0.178164
0.967819 0.275792 0.179004
0.00250248 0.276738 0.0303044
0.00244144 0.292515 0.0295109
0.00241093 0.304875 0.0286717
0.00222782 0.316548 0.0276341
0.0168765 0.339635 0.027985
0.0726329 0.362402 0.0348363
0.189075 0.378866 0.030457
0.394644 0.402319 0.0146181
0.588876 0.406073 0.0185092
0.673091 0.413275 0.035935
0.743526 0.409445 0.0575723
0.805875 0.39791 0.0771801
0.858289 0.386969 0.0953384
0.908537 0.377874 0.117861
0.96849 0.380331 0.188586
0.970611 0.367971 0.189899
0.970459 0.360586 0.187915
0.00180056 0.370764 0.0222629
0.0015259 0.388067 0.0201267
0.00172427 0.401999 0.0186618
0.00181582 0.413367 0.0167239
0.0213474 0.434073 0.015671
0.0994888 0.456001 0.0258946
0.176867 0.47602 0.0322728
0.336034 0.496406 0.035111
0.521462 0.528878 0.0309606
0.690211 0.534966 0.0357061
0.773327 0.532403 0.0444495
0.845594 0.515175 0.0745708
0.905425 0.495506 0.128099
0.954345 0.479377 0.178882
0.988724 0.475578 0.229618
0.985031 0.463584 0.222766
0.982605 0.45481 0.218402
0.00238041 0.469505 0.0112764
0.00326543 0.487709 0.00944533
0.00428778 0.50164 0.00953689
0.00500496 0.511635 0.010071
0.0323186 0.526253 0.0107271
0.152865 0.547463 0.0256046
0.238865 0.566735 0.0444495
0.328328 0.581827 0.052079
0.461845 0.597238 0.057145
0.61706 0.625666 0.0484169
0.784985 0.623758 0.0502937
0.855085 0.618357 0.0522316
0.926986 0.59588 0.110887
0.988357 0.57174 0.215213
1 0.558846 0.282277
1 0.547967 0.275837
1 0.539528 0.271031
0.0137026 0.572122 0.011902
0.0191348 0.588891 0.0142977
0.0253758 0.600809 0.0155337
0.0271458 0.607126 0.0154879
0.0612955 0.615061 0.0182803
0.204089 0.630732 0.0329442
0.302068 0.644434 0.0531472
0.373236 0.656474 0.0702678
0.449744 0.668116 0.0800793
0.558129 0.681987 0.0906081
0.701732 0.708644 0.0669413
0.86392 0.700008 0.070161
0.926284 0.694774 0.0847944
0.996735 0.66891 0.193698
1 0.648203 0.317983
1 0.636683 0.314992
1 0.627817 0.312428
0.0822461 0.669032 0.0233463
0.104479 0.682963 0.0264744
0.115877 0.691829 0.0302129
0.122042 0.696544 0.0312963
0.124483 0.698238 0.0315099
0.251484 0.708217 0.0388647
0.369985 0.718791 0.0590677
0.441596 0.729549 0.0881208
0.499733 0.739818 0.109133
0.56144 0.74992 0.121416
0.657145 0.763714 0.144457
0.77705 0.784024 0.124895
0.921599 0.768338 0.15108
0.975769 0.760693 0.181445
1 0.740826 0.285328
1 0.726421 0.310384
1 0.717281 0.313863
0.227924 0.758389 0.040116
0.254231 0.771466 0.043473
0.268574 0.77882 0.0464332
0.276402 0.782773 0.0478676
0.277867 0.783383 0.0478218
0.329595 0.785916 0.0518959
0.444968 0.793988 0.0739147
0.51281 0.802075 0.110628
0.567529 0.811231 0.149844
0.612772 0.819318 0.180652
0.662135 0.826169 0.206912
0.734676 0.8336 0.248814
0.833646 0.84445 0.249241
0.957 0.826368 0.279057
1 0.818463 0.313817
1 0.812894 0.31664
1 0.805341 0.309483
0.388602 0.841505 0.0652628
0.407965 0.852964 0.0717479
0.418692 0.859236 0.0753643
0.42356 0.862028 0.0769207
0.423713 0.862104 0.0769665
0.424308 0.859571 0.0763561
0.520119 0.863218 0.102571
0.580118 0.866972 0.146685
0.623102 0.873396 0.199268
0.660044 0.879622 0.246052
0.692485 0.884276 0.287892
0.730144 0.88838 0.33164
0.792645 0.892409 0.380697
0.874372 0.89807 0.393744
0.966445 0.885939 0.397253
1 0.874601 0.418051
1 0.868894 0.411643
0.521721 0.911574 0.110506
0.538827 0.919738 0.118013
0.544869 0.923232 0.122377
0.547005 0.924529 0.123934
0.545281 0.923491 0.122683
0.538689 0.919646 0.117906
0.587762 0.919188 0.147601
0.630869 0.920317 0.195972
0.665415 0.924407 0.255238
0.695766 0.930007 0.310109
0.724407 0.935302 0.357809
0.752148 0.938643 0.400244
0.787945 0.942016 0.443168
0.84448 0.944518 0.48632
0.903075 0.94725 0.494453
0.960861 0.941482 0.484413
0.966873 0.933761 0.475319
0.555474 0.929732 0.129915
0.555474 0.929732 0.129915
0.555474 0.929732 0.129915
0.555474 0.929732 0.129915
0.555474 0.929732 0.129915
0.555474 0.929732 0.129915
0.604715 0.934386 0.165454
0.650202 0.939773 0.221653
0.685573 0.94699 0.286122
0.713161 0.954818 0.342992
0.742855 0.963012 0.392905
0.772961 0.971435 0.439673
0.802533 0.980468 0.482444
0.839338 0.98529 0.521096
0.8822 0.986511 0.547158
0.921996 0.986786 0.558129
0.932158 0.981735 0.548699
0.555474 0.929732 0.129915
0.555474 0.929732 0.129915
0.555474 0.929732 0.129915
0.555474 0.929732 0.129915
0.555474 0.929732 0.129915
0.555474 0.929732 0.129915
0.608133 0.934661 0.168246
0.652003 0.940017 0.224903
0.686488 0.947219 0.287846
0.713268 0.954803 0.34316
0.742382 0.962875 0.391959
0.770916 0.970779 0.436316
0.799329 0.979614 0.478599
0.83386 0.988556 0.519341
0.87364 0.994827 0.55198
0.910033 0.999176 0.57113
0.926833 1 0.575296
0.0273442 0.029984 0.0297093
0.0273594 0.0300145 0.0295567
0.0385748 0.0298009 0.0293584
0.0699626 0.0285496 0.0280766
0.113542 0.0261082 0.0270237
0.164904 0.0227054 0.0248264
0.234455 0.0227512 0.0178225
0.31957 0.0216373 0.0143587
0.39971 0.0179904 0.0108034
0.475288 0.0137331 0.00733959
0.557061 0.0078584 0.00730907
0.629343 0.00535592 0
0.710063 0.00221256 0.010956
0.788846 0.00491341 0.0322423
0.858976 0.0154421 0.0838026
0.921904 0.0473487 0.149966
0.937194 0.0625925 0.174823
0.0273594 0.0300145 0.0295567
0.0273899 0.030045 0.0295872
0.0353246 0.0298772 0.0293889
0.0687572 0.0285954 0.0281224
0.115496 0.0259861 0.026978
0.172412 0.0224308 0.024445
0.248096 0.0228428 0.0174411
0.33756 0.0212558 0.0140078
0.419211 0.0172885 0.0102693
0.498604 0.0114137 0.00573739
0.578378 0.00724804 0.000595102
0.654704 0.00630198 0
0.73492 0 0.0149081
0.813718 0.00631724 0.044419
0.885695 0.0234989 0.106722
0.937194 0.0625925 0.174823
0.937194 0.0625925 0.174823
0.0225834 0.038407 0.0283665
0.021973 0.0397192 0.0280461
0.0376593 0.0420844 0.0281376
0.0782025 0.0373083 0.0270848
0.126253 0.0293584 0.0250858
0.177676 0.0222477 0.0241703
0.256641 0.0229343 0.0170748
0.348363 0.020798 0.0133974
0.430686 0.0166781 0.00970474
0.512032 0.010544 0.00469978
0.589929 0.00708019 0.000289921
0.667277 0.00555428 0
0.74757 0.00224308 0.0161898
0.825803 0.00746166 0.0528878
0.897108 0.0298161 0.119707
0.937194 0.0625925 0.174823
0.937194 0.0625925 0.174823
0.0229038 0.0602274 0.0252232
0.0229953 0.0627756 0.0247501
0.0293889 0.0671092 0.0259251
0.0725261 0.0723583 0.0267643
0.138125 0.0693217 0.031693
0.213977 0.0577401 0.0206607
0.295842 0.0445411 0.0161898
0.37969 0.0309758 0.0121004
0.453635 0.0215 0.00831617
0.528389 0.0115511 0.00469978
0.598535 0.00753796 0.000640879
0.679805 0.00144961 0.0096437
0.754818 0.002533 0.0185092
0.834562 0.00898756 0.0606851
0.905089 0.0339666 0.128695
0.937194 0.0625925 0.174823
0.937194 0.0625925 0.174823
0.0191196 0.0915236 0.0274815
0.0174563 0.0965591 0.0279698
0.0170748 0.100267 0.0285954
0.0361639 0.110811 0.034226
0.122194 0.118029 0.0326085
0.227756 0.110414 0.0385443
0.309697 0.101244 0.0278477
0.405997 0.0856947 0.0145724
0.491569 0.0727855 0.00619516
0.57438 0.0594339 0.0016022
0.652293 0.0465248 0
0.722576 0.0427253 0
0.796689 0.0463264 0.0141909
0.870878 0.058381 0.0745098
0.937499 0.0991531 0.157961
0.953826 0.120592 0.190158
0.953735 0.120012 0.190219
0.00843824 0.134264 0.0318761
0.00714122 0.142199 0.0324407
0.00633249 0.148608 0.0325475
0.0183261 0.160937 0.0351568
0.05449 0.179706 0.039765
0.193912 0.188556 0.0328069
0.354498 0.17499 0.0356603
0.419623 0.174701 0.0322728
0.496864 0.168978 0.0182345
0.575418 0.158953 0.00738537
0.65655 0.146242 0.000396735
0.738491 0.133013 0.000793469
0.814145 0.134401 0.0135653
0.889952 0.147127 0.0666209
0.952605 0.195575 0.16228
0.962753 0.204456 0.183825
0.96231 0.202457 0.183795
0.00396735 0.19762 0.0329595
0.0037995 0.210269 0.0327153
0.00354009 0.220264 0.0324712
0.00393683 0.234302 0.0328222
0.0320897 0.257023 0.0377356
0.0975814 0.276158 0.0376898
0.291783 0.289265 0.0236667
0.486778 0.276081 0.0209659
0.549615 0.28127 0.0354162
0.618265 0.281453 0.037705
0.681453 0.275914 0.027863
0.743709 0.268238 0.022797
0.81416 0.259007 0.0328985
0.891585 0.260624 0.0770428
0.963394 0.287312 0.169894
0.967803 0.283207 0.177554
0.968002 0.278294 0.178698
0.00268559 0.281178 0.0303655
0.00222782 0.296529 0.0290532
0.00201419 0.3093 0.0279545
0.00199893 0.322148 0.0268711
0.0195926 0.345312 0.0280766
0.0784161 0.368414 0.0345159
0.1935 0.384894 0.0299992
0.401175 0.408652 0.0148013
0.592035 0.414313 0.0186465
0.67924 0.420294 0.0370031
0.748287 0.415045 0.0581826
0.811353 0.404028 0.0799878
0.862959 0.391745 0.098497
0.912825 0.383062 0.122133
0.971496 0.385245 0.193469
0.970764 0.371405 0.190555
0.970703 0.363622 0.188891
0.00166323 0.375357 0.0216373
0.00181582 0.393225 0.0198215
0.00201419 0.406683 0.0180667
0.00202945 0.419043 0.0157626
0.0263066 0.439643 0.0155795
0.103868 0.461082 0.0261387
0.182681 0.481697 0.032929
0.343069 0.501854 0.0353552
0.52491 0.534325 0.0319371
0.693645 0.539681 0.0367285
0.776822 0.536202 0.0446937
0.848814 0.518868 0.0743114
0.909621 0.49929 0.130999
0.95787 0.482795 0.183185
0.989746 0.478416 0.231189
0.985977 0.466651 0.224445
0.983154 0.45771 0.219623
0.0027924 0.475013 0.010956
0.00332647 0.49218 0.00872816
0.00447089 0.506157 0.00962844
0.00514229 0.515663 0.0101167
0.0386511 0.530938 0.0102235
0.162905 0.551736 0.0264286
0.244282 0.570291 0.045243
0.333211 0.585412 0.0522316
0.465003 0.600671 0.0573281
0.619348 0.62945 0.0492256
0.78819 0.626551 0.0510719
0.857816 0.622049 0.0530861
0.929976 0.598688 0.11281
0.991638 0.575021 0.219318
1 0.561883 0.283986
1 0.550866 0.277684
1 0.541955 0.272236
0.0148165 0.576852 0.012665
0.02121 0.593439 0.0145266
0.0269474 0.604364 0.0158389
0.0281682 0.610788 0.0157473
0.0692607 0.619394 0.0200046
0.211749 0.633722 0.033463
0.306935 0.64712 0.0531014
0.379416 0.660349 0.0721447
0.453788 0.671 0.0807813
0.561242 0.685145 0.0928054
0.703868 0.711513 0.0688487
0.866865 0.702739 0.0704814
0.92784 0.698009 0.0868391
0.998871 0.672236 0.196841
1 0.650889 0.318502
1 0.639826 0.315892
1 0.631098 0.31342
0.0895857 0.672862 0.0233921
0.10869 0.686488 0.0280156
0.1196 0.69485 0.0310826
0.127047 0.700191 0.0317998
0.128283 0.701015 0.0318456
0.259785 0.71136 0.0403754
0.375723 0.722148 0.0610056
0.445487 0.732479 0.0897688
0.504356 0.74316 0.111696
0.5664 0.753811 0.124163
0.660395 0.766995 0.147799
0.778927 0.786587 0.129061
0.923278 0.77116 0.155428
0.976944 0.763119 0.186404
1 0.743145 0.287526
1 0.729671 0.309239
1 0.719753 0.312825
0.234897 0.761883 0.0406348
0.260014 0.774426 0.0444953
0.275059 0.782284 0.0479438
0.282551 0.785672 0.048188
0.283635 0.786267 0.0482948
0.34229 0.789578 0.0534981
0.451713 0.796719 0.0762036
0.517678 0.804685 0.113787
0.571557 0.813931 0.152514
0.616403 0.822156 0.183795
0.664607 0.828672 0.210681
0.736843 0.836042 0.252964
0.834714 0.846296 0.255116
0.956695 0.828489 0.283131
1 0.820661 0.318135
1 0.814954 0.319768
1 0.807614 0.311559
0.394141 0.844923 0.0669718
0.412726 0.855863 0.0732738
0.423102 0.861769 0.0767529
0.427466 0.864317 0.0781872
0.427176 0.864149 0.0780957
0.432471 0.861585 0.0784009
0.526711 0.865339 0.105257
0.585321 0.869322 0.150759
0.626612 0.87541 0.203677
0.662577 0.881468 0.249958
0.694697 0.886412 0.291981
0.731182 0.890089 0.334981
0.793973 0.893919 0.384192
0.874662 0.899901 0.39794
0.965438 0.887495 0.398901
1 0.876112 0.419684
1 0.870573 0.41355
0.527108 0.913909 0.112917
0.542473 0.921874 0.120516
0.548135 0.925216 0.124498
0.549554 0.925978 0.125719
0.547433 0.924788 0.123735
0.540825 0.920943 0.119463
0.592325 0.920531 0.151186
0.633738 0.921431 0.200046
0.66807 0.925917 0.259815
0.697856 0.931579 0.313924
0.726177 0.936568 0.360891
0.753704 0.9402 0.403143
0.789334 0.943648 0.445716
0.845121 0.945769 0.488167
0.902724 0.948028 0.496025
0.960098 0.94258 0.485878
0.965988 0.934813 0.4766
0.555474 0.929732 0.129915
0.555474 0.929732 0.129915
0.555474 0.929732 0.129915
0.555474 0.929732 0.129915
0.555474 0.929732 0.129915
0.555474 0.929732 0.129915
0.607813 0.934661 0.168032
0.652277 0.940108 0.225376
0.687297 0.947448 0.289403
0.714458 0.955047 0.345251
0.743725 0.963211 0.394339
0.773495 0.971588 0.440558
0.802853 0.980545 0.482856
0.839536 0.98558 0.521492
0.882139 0.986816 0.547539
0.921614 0.986831 0.558267
0.932067 0.982086 0.549203
0.555474 0.929732 0.129915
0.555474 0.929732 0.129915
0.555474 0.929732 0.129915
0.555474 0.929732 0.129915
0.555474 0.929732 0.129915
0.555474 0.929732 0.129915
0.611612 0.935073 0.171466
0.654398 0.940505 0.229267
0.688243 0.947692 0.291402
0.714748 0.955123 0.345708
0.743267 0.963134 0.393591
0.77145 0.970932 0.437201
0.799451 0.979629 0.478737
0.833951 0.988632 0.519448
0.873472 0.994781 0.551843
0.909545 0.999115 0.570962
0.926833 1 0.575296
0.0244907 0.0282597 0.0395666
0.0246586 0.0283665 0.0391089
0.03888 0.0273899 0.0415808
0.070573 0.0281834 0.0360418
0.112673 0.0261082 0.0290837
0.162585 0.022797 0.0248875
0.232441 0.0228428 0.0179904
0.317189 0.0217136 0.0144045
0.398062 0.0181277 0.0109255
0.474296 0.0137331 0.00732433
0.556146 0.00791943 0.00740063
0.628962 0.00538643 0
0.710063 0.00221256 0.010956
0.78851 0.00488289 0.0320897
0.858763 0.0153506 0.0835584
0.921401 0.0469368 0.149325
0.937194 0.0625925 0.174823
0.0243687 0.0293278 0.0387732
0.0249638 0.0291905 0.0372778
0.0364691 0.027924 0.0396124
0.0703441 0.0281987 0.0357519
0.11577 0.0259251 0.029633
0.171344 0.022446 0.0244755
0.246723 0.0228428 0.0174868
0.336461 0.0212863 0.0140383
0.418341 0.017319 0.0102998
0.497795 0.0114443 0.00578317
0.57792 0.00727855 0.00062562
0.654185 0.00630198 0
0.73492 0 0.0149081
0.813428 0.00628672 0.0443275
0.885206 0.02327 0.106172
0.937194 0.0625925 0.174823
0.937194 0.0625925 0.174823
0.018616 0.0411231 0.040238
0.0181888 0.0422217 0.0417029
0.0379339 0.0450752 0.0444953
0.0812848 0.0406195 0.0396735
0.12813 0.0310674 0.0323186
0.180438 0.0228275 0.0261082
0.25684 0.0229343 0.0170596
0.348898 0.0207218 0.0133211
0.432197 0.0165866 0.00961318
0.515175 0.00947585 0.00900282
0.591379 0.00714122 0.000320439
0.673594 0.00271611 0.00921645
0.749386 0.00289921 0.016434
0.828244 0.00796521 0.055375
0.899245 0.0306859 0.122103
0.937194 0.0625925 0.174823
0.937194 0.0625925 0.174823
0.0162203 0.063798 0.0339971
0.0149081 0.0674907 0.0380255
0.0243381 0.0718242 0.0428016
0.0687877 0.0765087 0.0454566
0.138567 0.0719158 0.043473
0.2206 0.0581369 0.0279088
0.296712 0.0460975 0.016495
0.380026 0.0332341 0.0123445
0.453361 0.0233005 0.00794995
0.530358 0.013077 0.00427253
0.599954 0.00796521 0.00108339
0.678843 0.00164797 0.00958267
0.75581 0.00247196 0.0188907
0.834302 0.00894179 0.0604562
0.905257 0.0341497 0.128954
0.937194 0.0625925 0.174823
0.937194 0.0625925 0.174823
0.0173953 0.0929885 0.0299229
0.0135348 0.0988785 0.0344854
0.0130617 0.104616 0.0399481
0.0381018 0.115572 0.0483253
0.120897 0.12192 0.0438392
0.226963 0.115297 0.0480964
0.313344 0.104265 0.0319371
0.407797 0.0885328 0.0155184
0.493446 0.0762493 0.00630198
0.575738 0.062974 0.00170901
0.654002 0.0500954 0
0.724392 0.0466926 0
0.797391 0.0500801 0.0136263
0.871382 0.0628061 0.0742199
0.937407 0.103471 0.156725
0.954833 0.125872 0.190784
0.954787 0.125551 0.190753
0.00814832 0.135515 0.0319524
0.00663767 0.14342 0.0321355
0.00595102 0.150576 0.0352789
0.0196384 0.166049 0.0425116
0.0571145 0.185122 0.0470283
0.196948 0.19266 0.0358587
0.357259 0.179568 0.0402533
0.423865 0.179324 0.0348058
0.499687 0.173251 0.0200961
0.578515 0.164141 0.00921645
0.658534 0.151003 0.00170901
0.739666 0.137682 0.00183108
0.815686 0.139773 0.0151064
0.89099 0.151507 0.0677653
0.954513 0.200626 0.164996
0.963226 0.208225 0.18349
0.96286 0.20531 0.183749
0.00396735 0.200061 0.0329137
0.0037995 0.212634 0.0327306
0.00354009 0.222797 0.0324102
0.0041352 0.238819 0.0356451
0.0355993 0.26215 0.0420844
0.101518 0.280491 0.0392462
0.294957 0.293507 0.0234531
0.491188 0.280385 0.0216678
0.554437 0.286305 0.035462
0.622599 0.286137 0.0384833
0.685832 0.280797 0.0301671
0.746944 0.273472 0.0247654
0.815686 0.263096 0.034638
0.893248 0.26453 0.0793469
0.965133 0.291264 0.173083
0.96791 0.285252 0.177432
0.967803 0.279667 0.178332
0.00268559 0.28426 0.0302129
0.0021973 0.299947 0.028809
0.00218204 0.312016 0.0279393
0.00213626 0.326238 0.0266728
0.0213321 0.349767 0.0298619
0.0823224 0.371969 0.0342107
0.195544 0.388922 0.029572
0.405463 0.412924 0.0149233
0.594202 0.419501 0.0191043
0.682872 0.424247 0.0371862
0.751537 0.41915 0.0581064
0.813977 0.406973 0.0810559
0.865095 0.394415 0.0999924
0.914748 0.385748 0.124529
0.971588 0.387442 0.193835
0.970886 0.373877 0.191012
0.970611 0.364599 0.18909
0.00166323 0.379278 0.0212406
0.00170901 0.396307 0.0193484
0.00173953 0.409751 0.0172122
0.00184634 0.422995 0.0147555
0.0304265 0.443534 0.0160983
0.108949 0.46511 0.026978
0.18674 0.48481 0.0333257
0.344839 0.50518 0.0360113
0.525643 0.537285 0.0323491
0.694484 0.541772 0.0370642
0.777661 0.538094 0.0446326
0.850568 0.520897 0.0742657
0.910719 0.500587 0.13164
0.958511 0.483787 0.184161
0.990448 0.479957 0.232181
0.986435 0.468177 0.225299
0.983413 0.459098 0.220218
0.00267033 0.478431 0.010193
0.00375372 0.496315 0.00909438
0.00479133 0.509575 0.00991836
0.00531014 0.517662 0.0102541
0.0453803 0.533501 0.0102998
0.169146 0.553735 0.0271916
0.247517 0.572198 0.0458228
0.335012 0.587182 0.0525826
0.464775 0.601846 0.0575875
0.619257 0.630655 0.0496986
0.789288 0.628168 0.0513771
0.858167 0.623255 0.0531624
0.930495 0.599756 0.112886
0.992538 0.576379 0.220401
1 0.562921 0.284428
1 0.551965 0.278309
1 0.543542 0.273182
0.0153658 0.579644 0.0129549
0.0225376 0.596002 0.0146792
0.0269932 0.60589 0.0155795
0.0284428 0.612085 0.0157778
0.0740368 0.620005 0.0202182
0.216602 0.634745 0.0339055
0.310201 0.648386 0.0534066
0.380774 0.661158 0.0723278
0.453956 0.671946 0.0810407
0.561349 0.686336 0.0935988
0.7037 0.712505 0.069749
0.867063 0.704097 0.0707866
0.927916 0.699397 0.0872816
0.998749 0.67364 0.196231
1 0.652064 0.318715
1 0.640833 0.315953
1 0.631952 0.313359
0.0930343 0.67483 0.0235752
0.111315 0.688563 0.0289006
0.121828 0.696391 0.0312657
0.127794 0.70071 0.0318761
0.128725 0.701244 0.0318151
0.266484 0.712612 0.0412146
0.378317 0.72282 0.0620737
0.447318 0.733333 0.090547
0.505745 0.74435 0.112291
0.566598 0.75465 0.124804
0.660319 0.767834 0.148699
0.778363 0.787289 0.130587
0.922408 0.771847 0.155398
0.976608 0.763714 0.186999
1 0.744335 0.285725
1 0.730556 0.309087
1 0.720729 0.312581
0.239124 0.763897 0.0408942
0.263081 0.775952 0.0450294
0.27628 0.782742 0.0478981
0.283497 0.786191 0.0482795
0.283635 0.786267 0.0482948
0.347875 0.789471 0.053727
0.454627 0.796796 0.0771649
0.519524 0.804868 0.114916
0.572412 0.814191 0.15314
0.61709 0.822889 0.184695
0.664851 0.829511 0.211658
0.736568 0.836469 0.253635
0.83386 0.846769 0.256779
0.955627 0.829145 0.283024
1 0.82092 0.318318
1 0.815381 0.320577
1 0.808438 0.312352
0.39585 0.845747 0.0674754
0.413886 0.85658 0.0736706
0.424399 0.862501 0.0771801
0.427771 0.864485 0.078294
0.42649 0.863706 0.077821
0.43772 0.86183 0.07953
0.529732 0.86511 0.106233
0.586648 0.86891 0.1523
0.627527 0.875349 0.204715
0.662806 0.881346 0.250217
0.694591 0.886381 0.291752
0.730922 0.890486 0.335256
0.793576 0.894301 0.384787
0.873869 0.900175 0.398886
0.964096 0.888121 0.399023
1 0.876799 0.420294
1 0.870802 0.413748
0.528313 0.914473 0.11342
0.542885 0.922057 0.120745
0.547707 0.924956 0.124453
0.548592 0.92546 0.125063
0.546014 0.923919 0.123201
0.539559 0.920165 0.118532
0.594186 0.919631 0.15198
0.635325 0.921187 0.20267
0.668711 0.925704 0.261204
0.698299 0.931441 0.314702
0.726558 0.936614 0.361501
0.753719 0.940337 0.403235
0.788922 0.943603 0.445212
0.844602 0.945769 0.487938
0.902052 0.948104 0.496315
0.95996 0.942443 0.485695
0.966018 0.934752 0.476524
0.555474 0.929732 0.129915
0.555474 0.929732 0.129915
0.555474 0.929732 0.129915
0.555474 0.929732 0.129915
0.555474 0.929732 0.129915
0.555474 0.929732 0.129915
0.611048 0.934981 0.170962
0.654169 0.940429 0.228977
0.688655 0.94786 0.292287
0.715709 0.955459 0.347478
0.744533 0.963409 0.395544
0.773571 0.971603 0.440665
0.802655 0.980499 0.482628
0.839063 0.985321 0.520912
0.881422 0.986404 0.546639
0.920836 0.986328 0.557488
0.93225 0.98146 0.548226
0.555474 0.929732 0.129915
0.555474 0.929732 0.129915
0.555474 0.929732 0.129915
0.555474 0.929732 0.129915
0.555474 0.929732 0.129915
0.556329 0.930251 0.130541
0.615396 0.935409 0.174777
0.65687 0.941009 0.233616
0.689921 0.94818 0.294926
0.716136 0.955581 0.348424
0.744198 0.963317 0.395071
0.771771 0.971054 0.437751
0.79942 0.979629 0.478706
0.833402 0.988449 0.518929
0.872694 0.994629 0.551263
0.908766 0.999069 0.570779
0.926833 1 0.575296
0.0172122 0.027512 0.0595712
0.0175784 0.0274205 0.0585946
0.0313725 0.0275731 0.0627298
0.071046 0.0272068 0.0660716
0.113664 0.0307469 0.0565957
0.171969 0.0281071 0.0461891
0.246876 0.0254978 0.0358129
