src/assets/luts/日系配方/WT卷.cube
LUT_3D_SIZE 17
0.00846876 0.014313 0.0148775
0.0176242 0.0143435 0.015671
0.037171 0.0124819 0.0146487
0.0712139 0.00769055 0.0112612
0.117998 0.000549325 0.00650034
0.180331 0 0.000762951
0.25211 0 0
0.313756 0 0
0.357946 0 0
0.406043 0 0
0.461646 0 0
0.516609 0 0
0.569512 0 0
0.623636 0 0
0.676814 0 0
0.724086 0 0
0.738293 0 0
0.00906386 0.0210117 0.0161135
0.0155795 0.0208286 0.016907
0.0343633 0.013611 0.0151827
0.0694591 0.00799573 0.0114595
0.118853 0.000442512 0.00640879
0.186404 0 0.000396735
0.262745 0 0
0.322911 0 0
0.368597 0 0
0.420203 0 0
0.477302 0 0
0.532357 0 0
0.584772 0 0
0.642481 0 0
0.694835 0 0
0.738293 0 0
0.738293 0 0
0.0101778 0.0347143 0.0170138
0.0102846 0.0362554 0.0169985
0.0358434 0.0381781 0.0185092
0.0765698 0.0247349 0.0148928
0.125139 0.0068513 0.00660716
0.193515 0 0
0.271107 0 0
0.329763 0 0
0.376928 0 0
0.430381 0 0
0.487617 0 0
0.542245 0 0
0.59498 0 0
0.651408 0 0
0.703609 0 0
0.738293 0 0
0.738293 0 0
0.00949111 0.0610666 0.0163272
0.00927749 0.0649577 0.016022
0.0209659 0.0696574 0.0163272
0.0774243 0.0737011 0.0170291
0.152712 0.0495918 0.0157626
0.220005 0.0265354 0.00108339
0.286732 0.00457771 0
0.341665 0 0
0.388342 0 0
0.441062 0 0
0.49514 0 0
0.547677 0 0
0.600793 0 0
0.657633 0 0
0.710872 0 0
0.738293 0 0
0.738293 0 0
0.00146487 0.100984 0.0110933
0.000213626 0.107286 0.0101015
0 0.112093 0.00923171
0.0527657 0.123735 0.00909438
0.145647 0.129107 0.00607309
0.257542 0.0925002 0.0154116
0.337392 0.0636912 0.00454719
0.381826 0.0467384 0.00077821
0.427848 0.0347448 0
0.477363 0.0226596 0
0.52958 0.0103609 0
0.584207 0.00315862 0
0.641794 0 0
0.697704 0 0
0.747494 0 0
0.763149 0 0
0.762997 0 0
0 0.157122 0.00112917
0 0.167163 0
0 0.174777 0
0.0220798 0.188556 0
0.119677 0.207233 0
0.250538 0.209049 0
0.372366 0.161059 0.0214237
0.442679 0.130327 0.0188754
0.503365 0.111208 0.0127108
0.555123 0.0985885 0.00706493
0.603601 0.0863508 0
0.652567 0.0742046 0
0.703288 0.0619669 0
0.750591 0.050782 0
0.792676 0.0447547 0
0.799741 0.0412604 0
0.798077 0.0387427 0
0 0.233555 0
0 0.247013 0
0 0.257771 0
0 0.270512 0
0.0898604 0.295598 0
0.217624 0.318044 0
0.359274 0.311025 0
0.475212 0.259663 0.0310063
0.547387 0.230976 0.0413519
0.60676 0.212039 0.0333867
0.670054 0.193851 0.0200046
0.734157 0.176104 0.0113069
0.790204 0.162066 0.00721752
0.834714 0.151354 0.00450141
0.868391 0.146731 0.00325017
0.867323 0.139086 0.00129702
0.863188 0.132601 0
0 0.318776 0
0 0.332204 0
0 0.342794 0
0.000503548 0.353994 0
0.0809033 0.378805 0
0.199741 0.40119 0
0.320943 0.421668 0.00444038
0.450584 0.4112 0.00921645
0.557702 0.37319 0.0331884
0.634958 0.34963 0.0436255
0.704005 0.324895 0.054551
0.771252 0.301549 0.0531014
0.829023 0.283986 0.0441749
0.875151 0.268406 0.0351873
0.912688 0.261128 0.0325475
0.911589 0.247684 0.0277562
0.90901 0.236744 0.0240482
0.00462348 0.396445 0.00735485
0.00706493 0.409857 0.00935378
0.00947585 0.420798 0.0107271
0.0177462 0.430945 0.0113527
0.0958114 0.45333 0.0126497
0.204578 0.475776 0.0175479
0.330465 0.494789 0.0228733
0.424125 0.505974 0.0194858
0.531075 0.496803 0.0159304
0.629038 0.466087 0.0362554
0.707362 0.438437 0.0479133
0.780819 0.413855 0.065156
0.844709 0.392477 0.076112
0.898817 0.375113 0.0762036
0.942336 0.364126 0.069276
0.93785 0.350271 0.0661021
0.934401 0.340566 0.0635233
0.0252079 0.474876 0.0174716
0.0283513 0.488869 0.0200198
0.0316625 0.499611 0.0222477
0.035111 0.507454 0.0238956
0.112169 0.525734 0.0284428
0.211337 0.543389 0.0361028
0.324575 0.558984 0.0420844
0.426703 0.575036 0.044007
0.502922 0.571893 0.0304112
0.594965 0.565805 0.0280156
0.689036 0.538338 0.0426032
0.775204 0.512428 0.0572518
0.854841 0.493721 0.0639353
0.919753 0.479072 0.0696727
0.96466 0.46952 0.0650797
0.961196 0.4551 0.0698253
0.958709 0.444297 0.0724804
0.0565347 0.553719 0.0357977
0.061387 0.565866 0.0402075
0.0664225 0.574533 0.043595
0.0704509 0.57966 0.045594
0.11809 0.589166 0.0500038
0.207507 0.603143 0.0590219
0.308949 0.616144 0.0675212
0.420584 0.627955 0.0717632
0.501152 0.642222 0.0712291
0.566827 0.636423 0.055787
0.662257 0.635874 0.0391241
0.769268 0.619165 0.0346075
0.863249 0.600443 0.0344396
0.92929 0.589685 0.0226596
0.973404 0.590539 0.00607309
0.973968 0.575067 0.0120241
0.974304 0.563333 0.0170901
0.108797 0.62623 0.0674449
0.117372 0.63682 0.0736095
0.123049 0.643381 0.0774853
0.126055 0.646738 0.0795605
0.127108 0.647913 0.0802625
0.210361 0.659541 0.0908675
0.303822 0.671031 0.100618
0.406744 0.683528 0.104143
0.506722 0.697353 0.0993973
0.575494 0.71545 0.0855726
0.653422 0.716457 0.0434424
0.758221 0.725139 0.0163272
0.850599 0.715236 0
0.915984 0.706523 0
0.95584 0.71165 0
0.962005 0.699062 0
0.964141 0.686427 0
0.16144 0.695094 0.0990158
0.166949 0.706249 0.0991989
0.170291 0.71284 0.0992599
0.172412 0.716609 0.0991836
0.172854 0.717311 0.0992447
0.215259 0.723262 0.101335
0.307164 0.738323 0.102663
0.406912 0.754101 0.0977493
0.512642 0.769268 0.0875563
0.596841 0.789319 0.0779126
0.673381 0.809003 0.0601663
0.754223 0.810483 0.020264
0.839124 0.822858 0
0.893996 0.824628 0
0.925155 0.823499 0
0.935668 0.817609 0
0.93785 0.807157 0
0.196735 0.776745 0.0894942
0.201389 0.789517 0.0854963
0.20441 0.797513 0.0827039
0.205921 0.80116 0.0815442
0.205921 0.801251 0.0815137
0.218433 0.799985 0.0827344
0.31342 0.814923 0.0824292
0.415976 0.830839 0.0794385
0.525521 0.846448 0.0733349
0.624231 0.863096 0.069749
0.699123 0.882597 0.0682994
0.776135 0.895888 0.0563211
0.834989 0.896117 0.0164797
0.879332 0.900511 0.00910964
0.909209 0.905348 0.0262455
0.925261 0.907973 0.0414588
0.925917 0.901854 0.0334478
0.23859 0.865492 0.0787976
0.247929 0.878599 0.0807965
0.25034 0.882948 0.0825208
0.251301 0.884581 0.0832074
0.250538 0.883345 0.0826429
0.247837 0.878477 0.080766
0.341695 0.889036 0.0898604
0.445533 0.899123 0.0993515
0.549706 0.907835 0.106828
0.645914 0.917144 0.114473
0.725734 0.929076 0.123842
0.787503 0.942077 0.126406
0.841169 0.948989 0.117769
0.877028 0.950195 0.0977646
0.904601 0.95462 0.112551
0.922911 0.956436 0.129519
0.92282 0.951965 0.119081
0.255116 0.89102 0.086305
0.255116 0.89102 0.086305
0.255116 0.89102 0.086305
0.255116 0.89102 0.086305
0.255116 0.89102 0.086305
0.255116 0.89102 0.086305
0.352667 0.906462 0.101122
0.461479 0.921859 0.118013
0.563317 0.932555 0.129931
0.659876 0.942367 0.139849
0.742458 0.954635 0.151354
0.801297 0.968063 0.162295
0.848127 0.976959 0.175509
0.88249 0.979568 0.187655
0.905562 0.980423 0.188128
0.923125 0.982361 0.207858
0.925368 0.980392 0.203052
0.255116 0.89102 0.086305
0.255116 0.89102 0.086305
0.255116 0.89102 0.086305
0.255116 0.89102 0.086305
0.255116 0.89102 0.086305
0.255116 0.89102 0.086305
0.359274 0.907439 0.102113
0.467079 0.922499 0.118807
0.566339 0.93283 0.130205
0.660243 0.942412 0.139879
0.741115 0.954376 0.15108
0.797635 0.967224 0.161639
0.843809 0.976272 0.173831
0.878874 0.981186 0.191684
0.903883 0.984497 0.210529
0.921584 0.987152 0.228702
0.928145 0.988312 0.24654
0.00865187 0.0137026 0.0205539
0.0171664 0.0148928 0.0221256
0.0366217 0.0131075 0.0182803
0.0700999 0.0078584 0.011368
0.116548 0.000701915 0.00662242
0.17911 0 0.000839246
0.251713 0 0
0.313878 0 0
0.358038 0 0
0.406332 0 0
0.462531 0 0
0.517494 0 0
0.570718 0 0
0.625086 0 0
0.677852 0 0
0.725155 0 0
0.738293 0 0
0.0102846 0.0209659 0.0213931
0.0155489 0.020676 0.0214389
0.0337377 0.0140841 0.0167086
0.0688182 0.00805676 0.0115053
0.118791 0.000457771 0.00640879
0.187472 0 0.000320439
0.264317 0 0
0.324163 0 0
0.37026 0 0
0.422507 0 0
0.479927 0 0
0.535058 0 0
0.587976 0 0
0.643717 0 0
0.696025 0 0
0.738293 0 0
0.738293 0 0
0.010193 0.0349584 0.0169985
0.0103761 0.0364843 0.0173037
0.036347 0.0390173 0.0185245
0.0776532 0.0256046 0.015198
0.126528 0.00802625 0.00677501
0.193454 0 0
0.271183 0 0
0.33019 0 0
0.37734 0 0
0.431312 0 0
0.488411 0 0
0.543252 0 0
0.596414 0 0
0.652644 0 0
0.70515 0 0
0.738293 0 0
0.738293 0 0
0.00939956 0.0618906 0.0162203
0.00917067 0.065919 0.0159152
0.0231174 0.0709697 0.0163424
0.0788434 0.0755932 0.0166629
0.15584 0.051194 0.0158236
0.224018 0.0284276 0.00115969
0.289891 0.00662242 0
0.34284 0 0
0.390356 0 0
0.442878 0 0
0.4972 0 0
0.549752 0 0
0.601373 0 0
0.658763 0 0
0.711955 0 0
0.738293 0 0
0.738293 0 0
0.00115969 0.102617 0.0108186
0 0.109224 0.00978103
0.000686656 0.114366 0.00883497
0.0562295 0.126528 0.00849927
0.149691 0.132403 0.00518807
0.261845 0.0949721 0.0155795
0.342184 0.0668498 0.00526436
0.386557 0.0497749 0.00148013
0.432502 0.0377356 0
0.482658 0.025864 0
0.533974 0.0130465 0
0.587716 0.00521859 0
0.645747 0 0
0.700999 0 0
0.750164 0 0
0.764858 0 0
0.76463 0 0
0 0.15996 0.000671397
0 0.170001 0
0 0.178225 0
0.0271763 0.192981 0
0.124269 0.211994 0
0.255726 0.214786 0
0.377508 0.165866 0.0220951
0.447761 0.134752 0.0199741
0.509651 0.115709 0.0131533
0.561151 0.102724 0.00779736
0.610132 0.0906539 0.000823987
0.659312 0.0784466 0
0.709224 0.0661631 0
0.756664 0.0553902 0
0.797726 0.0491951 0
0.80264 0.045655 0
0.801099 0.0433356 0
0 0.237232 0
0 0.251041 0
0 0.261555 0
0 0.275959 0
0.0972152 0.301717 0
0.2224 0.323659 0
0.363684 0.317235 0
0.480079 0.265446 0.03093
0.552285 0.236225 0.041886
0.612009 0.217914 0.0351415
0.674769 0.199573 0.0215
0.739513 0.181857 0.0122683
0.796429 0.167697 0.00796521
0.839551 0.156191 0.00538643
0.872374 0.151202 0.00421149
0.869841 0.143099 0.00233463
0.865446 0.136141 0.000549325
0 0.322667 0
0 0.335775 0
0 0.346914 0
0.00550851 0.359152 0
0.0892348 0.383932 0
0.207492 0.406363 0
0.325521 0.426627 0.0056611
0.454749 0.415946 0.00973526
0.561517 0.378698 0.0335088
0.6383 0.354803 0.0436713
0.707378 0.329366 0.0552834
0.77525 0.306249 0.0543069
0.83212 0.288151 0.0459449
0.877623 0.272663 0.0370184
0.914839 0.265614 0.0343328
0.9122 0.251209 0.0289311
0.910033 0.241016 0.0254368
0.00529488 0.400153 0.00794995
0.00772107 0.413764 0.00987259
0.0104677 0.424353 0.0110933
0.0224765 0.435554 0.0116121
0.103014 0.458061 0.0135195
0.211505 0.480003 0.0186313
0.334966 0.498848 0.0238346
0.428 0.509743 0.0200046
0.533776 0.500252 0.0162814
0.631113 0.469947 0.0362554
0.709895 0.441764 0.048188
0.783307 0.416999 0.0653544
0.847379 0.39617 0.0771038
0.901244 0.378836 0.0769818
0.943191 0.367285 0.0700236
0.938964 0.353674 0.0669261
0.935622 0.343938 0.0644388
0.0260777 0.479057 0.0180362
0.0292515 0.492531 0.0207523
0.0333257 0.50341 0.0231327
0.038056 0.511299 0.0246891
0.117617 0.529534 0.0296635
0.216678 0.546761 0.0372931
0.329107 0.561929 0.0430915
0.429557 0.578012 0.0448615
0.505547 0.574868 0.0311437
0.596887 0.568322 0.0285649
0.690623 0.541039 0.0427405
0.778073 0.51574 0.0572061
0.858259 0.497398 0.0629892
0.923125 0.483177 0.067628
0.965652 0.473503 0.0635386
0.962005 0.45864 0.0688792
0.959518 0.44799 0.0717174
0.0577554 0.557031 0.0369421
0.0629282 0.569284 0.0415656
0.0684367 0.577203 0.0446174
0.0727092 0.582437 0.0466316
0.123339 0.592309 0.0514229
0.212039 0.605524 0.0602274
0.312886 0.618509 0.0688182
0.424308 0.630793 0.0733806
0.503334 0.644648 0.0727703
0.568948 0.639033 0.0570535
0.665415 0.639307 0.0388647
0.772686 0.622736 0.0334783
0.86569 0.604181 0.0328832
0.931304 0.594003 0.0204318
0.973205 0.594263 0.00471504
0.973785 0.579019 0.0103914
0.974182 0.567681 0.0151217
0.111192 0.629328 0.0692454
0.119524 0.639338 0.0751202
0.125048 0.645624 0.0788739
0.128374 0.649317 0.0808576
0.128893 0.649897 0.0814374
0.214481 0.661814 0.0920729
0.308797 0.673854 0.101671
0.411399 0.686351 0.104341
0.510201 0.700633 0.0992447
0.579019 0.719371 0.0847028
0.656962 0.720027 0.0424811
0.761379 0.72871 0.0153811
0.852201 0.719829 0
0.916609 0.71075 0
0.955505 0.715999 0
0.961181 0.703014 0
0.963561 0.689937 0
0.162783 0.697917 0.0990158
0.168399 0.70901 0.0992905
0.171969 0.715831 0.0992142
0.174029 0.719402 0.0992599
0.174319 0.719905 0.0992447
0.220645 0.726772 0.101137
0.312123 0.741253 0.102205
0.41236 0.757229 0.0966354
0.516823 0.772595 0.0865339
0.599878 0.792493 0.0772412
0.676387 0.812345 0.0597391
0.757687 0.814176 0.0195926
0.840742 0.82591 0
0.894438 0.828305 0
0.925093 0.827314 0
0.934997 0.82092 0
0.937209 0.81033 0
0.198077 0.780484 0.0883955
0.202914 0.793439 0.0841688
0.205737 0.800778 0.081651
0.207218 0.804135 0.0806592
0.207141 0.804044 0.0806592
0.224033 0.803174 0.0818647
0.31902 0.818296 0.0817273
0.422583 0.834379 0.0788586
0.531441 0.849348 0.0733043
0.628092 0.865995 0.0702831
0.702129 0.885069 0.0693675
0.778073 0.897688 0.0581216
0.83624 0.897826 0.0184482
0.879957 0.90251 0.0110323
0.909377 0.907042 0.0288701
0.925139 0.909346 0.0433051
0.925902 0.903716 0.0360113
0.24123 0.869322 0.0793622
0.249454 0.881361 0.0819562
0.251804 0.885451 0.0836042
0.252476 0.88658 0.0841688
0.251408 0.88481 0.083299
0.24889 0.880171 0.0814832
0.348104 0.891127 0.0913558
0.451759 0.900771 0.10074
0.555245 0.909728 0.108461
0.650263 0.918959 0.116167
0.728328 0.930739 0.125505
0.789319 0.943587 0.127886
0.842466 0.950545 0.120394
0.877623 0.9514 0.100481
0.90486 0.955474 0.114504
0.922942 0.957092 0.131106
0.922835 0.952605 0.120439
0.255116 0.89102 0.086305
0.255116 0.89102 0.086305
0.255116 0.89102 0.086305
0.255116 0.89102 0.086305
0.255116 0.89102 0.086305
0.255116 0.89102 0.086305
0.358557 0.907347 0.102052
0.46775 0.922545 0.118914
0.568917 0.933089 0.130419
0.663859 0.942885 0.140291
0.744472 0.955047 0.15172
0.802197 0.968277 0.162493
0.848524 0.977035 0.175677
0.882673 0.979736 0.188251
0.905715 0.980636 0.18909
0.922972 0.982376 0.207599
0.925399 0.980545 0.203662
0.255116 0.89102 0.086305
0.255116 0.89102 0.086305
0.255116 0.89102 0.086305
0.255116 0.89102 0.086305
0.255116 0.89102 0.086305
0.255314 0.891051 0.0863661
0.366171 0.908431 0.103151
0.473899 0.923293 0.119814
0.57229 0.933349 0.130724
0.664683 0.942962 0.140429
0.743343 0.954818 0.151492
0.798611 0.967483 0.161761
0.843976 0.976318 0.173892
0.87892 0.981186 0.191775
0.903761 0.984497 0.210391
0.921416 0.987137 0.228382
0.928145 0.988312 0.24654
0.00836194 0.0123293 0.0326238
0.0118715 0.0131075 0.0326848
0.0351568 0.0150759 0.035935
0.0694133 0.0103761 0.0265354
0.11545 0.00172427 0.0130312
0.176165 0 0.00102235
0.249851 0 0
0.312428 0 0
0.357031 0 0
0.405432 0 0
0.461692 0 0
0.517296 0 0
0.570672 0 0
0.624811 0 0
0.677638 0 0
0.724666 0 0
0.738293 0 0
0.00932326 0.0158541 0.0324712
0.00976577 0.0151369 0.0309606
0.0330816 0.0155032 0.034165
0.0691844 0.0103761 0.0262608
0.119188 0.00149538 0.0139925
0.186221 0 0.000411994
0.263096 0 0
0.323552 0 0
0.369665 0 0
0.421851 0 0
0.47953 0 0
0.534752 0 0
0.587976 0 0
0.643503 0 0
0.695613 0 0
0.738293 0 0
0.738293 0 0
0.0133669 0.0353552 0.0348516
0.0136263 0.0365301 0.036286
0.0403906 0.0411383 0.0409857
0.0778973 0.0295262 0.0313878
0.129747 0.0104982 0.0178225
0.193545 0 0.00268559
0.271382 0 0
0.330495 0 0
0.37821 0 0
0.432197 0 0
0.489418 0 0
0.544579 0 0
0.597772 0 0
0.65449 0 0
0.706828 0 0
0.738293 0 0
0.738293 0 0
0.0103914 0.0631876 0.0265965
0.010132 0.0669413 0.0293736
0.0280156 0.0742657 0.0335393
0.0853132 0.0789197 0.0345922
0.159426 0.0561074 0.0278477
0.227405 0.0317998 0.00767529
0.291402 0.00883497 0
0.342657 0 0
0.389548 0 0
0.442786 0 0
0.497581 0 0
0.550744 0 0
0.602289 0 0
0.65861 0 0
0.712062 0 0
0.738293 0 0
0.738293 0 0
0.000946059 0.104631 0.0141756
0 0.111879 0.016907
0.00460822 0.119036 0.0199435
0.0641184 0.133471 0.0223392
0.158068 0.138552 0.0184939
0.270466 0.100237 0.0229038
0.347066 0.0708019 0.0089723
0.389914 0.0528115 0.0024567
0.436393 0.0408026 0
0.486061 0.0287175 0
0.537362 0.016144 0
0.589563 0.00761425 0
0.644404 0.000259403 0
0.702251 0 0
0.751141 0 0
0.766445 0 0
0.766323 0 0
0 0.161486 0.000335698
0 0.172091 0
0 0.182208 0.00215152
0.0339513 0.200229 0.0033875
0.131212 0.219684 0
0.262409 0.221622 0
0.383368 0.171359 0.0255131
0.45211 0.139391 0.0220645
0.514092 0.120317 0.0144503
0.566567 0.1075 0.00944533
0.614969 0.0946822 0.00215152
0.664027 0.0823224 0
0.714382 0.070222 0
0.760845 0.059205 0
0.801343 0.0528725 0
0.805478 0.049897 0
0.803311 0.0466011 0
0 0.23978 0
0 0.253513 0
0 0.264118 0
0.00642405 0.282155 0
0.103777 0.307286 0
0.227268 0.32874 0
0.366659 0.322301 0
0.482734 0.269612 0.0307317
0.555871 0.241016 0.0421759
0.61529 0.222202 0.0364385
0.677852 0.203937 0.0227817
0.742733 0.186389 0.013077
0.799191 0.171435 0.00851453
0.842222 0.159518 0.0059968
0.87509 0.154589 0.00497444
0.871351 0.145586 0.00297551
0.866804 0.138186 0.00109865
0 0.325048 0
0 0.338689 0
0 0.349142 0
0.0101625 0.362844 0
0.097322 0.388327 0
0.213993 0.409461 0
0.328069 0.429877 0.00646983
0.457008 0.419425 0.00987259
0.563561 0.382284 0.0335546
0.640391 0.358267 0.0436713
0.709758 0.332677 0.0557717
0.777493 0.308888 0.0549935
0.83357 0.290623 0.0469978
0.87866 0.275151 0.0381476
0.915221 0.267811 0.0352178
0.912749 0.253681 0.0298772
0.910475 0.24271 0.0260319
0.00581369 0.402975 0.00842298
0.00822461 0.416175 0.0101472
0.0112459 0.426978 0.0113985
0.0274052 0.439567 0.01355
0.109972 0.461418 0.0146181
0.217685 0.483131 0.0193484
0.337743 0.501381 0.024506
0.429007 0.512291 0.0204929
0.534585 0.502205 0.0164034
0.631434 0.471855 0.0360723
0.710811 0.443565 0.0482948
0.784421 0.418799 0.0653239
0.848035 0.397482 0.0773938
0.901946 0.380224 0.0772717
0.943709 0.369085 0.0704051
0.939529 0.355413 0.0673686
0.936263 0.345632 0.0648661
0.026688 0.481941 0.018677
0.0301213 0.495521 0.0213321
0.0343786 0.505882 0.0235447
0.0416266 0.513329 0.0248722
0.122774 0.531548 0.0303349
0.220523 0.548165 0.0378882
0.332082 0.563333 0.0434882
0.43032 0.579232 0.0453498
0.505669 0.576089 0.0315251
0.596857 0.569375 0.0287327
0.691096 0.542718 0.0427558
0.778622 0.517052 0.057145
0.858839 0.498451 0.0627146
0.924056 0.484825 0.066804
0.966003 0.474876 0.0629587
0.962325 0.46006 0.068513
0.960006 0.449912 0.0712444
0.0586709 0.55935 0.0377813
0.0637675 0.571115 0.0422522
0.0695811 0.578653 0.045182
0.0735027 0.583352 0.0469978
0.127428 0.593225 0.0518807
0.215274 0.606439 0.060853
0.316289 0.619532 0.069337
0.425269 0.631434 0.07364
0.503166 0.645396 0.0734264
0.569131 0.64036 0.0577554
0.665797 0.640406 0.0388342
0.773205 0.624521 0.0329442
0.866194 0.606088 0.0321813
0.931334 0.595407 0.019913
0.973159 0.595789 0.00419623
0.973754 0.580682 0.00973526
0.974166 0.568841 0.0146334
0.112291 0.630732 0.0700084
0.12076 0.640757 0.0759442
0.126024 0.646677 0.0795148
0.128679 0.649638 0.0812695
0.131319 0.650416 0.0818494
0.218357 0.66276 0.0926833
0.312169 0.674449 0.101976
0.41413 0.68719 0.104356
0.510979 0.701701 0.0991226
0.579034 0.720272 0.0848554
0.657313 0.721263 0.0425422
0.761364 0.72958 0.0152285
0.851698 0.720668 0
0.916045 0.711803 0
0.955001 0.717144 0
0.960952 0.704204 0
0.963333 0.691356 0
0.163546 0.699489 0.0990768
0.1691 0.710445 0.099321
0.172381 0.716548 0.0992142
0.174334 0.719905 0.0992599
0.174334 0.719966 0.0992447
0.224491 0.727169 0.101244
0.315892 0.741787 0.102174
0.415671 0.757626 0.0963455
0.518441 0.772992 0.0863661
0.600488 0.793362 0.0771038
0.676722 0.813596 0.0600137
0.757656 0.814984 0.0197299
0.840528 0.826505 0
0.894102 0.829084 0
0.92459 0.827649 0
0.934859 0.821653 0
0.936965 0.811399 0
0.198474 0.781567 0.0880446
0.203143 0.794232 0.0837873
0.206104 0.801694 0.0813458
0.20734 0.804425 0.0805676
0.206851 0.803418 0.0808118
0.229007 0.803769 0.0818799
0.323125 0.818387 0.0817273
0.426261 0.834134 0.0787518
0.534371 0.849439 0.0731823
0.628977 0.866011 0.0702373
0.7019 0.885039 0.0694133
0.777646 0.89807 0.0591745
0.836057 0.898238 0.0193332
0.879698 0.90277 0.0112001
0.909056 0.907423 0.0291905
0.925063 0.909987 0.0441138
0.925902 0.903975 0.0363622
0.241794 0.87013 0.07953
0.249653 0.881697 0.0820783
0.251606 0.885069 0.0834516
0.252003 0.885786 0.0837568
0.250858 0.883864 0.082887
0.253925 0.879805 0.0816205
0.352224 0.890578 0.0911421
0.456641 0.90071 0.10074
0.558968 0.909499 0.108217
0.652262 0.918929 0.116075
0.729107 0.930922 0.125673
0.789197 0.943664 0.128038
0.842023 0.950423 0.120317
0.877379 0.951385 0.100572
0.904616 0.955505 0.114366
0.922866 0.956954 0.130724
0.92285 0.95256 0.120363
0.255116 0.89102 0.086305
0.255116 0.89102 0.086305
0.255116 0.89102 0.086305
0.255116 0.89102 0.086305
0.255116 0.89102 0.086305
0.25565 0.891081 0.0864271
0.365164 0.908293 0.102968
0.473503 0.923278 0.119783
0.573617 0.933501 0.130831
0.667475 0.943328 0.140749
0.74612 0.955367 0.152026
0.802335 0.968307 0.162524
0.84828 0.97702 0.175555
0.882353 0.979599 0.187671
0.905074 0.98027 0.187716
0.92256 0.982116 0.205936
0.925338 0.980255 0.202472
0.255116 0.89102 0.086305
0.255116 0.89102 0.086305
0.255116 0.89102 0.086305
0.255116 0.89102 0.086305
0.255116 0.89102 0.086305
0.262455 0.89221 0.0874647
0.373251 0.90956 0.104326
0.480873 0.924117 0.120745
0.578088 0.933944 0.131319
0.669062 0.943542 0.140963
0.745541 0.955261 0.151904
0.799161 0.967575 0.161898
0.843961 0.976318 0.173922
0.878538 0.98114 0.191394
0.903334 0.984436 0.210163
0.921111 0.987045 0.227909
0.928145 0.988312 0.24654
0.00674449 0.00915541 0.0543069
0.00683604 0.00929274 0.0533761
0.024033 0.012192 0.0541543
0.0654459 0.0141909 0.0598459
0.113313 0.00637827 0.0443427
0.176272 0 0.026154
0.24921 0 0.00889601
0.311757 0 0
0.354971 0 0
0.403326 0 0
0.459861 0 0
0.515648 0 0
0.568902 0 0
0.622995 0 0
0.675761 0 0
0.723201 0 0
0.738293 0 0
0.00701915 0.00955215 0.0517281
0.00712596 0.00968948 0.0509651
0.0227207 0.0122072 0.0526589
0.0661021 0.0141756 0.0604257
0.118074 0.0059205 0.0472267
0.187625 0 0.0302892
0.264469 0 0.0139162
0.323613 0 0.00294499
0.36994 0 0
0.422324 0 0
0.478264 0 0
0.533135 0 0
0.586282 0 0
0.641733 0 0
0.694102 0 0
0.738293 0 0
