src/assets/luts/日系配方/WT卷.cube
LUT_3D_SIZE 5
0.00846876 0.014313 0.0148775
0.117998 0.000549325 0.00650034
0.357946 0 0
0.569512 0 0
0.738293 0 0
0.00146487 0.100984 0.0110933
0.145647 0.129107 0.00607309
0.427848 0.0347448 0
0.641794 0 0
0.762997 0 0
0.00462348 0.396445 0.00735485
0.0958114 0.45333 0.0126497
0.531075 0.496803 0.0159304
0.844709 0.392477 0.076112
0.934401 0.340566 0.0635233
0.16144 0.695094 0.0990158
0.172854 0.717311 0.0992447
0.512642 0.769268 0.0875563
0.839124 0.822858 0
0.93785 0.807157 0
0.255116 0.89102 0.086305
0.255116 0.89102 0.086305
0.566339 0.93283 0.130205
0.843809 0.976272 0.173831
0.928145 0.988312 0.24654
0.00250248 0.0027924 0.0876478
0.104005 0.0105592 0.095613
0.357076 0 0.0212711
0.573571 0 0
0.741604 0 0
0.00135805 0.104173 0.109499
0.161105 0.14902 0.147173
0.45449 0.0612802 0.0675059
0.669627 0.00669871 0.0308995
0.787182 0 0.0224613
0 0.416464 0.0948501
0.101778 0.483772 0.127626
0.534676 0.522225 0.0849928
0.854704 0.408515 0.107836
0.940734 0.349706 0.0728923
0.159609 0.705455 0.123171
0.168826 0.722881 0.121736
0.520211 0.770184 0.0867933
0.837064 0.823835 0
0.937102 0.810788 0
0.255116 0.89102 0.086305
0.254337 0.891279 0.0910658
0.589883 0.935271 0.137041
0.843519 0.976013 0.184375
0.931716 0.987671 0.289479
0 0 0.286213
0.0194553 0 0.28867
0.347753 0 0.320409
0.58056 0 0.244221
0.768658 0 0.175402
0 0.0254978 0.318563
0.0352178 0.0567025 0.35494
0.452659 0.115648 0.417288
0.675502 0.0705119 0.351705
0.806149 0.0494698 0.296712
0 0.392584 0.44361
0.0213016 0.441093 0.482033
0.508553 0.541329 0.515099
0.830777 0.446418 0.391867
0.932433 0.392294 0.323125
0 0.704936 0.421515
0 0.712215 0.432319
0.433661 0.790097 0.420706
0.849989 0.838407 0.395392
0.976211 0.814023 0.376974
0.0281987 0.878843 0.387717
0.00608835 0.87538 0.399451
0.507515 0.940581 0.495018
0.8439 0.968582 0.534585
0.953521 0.986923 0.594827
0.00868238 0 0.406622
0.00859083 0 0.402594
0.242267 0.00967422 0.439658
0.566217 0.0375372 0.493706
0.777066 0.0212406 0.461677
0.0109865 0.0128786 0.429862
0.014435 0.0361028 0.456672
0.347066 0.124086 0.528099
0.684337 0.162295 0.600702
0.835554 0.101717 0.584878
0.000350958 0.339254 0.604608
0.000259403 0.354116 0.639689
0.304585 0.429007 0.69865
0.805844 0.44831 0.7467
0.927871 0.396918 0.683986
0 0.709163 0.770077
0 0.712352 0.776913
0.133318 0.745922 0.776852
0.780972 0.814282 0.771099
0.98024 0.781765 0.720577
0 0.866316 0.747936
0 0.86598 0.754604
0.128283 0.920424 0.764553
0.692439 0.975341 0.778058
0.961868 0.98645 0.810315
0.0178073 0 0.517067
0.0178073 0 0.517067
0.121019 0.0260471 0.580789
0.508141 0.0378424 0.603403
0.788693 0.0477607 0.681437
0.0191196 0.01355 0.534554
0.020737 0.0346075 0.555428
0.15259 0.0610513 0.630701
0.610162 0.0923018 0.669139
0.840055 0.0986191 0.731395
0.00970474 0.264698 0.703395
0.00863661 0.279835 0.709529
0.110307 0.346593 0.760235
0.644297 0.356161 0.783749
0.922591 0.388159 0.841672
0 0.633738 0.844907
0 0.639689 0.846342
0 0.638758 0.853178
0.607355 0.721614 0.896468
0.967086 0.794217 0.919234
0 0.85594 0.884749
0 0.85594 0.884749
0 0.887922 0.900999
0.364675 0.956481 0.930739
0.958099 0.983322 0.940383
