src/assets/luts/日系配方/WT卷.cube
LUT_3D_SIZE 9
0.00846876 0.014313 0.0148775
0.037171 0.0124819 0.0146487
0.117998 0.000549325 0.00650034
0.25211 0 0
0.357946 0 0
0.461646 0 0
0.569512 0 0
0.676814 0 0
0.738293 0 0
0.0101778 0.0347143 0.0170138
0.0358434 0.0381781 0.0185092
0.125139 0.0068513 0.00660716
0.271107 0 0
0.376928 0 0
0.487617 0 0
0.59498 0 0
0.703609 0 0
0.738293 0 0
0.00146487 0.100984 0.0110933
0 0.112093 0.00923171
0.145647 0.129107 0.00607309
0.337392 0.0636912 0.00454719
0.427848 0.0347448 0
0.52958 0.0103609 0
0.641794 0 0
0.747494 0 0
0.762997 0 0
0 0.233555 0
0 0.257771 0
0.0898604 0.295598 0
0.359274 0.311025 0
0.547387 0.230976 0.0413519
0.670054 0.193851 0.0200046
0.790204 0.162066 0.00721752
0.868391 0.146731 0.00325017
0.863188 0.132601 0
0.00462348 0.396445 0.00735485
0.00947585 0.420798 0.0107271
0.0958114 0.45333 0.0126497
0.330465 0.494789 0.0228733
0.531075 0.496803 0.0159304
0.707362 0.438437 0.0479133
0.844709 0.392477 0.076112
0.942336 0.364126 0.069276
0.934401 0.340566 0.0635233
0.0565347 0.553719 0.0357977
0.0664225 0.574533 0.043595
0.11809 0.589166 0.0500038
0.308949 0.616144 0.0675212
0.501152 0.642222 0.0712291
0.662257 0.635874 0.0391241
0.863249 0.600443 0.0344396
0.973404 0.590539 0.00607309
0.974304 0.563333 0.0170901
0.16144 0.695094 0.0990158
0.170291 0.71284 0.0992599
0.172854 0.717311 0.0992447
0.307164 0.738323 0.102663
0.512642 0.769268 0.0875563
0.673381 0.809003 0.0601663
0.839124 0.822858 0
0.925155 0.823499 0
0.93785 0.807157 0
0.23859 0.865492 0.0787976
0.25034 0.882948 0.0825208
0.250538 0.883345 0.0826429
0.341695 0.889036 0.0898604
0.549706 0.907835 0.106828
0.725734 0.929076 0.123842
0.841169 0.948989 0.117769
0.904601 0.95462 0.112551
0.92282 0.951965 0.119081
0.255116 0.89102 0.086305
0.255116 0.89102 0.086305
0.255116 0.89102 0.086305
0.359274 0.907439 0.102113
0.566339 0.93283 0.130205
0.741115 0.954376 0.15108
0.843809 0.976272 0.173831
0.903883 0.984497 0.210529
0.928145 0.988312 0.24654
0.00836194 0.0123293 0.0326238
0.0351568 0.0150759 0.035935
0.11545 0.00172427 0.0130312
0.249851 0 0
0.357031 0 0
0.461692 0 0
0.570672 0 0
0.677638 0 0
0.738293 0 0
0.0133669 0.0353552 0.0348516
0.0403906 0.0411383 0.0409857
0.129747 0.0104982 0.0178225
0.271382 0 0
0.37821 0 0
0.489418 0 0
0.597772 0 0
0.706828 0 0
0.738293 0 0
0.000946059 0.104631 0.0141756
0.00460822 0.119036 0.0199435
0.158068 0.138552 0.0184939
0.347066 0.0708019 0.0089723
0.436393 0.0408026 0
0.537362 0.016144 0
0.644404 0.000259403 0
0.751141 0 0
0.766323 0 0
0 0.23978 0
0 0.264118 0
0.103777 0.307286 0
0.366659 0.322301 0
0.555871 0.241016 0.0421759
0.677852 0.203937 0.0227817
0.799191 0.171435 0.00851453
0.87509 0.154589 0.00497444
0.866804 0.138186 0.00109865
0.00581369 0.402975 0.00842298
0.0112459 0.426978 0.0113985
0.109972 0.461418 0.0146181
0.337743 0.501381 0.024506
0.534585 0.502205 0.0164034
0.710811 0.443565 0.0482948
0.848035 0.397482 0.0773938
0.943709 0.369085 0.0704051
0.936263 0.345632 0.0648661
0.0586709 0.55935 0.0377813
0.0695811 0.578653 0.045182
0.127428 0.593225 0.0518807
0.316289 0.619532 0.069337
0.503166 0.645396 0.0734264
0.665797 0.640406 0.0388342
0.866194 0.606088 0.0321813
0.973159 0.595789 0.00419623
0.974166 0.568841 0.0146334
0.163546 0.699489 0.0990768
0.172381 0.716548 0.0992142
0.174334 0.719966 0.0992447
0.315892 0.741787 0.102174
0.518441 0.772992 0.0863661
0.676722 0.813596 0.0600137
0.840528 0.826505 0
0.92459 0.827649 0
0.936965 0.811399 0
0.241794 0.87013 0.07953
0.251606 0.885069 0.0834516
0.250858 0.883864 0.082887
0.352224 0.890578 0.0911421
0.558968 0.909499 0.108217
0.729107 0.930922 0.125673
0.842023 0.950423 0.120317
0.904616 0.955505 0.114366
0.92285 0.95256 0.120363
0.255116 0.89102 0.086305
0.255116 0.89102 0.086305
0.255116 0.89102 0.086305
0.373251 0.90956 0.104326
0.578088 0.933944 0.131319
0.745541 0.955261 0.151904
0.843961 0.976318 0.173922
0.903334 0.984436 0.210163
0.928145 0.988312 0.24654
0.00250248 0.0027924 0.0876478
0.0107881 0.00477607 0.0862287
0.104005 0.0105592 0.095613
0.250034 0 0.0522316
0.357076 0 0.0212711
0.458473 0 0.00343328
0.573571 0 0
0.678691 0 0
0.741604 0 0
0.00459297 0.012253 0.0874189
0.0121614 0.014725 0.0919814
0.121935 0.0184024 0.112093
0.277638 0 0.0686961
0.382315 0 0.0400702
0.490517 0 0.0215457
0.598993 0 0.00793469
0.714183 0 0.00144961
0.750759 0 0.00161746
0.00135805 0.104173 0.109499
0 0.113649 0.12195
0.161105 0.14902 0.147173
0.346471 0.094667 0.0955673
0.45449 0.0612802 0.0675059
0.562066 0.032517 0.0484016
0.669627 0.00669871 0.0308995
0.771252 0 0.0220798
0.787182 0 0.0224613
0 0.243091 0.0726635
0 0.265568 0.0927749
0.104875 0.32845 0.115999
0.37026 0.35668 0.0916915
0.571603 0.282414 0.130648
0.697307 0.247517 0.0992752
0.80856 0.208713 0.0722057
0.875166 0.182193 0.0503243
0.867903 0.161578 0.0370947
0 0.416464 0.0948501
0 0.436912 0.118349
0.101778 0.483772 0.127626
0.328038 0.520363 0.112016
0.534676 0.522225 0.0849928
0.716762 0.459846 0.0947585
0.854704 0.408515 0.107836
0.949569 0.374121 0.0823835
0.940734 0.349706 0.0728923
0.0508583 0.574365 0.123629
0.0605936 0.591699 0.13669
0.12517 0.604273 0.134096
0.316396 0.625971 0.126497
0.503136 0.647135 0.0996567
0.665034 0.642847 0.0467536
0.862898 0.605203 0.0331884
0.973175 0.595224 0.00437934
0.974151 0.568643 0.014725
0.159609 0.705455 0.123171
0.167514 0.722469 0.125322
0.168826 0.722881 0.121736
0.321416 0.742443 0.112261
0.520211 0.770184 0.0867933
0.672358 0.811444 0.0616159
0.837064 0.823835 0
0.923217 0.825925 0
0.937102 0.810788 0
0.240574 0.86833 0.0792554
0.249912 0.882216 0.0822461
0.248173 0.879118 0.0809033
0.359792 0.886839 0.0894789
0.564889 0.90605 0.105287
0.728145 0.928908 0.12343
0.839811 0.949126 0.118853
0.902907 0.953689 0.109743
0.92282 0.951583 0.118242
0.255116 0.89102 0.086305
0.255116 0.89102 0.086305
0.254337 0.891279 0.0910658
0.388006 0.912169 0.11249
0.589883 0.935271 0.137041
0.74995 0.956161 0.160082
0.843519 0.976013 0.184375
0.903868 0.983993 0.232425
0.931716 0.987671 0.289479
0 0 0.195743
0 0 0.18912
0.0537881 0 0.189593
0.226368 0 0.210498
0.373159 0 0.160922
0.464775 0 0.112566
0.571267 0 0.0771801
0.680385 0 0.0535439
0.755352 0 0.0461128
0 0 0.188037
0 0 0.191424
0.064683 0 0.206256
0.256062 0 0.237613
0.397284 0 0.199573
0.498939 0 0.154665
0.607111 0 0.120684
0.715343 0 0.0972915
0.759075 0 0.0961013
0 0.0559548 0.231098
0 0.0637064 0.243168
0.0910048 0.0936751 0.266438
0.316747 0.121492 0.300023
0.466789 0.0819409 0.255741
0.560555 0.0568093 0.210575
0.665354 0.0272068 0.171984
0.765805 0.0112764 0.143862
0.78584 0.00970474 0.142412
0 0.238529 0.272038
0 0.256931 0.296559
0.0531472 0.306035 0.334569
0.344289 0.361715 0.353277
0.524636 0.324788 0.299413
0.641016 0.30045 0.269856
0.759823 0.260822 0.230182
0.861204 0.213764 0.180087
0.865019 0.194583 0.166766
0 0.405386 0.285801
0 0.424186 0.317388
0.0514839 0.463966 0.33579
0.28574 0.518608 0.328679
0.52221 0.537499 0.290517
0.717205 0.484947 0.305852
0.877867 0.439033 0.249744
0.966873 0.390768 0.185428
0.961501 0.368048 0.174273
0.000701915 0.54931 0.300328
0.00270085 0.56437 0.313329
0.0408026 0.577234 0.306706
0.278813 0.638514 0.295842
0.503716 0.664317 0.265263
0.695354 0.682017 0.213306
0.906676 0.633936 0.15317
0.992355 0.609873 0.12517
0.997177 0.584054 0.132219
0.0813916 0.719188 0.251575
0.0809186 0.735286 0.255619
0.0845655 0.735698 0.252216
0.29546 0.767712 0.247028
0.503594 0.794644 0.232151
0.687236 0.830121 0.210666
0.855604 0.841535 0.135698
0.939849 0.829648 0.126741
0.956146 0.818906 0.132815
0.195392 0.874174 0.234546
0.197574 0.885069 0.252415
0.194507 0.880217 0.248768
0.336873 0.885954 0.259159
0.542016 0.904723 0.278965
0.725551 0.924773 0.287861
0.843732 0.946151 0.290471
0.916518 0.951446 0.286275
0.940276 0.950973 0.300206
0.211505 0.897642 0.247135
0.204242 0.897887 0.262425
0.201526 0.897917 0.267063
0.369238 0.918715 0.29482
0.566018 0.940902 0.329915
0.741466 0.957031 0.353597
0.849912 0.971328 0.381521
0.913542 0.981231 0.418799
0.944503 0.986587 0.463294
0 0 0.286213
0 0 0.282292
0.0194553 0 0.28867
0.156771 0 0.296407
0.347753 0 0.320409
0.463203 0 0.294316
0.58056 0 0.244221
0.688273 0 0.197314
0.768658 0 0.175402
0 0 0.283726
0 0 0.287404
0.0320592 0 0.304494
0.192889 0 0.317876
0.373892 0.00234989 0.342016
0.493584 0 0.328084
0.613657 0 0.288182
0.726558 0 0.246738
0.774716 0 0.236088
0 0.0254978 0.318563
0 0.0352331 0.326528
0.0352178 0.0567025 0.35494
0.240146 0.0923629 0.380163
0.452659 0.115648 0.417288
0.562387 0.0953078 0.391562
0.675502 0.0705119 0.351705
0.7823 0.0558785 0.30692
0.806149 0.0494698 0.296712
0 0.185 0.379858
0 0.206897 0.398459
0.0194553 0.242283 0.427329
0.267216 0.316197 0.462028
0.494209 0.353857 0.478264
0.640879 0.319997 0.457771
0.749065 0.273442 0.405371
0.857298 0.208103 0.335042
0.864836 0.185687 0.313573
0 0.392584 0.44361
0 0.414984 0.464408
0.0213016 0.441093 0.482033
0.23711 0.509865 0.516167
0.508553 0.541329 0.515099
0.68896 0.495781 0.455238
0.830777 0.446418 0.391867
0.926543 0.41146 0.34078
0.932433 0.392294 0.323125
0 0.558419 0.47332
0 0.572824 0.485863
0 0.573129 0.484337
0.173236 0.618219 0.484443
0.431968 0.671443 0.451133
0.684932 0.693858 0.405692
0.896559 0.628 0.429541
0.977996 0.607279 0.407553
0.983566 0.588098 0.392401
0 0.704936 0.421515
0 0.716915 0.433112
0 0.712215 0.432319
0.111986 0.736126 0.415381
0.433661 0.790097 0.420706
0.658183 0.819379 0.417639
0.849989 0.838407 0.395392
0.956237 0.8215 0.375799
0.976211 0.814023 0.376974
0.0140383 0.852384 0.378058
0.00201419 0.858991 0.390875
0 0.850706 0.387472
0.195117 0.868772 0.417182
0.489143 0.89749 0.456138
0.679286 0.920821 0.474311
0.839094 0.939132 0.488426
0.923873 0.94818 0.484337
0.954437 0.949294 0.489357
0.0281987 0.878843 0.387717
0.0104067 0.876097 0.397177
0.00608835 0.87538 0.399451
0.240452 0.912535 0.452491
0.507515 0.940581 0.495018
0.685161 0.958526 0.51754
0.8439 0.968582 0.534585
0.915343 0.979751 0.559808
0.953521 0.986923 0.594827
0.00282292 0 0.345678
0.00257877 0 0.343069
0.00624094 0 0.346563
0.108385 0 0.364492
0.29839 0.00148013 0.375784
0.445563 0.011841 0.400168
0.57055 0.000228885 0.388693
0.688594 0 0.348241
0.775876 0 0.315892
0.00283818 0 0.34583
0.00323491 0 0.34966
0.0140993 0 0.362371
0.144137 0 0.383825
0.334066 0.00787366 0.395544
0.482017 0.0168307 0.428031
0.605127 0.0074464 0.421546
0.727489 0.00450141 0.391104
0.783215 0.00628672 0.376242
0.00451667 0.0141451 0.370825
0.00508125 0.0236973 0.379049
0.0182803 0.0413367 0.399008
0.180133 0.0798505 0.446632
0.406958 0.118242 0.46862
0.563226 0.147265 0.503365
0.675074 0.125994 0.487022
0.799573 0.0877241 0.449897
0.825849 0.0725719 0.436942
0.00421149 0.167437 0.445899
0.00492866 0.191302 0.465049
0.0159152 0.217426 0.483482
0.202274 0.29308 0.541009
0.444862 0.327962 0.548928
0.639017 0.340108 0.594568
0.760067 0.289158 0.55317
0.871153 0.231434 0.49575
0.878737 0.211475 0.473732
0 0.369497 0.521675
0 0.389654 0.544228
0 0.4 0.558816
0.155138 0.451575 0.593866
0.420874 0.490211 0.619043
0.650217 0.503838 0.627222
0.821317 0.43711 0.568917
0.911437 0.397787 0.510445
0.922545 0.37792 0.488563
0 0.559121 0.601617
0 0.573144 0.618051
0 0.568093 0.615015
0.0539864 0.598245 0.631296
0.34107 0.654902 0.652689
0.638498 0.672648 0.634897
0.852918 0.623331 0.566659
0.943343 0.602243 0.532586
0.955398 0.591028 0.51899
0 0.719799 0.608362
0 0.732219 0.620279
0 0.724941 0.617197
0.00640879 0.727565 0.612207
0.300679 0.763394 0.603174
0.57351 0.805936 0.585748
0.825193 0.835035 0.563607
0.968048 0.804685 0.575708
0.992996 0.79736 0.586252
0 0.851438 0.565698
0 0.857237 0.578241
0 0.848432 0.577081
0.00166323 0.844648 0.579736
0.304372 0.878325 0.584115
0.585702 0.920607 0.600107
0.805402 0.938964 0.60354
0.923796 0.949981 0.608621
0.965789 0.948272 0.61503
0 0.866468 0.554452
0 0.86688 0.570504
0 0.866987 0.573251
0.00965896 0.885786 0.582086
0.314961 0.932311 0.608331
0.584741 0.960555 0.637781
0.786236 0.973663 0.643656
0.914717 0.980774 0.655558
0.958541 0.988373 0.685023
0.00868238 0 0.406622
0.0084535 0 0.40412
0.00859083 0 0.402594
0.0651255 0 0.427375
0.242267 0.00967422 0.439658
0.417594 0.0314946 0.457237
0.566217 0.0375372 0.493706
0.676936 0.026566 0.479393
0.777066 0.0212406 0.461677
0.00889601 0 0.409354
0.00939956 0 0.414954
0.0110018 0 0.424567
0.0953689 0.00155642 0.448066
0.28893 0.0222019 0.462745
0.462562 0.0448005 0.487251
0.607309 0.0554208 0.52639
0.725978 0.0407721 0.51873
0.795087 0.0288243 0.515969
0.0109865 0.0128786 0.429862
0.0117342 0.0220035 0.440436
0.014435 0.0361028 0.456672
0.120317 0.0797742 0.504234
0.347066 0.124086 0.528099
0.533562 0.159609 0.557031
0.684337 0.162295 0.600702
0.808331 0.119356 0.58938
0.835554 0.101717 0.584878
0.0125429 0.159823 0.512764
0.0122835 0.181399 0.530694
0.0128939 0.202869 0.543145
0.127031 0.261677 0.588373
0.346868 0.276631 0.629953
0.576043 0.292165 0.648402
0.760555 0.293141 0.685924
0.879393 0.246891 0.661601
0.891218 0.228199 0.644297
0.000350958 0.339254 0.604608
0 0.353155 0.630076
0.000259403 0.354116 0.639689
0.0449378 0.379736 0.663508
0.304585 0.429007 0.69865
0.563348 0.436454 0.711513
0.805844 0.44831 0.7467
0.912261 0.414557 0.703929
0.927871 0.396918 0.683986
0 0.508614 0.700069
0 0.519081 0.718578
0 0.513619 0.718029
0 0.521798 0.721431
0.208499 0.571298 0.748028
0.534997 0.606744 0.757916
0.800748 0.624628 0.766674
0.942031 0.58436 0.723522
0.956924 0.571679 0.701549
0 0.709163 0.770077
0 0.720287 0.78114
0 0.712352 0.776913
0 0.710338 0.76939
0.133318 0.745922 0.776852
0.475242 0.787671 0.78146
0.780972 0.814282 0.771099
0.941955 0.788922 0.735668
0.98024 0.781765 0.720577
0 0.857786 0.761944
0 0.862089 0.770153
0 0.853483 0.764492
0 0.843458 0.753384
0.127596 0.870909 0.76318
0.462425 0.901823 0.758282
0.731228 0.934432 0.757488
0.918471 0.948409 0.757412
0.976913 0.943099 0.757244
0 0.866316 0.747936
0 0.865904 0.756893
0 0.86598 0.754604
0 0.879561 0.750515
0.128283 0.920424 0.764553
0.420447 0.94757 0.76553
0.692439 0.975341 0.778058
0.905486 0.979309 0.785672
0.961868 0.98645 0.810315
0.0147402 0 0.477378
0.0146639 0 0.476097
0.0140688 0 0.469413
0.0411536 0.004654 0.496651
0.183215 0.0268406 0.50811
0.379843 0.0556802 0.522713
0.552712 0.070634 0.559457
0.687449 0.0641337 0.589929
0.780621 0.0449531 0.586496
0.0152438 0 0.483421
0.0158236 0 0.49044
0.0167544 0 0.496468
0.0608072 0.0112917 0.528984
0.222538 0.0387274 0.534463
0.422141 0.0565499 0.549905
0.594797 0.0632486 0.596613
0.738521 0.0528572 0.633066
0.80531 0.0516213 0.642435
0.0166781 0.0137179 0.500526
0.017319 0.0235599 0.512261
0.0187381 0.0357061 0.524346
0.0724956 0.0792706 0.571344
0.232578 0.0919966 0.586084
0.452384 0.110353 0.607355
0.646647 0.116686 0.662303
0.812436 0.111833 0.710552
0.842512 0.10312 0.713985
0.0170596 0.152605 0.57998
0.0164492 0.165499 0.599069
0.0167239 0.176852 0.60795
0.0500801 0.198901 0.645777
0.219593 0.24239 0.685389
0.454124 0.244038 0.692348
0.691569 0.248127 0.728557
0.873137 0.241138 0.781323
0.889906 0.226856 0.776028
0.00761425 0.288579 0.682963
0.00706493 0.297795 0.704051
0.00727855 0.296239 0.70692
0.0118715 0.327016 0.717174
0.174823 0.374563 0.749218
0.416815 0.375799 0.773358
0.70544 0.388022 0.783413
0.902556 0.408103 0.827924
0.924575 0.397147 0.824338
0 0.454322 0.771557
0 0.465583 0.78613
0 0.460426 0.784009
0 0.461982 0.790906
0.0767529 0.495872 0.805982
0.39408 0.546181 0.82884
0.705867 0.557702 0.841199
0.927565 0.584588 0.868269
0.953094 0.576516 0.859922
0 0.653117 0.843244
0 0.663722 0.850996
0 0.656641 0.849134
0 0.648447 0.843885
0.0293278 0.667613 0.846052
0.323857 0.720241 0.854978
0.682734 0.75462 0.865568
0.917372 0.793011 0.881193
0.969512 0.782361 0.876951
0 0.855161 0.871183
0 0.858289 0.875013
0 0.850492 0.87039
0 0.836332 0.862058
0.0238041 0.846448 0.866377
0.26569 0.894743 0.882185
0.6215 0.928496 0.889509
0.907454 0.942107 0.892241
0.975921 0.940734 0.894026
0 0.860533 0.862089
0 0.860273 0.864393
0 0.860624 0.861097
0 0.872221 0.85951
0.016144 0.89691 0.866361
0.23418 0.940414 0.880873
0.559762 0.964675 0.886458
0.869383 0.978866 0.892348
0.964324 0.983948 0.905348
0.0178073 0 0.517067
0.0178073 0 0.517067
0.0178073 0 0.517067
0.0279088 0.0099794 0.551797
0.121019 0.0260471 0.580789
0.284184 0.0249943 0.5823
0.508141 0.0378424 0.603403
0.676387 0.0487831 0.656077
0.788693 0.0477607 0.681437
0.0178073 0 0.517067
0.0178073 0 0.517067
0.0182956 0 0.520775
0.0477302 0.0146029 0.562158
0.154986 0.0213931 0.586496
0.349401 0.0259709 0.592737
0.561746 0.0371099 0.627451
0.731685 0.0467536 0.682734
0.812299 0.0420233 0.698344
0.0191196 0.01355 0.534554
0.0195163 0.0236515 0.54342
0.020737 0.0346075 0.555428
0.0469215 0.0553902 0.598627
0.15259 0.0610513 0.630701
0.375982 0.0714733 0.634089
0.610162 0.0923018 0.669139
0.794247 0.100572 0.722148
0.840055 0.0986191 0.731395
0.0183719 0.127596 0.62121
0.0177157 0.140612 0.63154
0.0178378 0.14725 0.641001
0.0262608 0.171038 0.673243
0.157305 0.225483 0.715267
0.373663 0.22063 0.709773
0.642512 0.223056 0.726726
0.85069 0.22504 0.783566
0.887495 0.21973 0.789319
0.00970474 0.264698 0.703395
0.00852979 0.281361 0.710155
0.00863661 0.279835 0.709529
0.0115663 0.304997 0.728557
0.110307 0.346593 0.760235
0.343694 0.360494 0.786587
0.644297 0.356161 0.783749
0.882856 0.383917 0.834073
0.922591 0.388159 0.841672
0 0.435599 0.773587
0 0.449027 0.779339
0 0.443763 0.777111
0 0.444327 0.783383
0.0502632 0.468132 0.803433
0.319203 0.522148 0.83566
0.64625 0.526513 0.857939
0.902846 0.559106 0.876402
0.949676 0.575235 0.884321
0 0.633738 0.844907
0 0.647471 0.848035
0 0.639689 0.846342
0 0.62443 0.844862
0 0.638758 0.853178
0.230182 0.690105 0.868803
0.607355 0.721614 0.896468
0.884718 0.764538 0.895491
0.967086 0.794217 0.919234
0 0.840604 0.880796
0 0.846372 0.8822
0 0.835691 0.879606
0 0.813153 0.876127
0 0.817975 0.882628
0.172061 0.863035 0.90248
0.551919 0.901778 0.919173
0.869062 0.923506 0.924773
0.964141 0.942229 0.934951
0 0.85594 0.884749
0 0.85594 0.884749
0 0.85594 0.884749
0 0.866285 0.890501
0 0.887922 0.900999
0.148394 0.930419 0.922774
0.364675 0.956481 0.930739
0.78555 0.979126 0.932723
0.958099 0.983322 0.940383
