src/assets/luts/扫街配方/纪实调.cube
LUT_3D_SIZE 33
0.011764706 0.007843138 0.007843138
0.02647059 0.007843138 0.004901961
0.05686275 0.013725491 0.009803923
0.09607843 0.02254902 0.016666668
0.13725491 0.03137255 0.019607844
0.19901961 0.037254903 0.02254902
0.25490198 0.047058824 0.029411767
0.3009804 0.056862745 0.038235296
0.33333334 0.0627451 0.047058824
0.37156862 0.07156863 0.058823533
0.40588236 0.08039216 0.064705886
0.44117647 0.09019608 0.07058824
0.48235294 0.101960786 0.08235294
0.5205883 0.11666667 0.09117647
0.5588236 0.13137256 0.1
0.5950981 0.14607844 0.10980392
0.627451 0.16078432 0.12156863
0.6627451 0.1754902 0.13039216
0.6921569 0.19019608 0.14313726
0.72058827 0.20686275 0.15882353
0.7529412 0.22745098 0.1764706
0.77352947 0.24215686 0.18823528
0.79607844 0.25686276 0.20196077
0.81960785 0.27156866 0.21568628
0.84313726 0.28627452 0.22745098
0.8637255 0.3009804 0.24509805
0.88235295 0.31764707 0.25882354
0.9019608 0.33627453 0.2735294
0.9254902 0.35686278 0.29411766
0.94901955 0.37745097 0.31176472
0.9647058 0.39411765 0.32941177
0.9754902 0.40882355 0.34607846
0.98431367 0.42352942 0.36078432
0.011764706 0.022549018 0.010784314
0.024264704 0.020343136 0.007843138
0.046568632 0.02401961 0.009803922
0.07990196 0.032107845 0.01372549
0.1254902 0.043137256 0.016666668
0.20490196 0.042401962 0.012990196
0.26519608 0.050000004 0.016176471
0.3134804 0.059803925 0.022058824
0.35686272 0.06568628 0.026470589
0.39289212 0.07230392 0.038235296
0.42352942 0.08186275 0.047058824
0.45367646 0.09240197 0.055882353
0.4882353 0.101960786 0.06764706
0.5286765 0.11666667 0.080882356
0.56470597 0.12990198 0.089705884
0.59803927 0.14313726 0.09877451
0.6303922 0.15784314 0.1127451
0.6678922 0.1769608 0.1259804
0.7009804 0.19166666 0.13872549
0.72794116 0.20612745 0.15
0.74705887 0.2245098 0.15882353
0.7742647 0.23921569 0.17279412
0.797549 0.25392157 0.19019608
0.81960785 0.26936275 0.20759805
0.84313726 0.28627452 0.22156863
0.8593137 0.3009804 0.23921569
0.8794117 0.31911767 0.25588238
0.9019608 0.3384804 0.27132353
0.9254902 0.35686278 0.28529412
0.94460785 0.37745097 0.30514708
0.9602941 0.39411765 0.32500002
0.97401965 0.40955886 0.34387255
0.98725486 0.42647058 0.36078432
0.01764706 0.04117647 0.015686275
0.024999999 0.036764707 0.01127451
0.04313726 0.039215688 0.011764707
0.07303922 0.04656863 0.014705883
0.115686275 0.05686275 0.01764706
0.18333334 0.061274514 0.013235295
0.24607845 0.06666667 0.013725491
0.30392158 0.07009804 0.016176471
0.35686272 0.068627454 0.01764706
0.3980392 0.07156863 0.025000002
0.4343137 0.08137255 0.03529412
0.46862745 0.09362745 0.045588236
0.50392157 0.10392157 0.05294118
0.54068625 0.11715686 0.066176474
0.57450986 0.12941177 0.07745098
0.607353 0.14215687 0.08872549
0.64117646 0.15686275 0.101960786
0.67352945 0.17598039 0.11813726
0.7029412 0.19117647 0.13039216
0.7294118 0.20490196 0.14068627
0.7529412 0.21960783 0.1509804
0.77794117 0.2357843 0.16421568
0.8009804 0.25196078 0.18039216
0.82303923 0.26862746 0.19656864
0.845098 0.28627452 0.20980392
0.8612745 0.3009804 0.22745098
0.88039213 0.31764707 0.24705884
0.9019608 0.33676472 0.26617646
0.9254902 0.35882354 0.28235295
0.9416667 0.37794116 0.3014706
0.9578432 0.39313725 0.31960785
0.97401965 0.40833336 0.3377451
0.9901961 0.42745098 0.35686275
0.025490196 0.061764706 0.021568628
0.02990196 0.056617647 0.01642157
0.045098044 0.057843138 0.016176471
0.07009804 0.06348039 0.018382354
0.10392157 0.07156863 0.020588236
0.15245098 0.082598045 0.019117648
0.2137255 0.08872549 0.018137256
0.2779412 0.08946079 0.01764706
0.33529413 0.08431373 0.01764706
0.38308823 0.08284314 0.018382354
0.43137252 0.0882353 0.025980394
0.4769608 0.097058825 0.035539217
0.5166667 0.105882354 0.042156864
0.5504902 0.11764706 0.053921573
0.5828432 0.12941177 0.066176474
0.6154412 0.14240196 0.07818627
0.65000004 0.15784314 0.08921569
0.6772059 0.1740196 0.106127456
0.702451 0.18872549 0.11813726
0.7284314 0.20245098 0.12965687
0.75784314 0.21568626 0.14509805
0.779902 0.23259804 0.15612745
0.8019608 0.2495098 0.16911766
0.8240197 0.26666668 0.18333334
0.84607846 0.28431374 0.19803922
0.86372554 0.29975492 0.2142157
0.88186276 0.3151961 0.23431374
0.9017157 0.33357847 0.25588235
0.9245098 0.35784316 0.2764706
0.9406863 0.3754902 0.29338235
0.9563726 0.39019606 0.31078434
0.972549 0.40539217 0.32941175
0.99019605 0.42450982 0.35000002
0.03137255 0.08235294 0.02745098
0.04019608 0.07941177 0.024509804
0.050980397 0.078431375 0.023529412
0.06568628 0.08039216 0.023529412
0.08627451 0.08627451 0.023529412
0.13039216 0.09509804 0.026470589
0.18431373 0.107843146 0.025490196
0.24117647 0.11960785 0.023529412
0.29411766 0.1254902 0.023529412
0.34411764 0.11960785 0.01764706
0.40784314 0.111764714 0.015686275
0.46960786 0.105882354 0.021568628
0.5137255 0.105882354 0.039215688
0.5519608 0.11764706 0.050980393
0.58431375 0.12941177 0.058823533
0.6147059 0.14313726 0.06568628
0.64705884 0.16078432 0.07450981
0.67647064 0.17254902 0.08921569
0.70392156 0.18431371 0.101960786
0.7284314 0.1980392 0.115686275
0.7490196 0.21568626 0.13333334
0.7754902 0.23039216 0.14215687
0.79607844 0.24509805 0.15294118
0.8166667 0.26078433 0.16862746
0.84313726 0.2784314 0.19215685
0.8607843 0.29607844 0.20392157
0.8803922 0.3137255 0.21960784
0.9009804 0.33137256 0.2382353
0.92156863 0.34901962 0.25882354
0.94215685 0.36666667 0.2735294
0.95490193 0.38431373 0.29607844
0.96666664 0.4009804 0.32058823
0.98431367 0.41568628 0.34117648
0.034313727 0.11176471 0.030392159
0.04534314 0.10882354 0.029656865
0.05539216 0.107843146 0.029411767
0.06642157 0.10906863 0.029411767
0.08039216 0.1127451 0.029411767
0.11127451 0.11715687 0.032352943
0.15343139 0.12696078 0.034313727
0.20147058 0.13872549 0.034558825
0.25 0.14901961 0.032352943
0.3 0.15416667 0.030882355
0.36078432 0.15441176 0.027450982
0.42107844 0.1514706 0.026715687
0.46960786 0.14705883 0.033333335
0.5232843 0.14338236 0.031862743
0.5681373 0.14264706 0.038235296
0.60808825 0.14681374 0.051715687
0.64705884 0.15784314 0.07156863
0.6742647 0.17181373 0.084068626
0.69950986 0.18284313 0.094607845
0.72401965 0.19362745 0.10465686
0.7490196 0.20686275 0.115686275
0.77107847 0.22156863 0.12230393
0.79019606 0.23480392 0.13382354
0.81004906 0.2497549 0.14950982
0.83431375 0.26960784 0.16862746
0.8563725 0.28284314 0.17818628
0.8745098 0.29901963 0.19460785
0.8928922 0.31740195 0.21544118
0.91568625 0.3372549 0.2382353
0.9340686 0.35269606 0.25514707
0.94901955 0.37107843 0.27401963
0.96299016 0.389951 0.29485294
0.97843134 0.40686277 0.31764707
0.037254903 0.1392157 0.043137256
0.04901961 0.13627452 0.03872549
0.05784314 0.13725491 0.03627451
0.06666667 0.1397059 0.03529412
0.078431375 0.14117648 0.03529412
0.103431374 0.14411765 0.039705884
0.13627452 0.15196079 0.043137256
0.1740196 0.16127452 0.04509804
0.21372549 0.16862746 0.04509804
0.26813728 0.17892158 0.043627452
0.3254902 0.1872549 0.04117647
0.38137257 0.19215685 0.04019608
0.43137255 0.19215687 0.043137256
0.4901961 0.18627451 0.03872549
0.54313725 0.18235293 0.04019608
0.5906863 0.18039215 0.04656863
0.6333333 0.18039216 0.05686275
0.67009807 0.18480393 0.0627451
0.70000005 0.18823528 0.07254902
0.7259804 0.19362745 0.085784316
0.7509804 0.20392157 0.101960786
0.7730392 0.22009805 0.1122549
0.7921569 0.23333332 0.12450981
0.81029415 0.24656862 0.1367647
0.82941175 0.2627451 0.14705883
0.8485294 0.27303922 0.15588236
0.8666667 0.2882353 0.17058824
0.8857844 0.30637255 0.18970588
0.9078432 0.3254902 0.2117647
0.9240196 0.34019607 0.22941177
0.94215685 0.35980392 0.25
0.95980394 0.38039216 0.27205884
0.97450984 0.39803922 0.29411766
0.039215688 0.16666667 0.056862745
0.0502451 0.1637255 0.0502451
0.057352945 0.16617647 0.046078432
0.06544118 0.16960785 0.044362746
0.07941177 0.16960785 0.04509804
0.10147059 0.17328432 0.0502451
0.12794119 0.17941177 0.052941177
0.15784314 0.18529412 0.055392157
0.19019607 0.1882353 0.05980392
0.24240197 0.1992647 0.059068628
0.29509807 0.21225488 0.05735294
0.34754902 0.2242647 0.05637255
0.3990196 0.23235294 0.057843138
0.45931372 0.23161766 0.055637255
0.5151961 0.23088235 0.05392157
0.56617653 0.22794117 0.051960785
0.6117647 0.22058824 0.04901961
0.65955883 0.21470588 0.04754902
0.6965686 0.20980391 0.053431377
0.7262255 0.20882352 0.06568628
0.7519608 0.21470588 0.083333336
0.7769608 0.22647059 0.09803922
0.79656863 0.2372549 0.1137255
0.81299025 0.24754903 0.12671569
0.82843137 0.25784314 0.13333334
0.842402 0.267402 0.14142157
0.86078435 0.28235295 0.15392157
0.88088244 0.29975492 0.16985294
0.90000004 0.31666666 0.18823528
0.91544116 0.33063725 0.20441175
0.9348039 0.3495098 0.22647059
0.95392156 0.36985296 0.25
0.96862745 0.3882353 0.27058825
0.039215688 0.19607843 0.0627451
0.048039217 0.19313724 0.0627451
0.052941177 0.19411764 0.060784318
0.061764706 0.19607843 0.059803925
0.08235294 0.19607843 0.0627451
0.1 0.20196079 0.06568628
0.12352942 0.20588236 0.064705886
0.15196079 0.20882353 0.06568628
0.18431373 0.21176471 0.07450981
0.21666667 0.22058824 0.08039216
0.2627451 0.23137254 0.07647059
0.31666666 0.24411765 0.06960785
0.37254903 0.25882354 0.06666667
0.43725488 0.2647059 0.06666667
0.49019608 0.27058825 0.068627454
0.5382353 0.2735294 0.06960785
0.5882353 0.27058825 0.06666667
0.63823533 0.2647059 0.060784318
0.68039215 0.25686276 0.054901965
0.7166667 0.25 0.050980393
0.7490196 0.24705882 0.050980393
0.7784314 0.24117646 0.06568628
0.79803926 0.24313724 0.09019608
0.81372553 0.24901961 0.115686275
0.83137256 0.25490198 0.13333334
0.84313726 0.26666668 0.1392157
0.86078435 0.28235295 0.1509804
0.8794118 0.29901963 0.16470589
0.89411765 0.3137255 0.1764706
0.9117647 0.3254902 0.18823528
0.92745095 0.3392157 0.20588234
0.94215685 0.35588235 0.22647059
0.9568627 0.3764706 0.24705882
0.03627451 0.22843136 0.08039216
0.042892158 0.22769606 0.07818627
0.048529413 0.22941175 0.07696079
0.056617647 0.23137255 0.07745098
0.07058824 0.23137255 0.08039216
0.09044118 0.23504902 0.083333336
0.11617648 0.23529412 0.08382353
0.14387256 0.2367647 0.084803924
0.16960785 0.24411766 0.08921569
0.20637254 0.2529412 0.092892155
0.24950981 0.26078433 0.09558824
0.29681373 0.26911765 0.094607845
0.34607846 0.2794118 0.087254904
0.40637255 0.29411766 0.08504902
0.45784312 0.3014706 0.083333336
0.50735295 0.30514705 0.08210784
0.5617647 0.30882353 0.08137255
0.607353 0.31617647 0.08431373
0.65098035 0.3142157 0.07990196
0.6931373 0.30661765 0.07377452
0.7343137 0.29705882 0.07156863
0.7615197 0.29117647 0.068627454
0.7877451 0.2872549 0.071078435
0.8137255 0.28431374 0.07818627
0.8401961 0.28137255 0.08921569
0.8519608 0.28431374 0.108333334
0.8666667 0.2911765 0.13480392
0.88235295 0.3004902 0.15955883
0.89705884 0.31078434 0.17352942
0.91249996 0.3247549 0.18308824
0.9259803 0.3377451 0.19558823
0.93995094 0.3514706 0.21029413
0.9568627 0.36764705 0.22647059
0.03137255 0.26274508 0.10196079
0.034313727 0.26274508 0.09901961
0.04019608 0.2637255 0.09901962
0.048039217 0.26519608 0.1004902
0.05686275 0.26666668 0.10196079
0.075980395 0.26960784 0.1004902
0.1009804 0.27058825 0.10098039
0.12892157 0.27303922 0.10294118
0.15686275 0.28039217 0.10588236
0.19068627 0.28627452 0.10882353
0.23235294 0.2911765 0.11176471
0.27745098 0.29607844 0.113235295
0.32156864 0.3019608 0.111764714
0.3745098 0.31666666 0.11029412
0.4245098 0.3264706 0.10686275
0.47696078 0.33382353 0.10245098
0.5372549 0.34117648 0.09803922
0.5828432 0.3514706 0.10098039
0.6254902 0.3529412 0.1
0.6656863 0.3504902 0.09754902
0.70392156 0.3490196 0.09607843
0.7377451 0.34313726 0.08872549
0.77156866 0.3372549 0.083333336
0.80490196 0.33039218 0.07990196
0.8372549 0.32156864 0.078431375
0.85343134 0.32009804 0.087254904
0.87058824 0.31862748 0.102941185
0.8887255 0.31911767 0.12205882
0.9078431 0.32352942 0.14117648
0.9181372 0.33088237 0.16470589
0.92843133 0.33823532 0.18431371
0.94019604 0.3480392 0.20196077
0.95490193 0.3627451 0.21960784
0.023529412 0.29705882 0.12352942
0.024264706 0.29705882 0.120588236
0.029901963 0.29656863 0.12107844
0.0375 0.29705885 0.12254903
0.04411765 0.3 0.12254903
0.061029416 0.3036765 0.118137255
0.08431373 0.30686277 0.11764706
0.1125 0.31053925 0.11960784
0.14411765 0.3156863 0.12254903
0.17500001 0.31789216 0.12401961
0.21519609 0.32107845 0.125
0.25906864 0.32450983 0.12745099
0.3009804 0.327451 0.13333334
0.34656864 0.33627453 0.13406864
0.39411765 0.34607846 0.13137256
0.44779414 0.35661763 0.1257353
0.5117647 0.36764705 0.11764706
0.56029415 0.3757353 0.11544118
0.60343134 0.3794118 0.11617647
0.6421569 0.38284314 0.11764706
0.677451 0.39019606 0.11764706
0.71642154 0.3879902 0.11470588
0.7534314 0.38382354 0.10980392
0.7894608 0.3767157 0.101960786
0.82549024 0.3656863 0.09019608
0.84901965 0.36127454 0.08504902
0.8705883 0.35490197 0.083333336
0.89191175 0.3495098 0.08921569
0.9147059 0.3480392 0.106862746
0.9235294 0.34730393 0.13700981
0.93333334 0.34852943 0.1607843
0.94411767 0.3534314 0.18308823
0.9558824 0.36372548 0.20882353
0.011764706 0.32941177 0.14117648
0.014705883 0.32941177 0.1382353
0.019607844 0.327451 0.13725491
0.026470589 0.3264706 0.13725491
0.03529412 0.32941177 0.13725491
0.05 0.33529413 0.13725491
0.07254902 0.3392157 0.13529412
0.1 0.3421569 0.13431373
0.12941177 0.34509805 0.13725491
0.16470589 0.34509805 0.13431373
0.20196079 0.34901962 0.13529412
0.24215686 0.3539216 0.1392157
0.28627452 0.35686278 0.14509805
0.327451 0.35686278 0.14803922
0.37058824 0.36078432 0.14901961
0.42058825 0.3705882 0.14705883
0.48235294 0.3882353 0.14117648
0.5352941 0.39411765 0.13235295
0.58431375 0.40000004 0.12941177
0.6303922 0.40490198 0.12941177
0.6745098 0.40784314 0.12941177
0.70686275 0.4166667 0.13529412
0.7372549 0.41764706 0.13333334
0.7696079 0.41274512 0.1254902
0.8078432 0.4039216 0.11372549
0.84019613 0.39509806 0.110784315
0.8647059 0.39019608 0.10392157
0.88529414 0.38627452 0.09803922
0.90588236 0.38039216 0.09803922
0.92352945 0.377451 0.10392157
0.9392157 0.3764706 0.11372549
0.9529412 0.3754902 0.13529412
0.9647059 0.37254903 0.1764706
0.011764706 0.35588235 0.15882353
0.014705883 0.35808823 0.15808824
0.018137256 0.35980392 0.15784314
0.022058824 0.3602941 0.15710784
0.026470589 0.35882354 0.15490197
0.043382354 0.36691177 0.15710784
0.062254906 0.37009805 0.15588236
0.08455883 0.37156862 0.15416667
0.11176471 0.37450978 0.15490197
0.1514706 0.3767157 0.15416667
0.19166666 0.37990198 0.15588236
0.23259804 0.38333336 0.15906863
0.27450982 0.38627452 0.1627451
0.3156863 0.3906863 0.1634804
0.35882354 0.39460784 0.16519609
0.40220588 0.4 0.16691177
0.44411764 0.40882355 0.16764706
0.50808823 0.41691178 0.15882353
0.5666667 0.42352942 0.15294118
0.61715686 0.42916667 0.14852941
0.65686274 0.4343137 0.14411765
0.6936274 0.4409314 0.14779413
0.7269608 0.4426471 0.14656863
0.7578432 0.44215688 0.14313726
0.787255 0.44215688 0.14019608
0.817402 0.43774512 0.13725491
0.84852946 0.43284315 0.13186274
0.8772059 0.42892158 0.12598039
0.9 0.42745098 0.121568635
0.919853 0.42230392 0.12303922
0.93921566 0.41764706 0.12696078
0.9558824 0.41446078 0.13529412
0.9676471 0.4137255 0.15
0.015686275 0.38823527 0.1764706
0.015686275 0.38970587 0.1764706
0.01764706 0.39117646 0.17745098
0.020588236 0.39215684 0.17696078
0.023529412 0.39215687 0.17254902
0.03529412 0.39950982 0.1740196
0.053921573 0.4019608 0.17352942
0.07696079 0.40294117 0.17254902
0.101960786 0.40588236 0.17254902
0.13872549 0.41029412 0.17254902
0.18039215 0.41274512 0.1754902
0.2240196 0.41421568 0.17892157
0.26666668 0.41568628 0.18039215
0.30931374 0.42009807 0.18186274
0.3509804 0.42450982 0.18431373
0.39215684 0.4284314 0.18676472
0.43333334 0.43137255 0.1882353
0.4877451 0.4387255 0.18676472
0.5431373 0.44607842 0.18235295
0.59607846 0.45294118 0.17598039
0.6431373 0.45882353 0.16862746
0.67990196 0.4661765 0.16568628
0.7147058 0.47058827 0.1637255
0.74754906 0.47254902 0.1622549
0.7784314 0.47254902 0.16078432
0.8063726 0.47401965 0.15931374
0.8362745 0.47254905 0.15490197
0.8661765 0.46960786 0.14901961
0.8941176 0.46666667 0.14313726
0.9147059 0.4637255 0.14166668
0.9343137 0.45980394 0.14313726
0.9529412 0.45539218 0.14705883
0.97058827 0.4509804 0.15294118
0.019607844 0.422549 0.19607843
0.017401962 0.422549 0.19534314
0.018137256 0.422549 0.19656861
0.020588236 0.4235294 0.19656861
0.023529412 0.42647058 0.19215687
0.028676473 0.43161765 0.19142157
0.046078436 0.43382353 0.19068629
0.06985294 0.43553925 0.19068629
0.09411765 0.4392157 0.19215687
0.12794119 0.44362745 0.19142157
0.16960785 0.44558823 0.19509803
0.21446079 0.44607842 0.1990196
0.25784314 0.44607842 0.1990196
0.304902 0.4482843 0.20122549
0.34656864 0.45294118 0.20392157
0.3877451 0.45735294 0.20637256
0.43333334 0.45882353 0.20784314
0.4759804 0.4625 0.21225491
0.5230392 0.46911764 0.21127452
0.5737746 0.47696078 0.20637256
0.627451 0.48431373 0.19901961
0.6664216 0.492402 0.18946078
0.70343137 0.4985294 0.18529412
0.7387255 0.50196075 0.18357843
0.77254903 0.5019608 0.18137255
0.8004902 0.5063726 0.17916667
0.82843137 0.50735295 0.175
0.8571079 0.5056373 0.16960785
0.88725483 0.5019608 0.1637255
0.9078431 0.5026961 0.16151962
0.9279412 0.50147057 0.16323529
0.9482844 0.49754906 0.16740197
0.96960783 0.49019608 0.17254902
0.019607844 0.45490196 0.21960784
0.019607844 0.45490196 0.21666665
0.019607844 0.45490196 0.21568626
0.020588236 0.45588234 0.21568626
0.023529412 0.4588235 0.21568626
0.026470589 0.4617647 0.2127451
0.037254903 0.46470588 0.20980392
0.055882353 0.46862745 0.20980392
0.08235294 0.4745098 0.21568626
0.12058824 0.4745098 0.2127451
0.16078432 0.4764706 0.21568628
0.20196079 0.47843134 0.21960784
0.24313726 0.47843134 0.21960784
0.2990196 0.47843134 0.21960784
0.34509805 0.4823529 0.22156863
0.38627452 0.4882353 0.2254902
0.42745098 0.49411765 0.23137255
0.4745098 0.4911765 0.23137255
0.5156863 0.49411768 0.23333335
0.5568628 0.5019608 0.23431374
0.6039216 0.5137255 0.23137255
0.6539216 0.5196079 0.21960783
0.6960784 0.5235294 0.2117647
0.7313726 0.5284314 0.20784314
0.7607843 0.5372549 0.20784314
0.79313725 0.5372549 0.19901961
0.82549024 0.5352942 0.19411764
0.85490197 0.53431374 0.19019607
0.8784314 0.5372549 0.18431373
0.8990196 0.5401961 0.18431373
0.92352945 0.5411765 0.18823528
0.9460785 0.5401961 0.19313724
0.9607843 0.5372549 0.19607843
0.016666668 0.48137254 0.2372549
0.01887255 0.48578435 0.23872548
0.019607844 0.48431376 0.2362745
0.020588236 0.48235294 0.23333332
0.023529412 0.4852941 0.23333332
0.026470589 0.49485296 0.23480392
0.03872549 0.49852943 0.23333332
0.058088236 0.5002451 0.23333332
0.08235294 0.50392157 0.23921569
0.10955883 0.5061275 0.23848039
0.14901961 0.5058824 0.2377451
0.19313726 0.5056373 0.2372549
0.23431373 0.50784314 0.2372549
0.28357846 0.5122549 0.24166667
0.33039218 0.5147059 0.24656864
0.37671572 0.51691175 0.2497549
0.42450982 0.5205883 0.24901962
0.46495098 0.52205884 0.2512255
0.50686276 0.52500004 0.25392157
0.5495098 0.53063726 0.25710785
0.5921569 0.5401961 0.26078433
0.63774514 0.5438726 0.25343138
0.67990196 0.54852945 0.24705884
0.7203431 0.5534314 0.23946078
0.7607843 0.55784315 0.22843139
0.79093134 0.56004906 0.21960784
0.81960785 0.56029415 0.21617647
0.84828436 0.56078434 0.21372549
0.8784314 0.56372553 0.20784312
0.8990196 0.5666667 0.21004902
0.9191177 0.5676471 0.21323529
0.93872553 0.567402 0.21593137
0.95784307 0.5666667 0.21666667
0.01764706 0.5137255 0.25882354
0.019117648 0.5151961 0.25735295
0.019607844 0.5147059 0.25588235
0.020588236 0.5137255 0.25441176
0.023529412 0.5137255 0.2529412
0.026470589 0.52107847 0.2529412
0.03627451 0.5254902 0.2529412
0.051960785 0.5284314 0.25392157
0.07254902 0.53137255 0.25686276
0.09754902 0.5343138 0.25833333
0.13431373 0.53333336 0.25686276
0.1764706 0.53186274 0.25539216
0.21764706 0.53333336 0.25686276
0.2647059 0.54068625 0.26568627
0.31176472 0.5441177 0.26960784
0.35980394 0.54509807 0.27009803
0.40980393 0.54509807 0.26862746
0.45245096 0.54803926 0.27303922
0.49607843 0.5519608 0.27549022
0.5392157 0.5563726 0.27745098
0.5803922 0.56078434 0.28039217
0.62009805 0.5651961 0.27892157
0.6627451 0.57058823 0.2764706
0.70735294 0.5764706 0.27058825
0.7529412 0.582353 0.25882354
0.7838235 0.582353 0.24852942
0.8117647 0.5833334 0.24117649
0.8406863 0.5852941 0.23431373
0.8745098 0.5882353 0.2254902
0.8980392 0.5882353 0.22990197
0.9176471 0.59019613 0.23235294
0.93480396 0.5921569 0.23431373
0.95098037 0.5921569 0.23725492
0.019607844 0.54509807 0.28039217
0.019607844 0.54289216 0.27524513
0.019607844 0.5446079 0.275
0.020588236 0.54656863 0.2757353
0.023529412 0.54509807 0.2735294
0.025735294 0.54803926 0.27132356
0.031862747 0.552451 0.27254903
0.042401962 0.5568628 0.27450982
0.05784314 0.55980396 0.27450982
0.08284314 0.56274515 0.2767157
0.11519609 0.56225497 0.2764706
0.15220588 0.56078434 0.2764706
0.19117647 0.56078434 0.2794118
0.2382353 0.5681373 0.2889706
0.28578433 0.5720588 0.2911765
0.33480394 0.57279414 0.2901961
0.38627452 0.57058823 0.2901961
0.4348039 0.57500005 0.29607844
0.48088235 0.579902 0.29901963
0.52549016 0.58357847 0.29975492
0.56960785 0.58431375 0.29901963
0.6056373 0.5894608 0.30122548
0.64754903 0.59460783 0.30245098
0.6921569 0.6007353 0.30098042
0.73627454 0.60882354 0.29509807
0.7708333 0.6066177 0.28406864
0.80196077 0.60882354 0.2735294
0.8333333 0.6125 0.26200983
0.8686274 0.6147059 0.24803923
0.89436275 0.6132353 0.2509804
0.9156863 0.6147059 0.2514706
0.9328432 0.61715686 0.25343138
0.9460784 0.6186275 0.26078433
0.019607844 0.5686275 0.29803923
0.019607844 0.5686275 0.29509807
0.019607844 0.57254905 0.29411766
0.020588236 0.577451 0.29411766
0.023529412 0.5803922 0.29411766
0.023529412 0.5833334 0.29411766
0.027450982 0.5862745 0.29607844
0.034313727 0.5892157 0.29803923
0.043137256 0.5921569 0.29803923
0.063725494 0.5950981 0.29803923
0.09019608 0.59607846 0.3
0.120588236 0.59607846 0.3029412
0.15294118 0.59607846 0.30588236
0.19999999 0.59901965 0.30882353
0.24901961 0.6 0.31176472
0.30098042 0.6 0.3137255
0.35686278 0.6 0.3137255
0.40980393 0.60882354 0.31960785
0.45882353 0.61372554 0.3254902
0.50784314 0.6166667 0.32843137
0.56078434 0.61960787 0.3254902
0.59901965 0.62254906 0.3254902
0.63725495 0.6254902 0.327451
0.6745098 0.6294118 0.33039218
0.70980394 0.63529414 0.33333334
0.7509804 0.63529414 0.3245098
0.79019606 0.64117646 0.31764707
0.827451 0.64705884 0.30686277
0.86274505 0.64705884 0.28627452
0.8862745 0.65000004 0.28039217
0.9098039 0.64705884 0.2764706
0.9313725 0.6450981 0.2784314
0.9490196 0.6509804 0.2901961
0.019607844 0.6009804 0.32156864
0.021813726 0.60539216 0.32303923
0.02254902 0.60784316 0.32205883
0.022794118 0.6098039 0.32058823
0.023529412 0.6127451 0.32058823
0.023529412 0.61348045 0.32058823
0.027450982 0.6156863 0.32254905
0.03284314 0.6193628 0.3252451
0.037254903 0.6245098 0.327451
0.04901961 0.627451 0.3252451
0.06666667 0.62990195 0.3264706
0.089705884 0.6328432 0.3294118
0.11764706 0.63725495 0.33235294
0.17132354 0.6313726 0.33308825
0.21960783 0.6294118 0.33382353
0.26715687 0.63161767 0.33504903
0.31862748 0.63823533 0.3372549
0.38259804 0.6404412 0.34313726
0.4352941 0.64313734 0.34754902
0.48431373 0.64607847 0.3504902
0.5372549 0.6490196 0.35196078
0.58651966 0.6541667 0.34975493
0.6269608 0.6578432 0.352451
0.6642157 0.66102946 0.35759804
0.70392156 0.6647059 0.3627451
0.73627454 0.6647059 0.3627451
0.7754902 0.6691177 0.35588235
0.81642157 0.6750001 0.34436277
0.85392153 0.67941177 0.33039218
0.8796569 0.6779412 0.3178922
0.90539217 0.67647064 0.31029412
0.9284314 0.67524517 0.30857846
0.9460784 0.6745098 0.3137255
0.021568628 0.627451 0.34901962
0.023039216 0.63186276 0.3490196
0.023529412 0.6333333 0.3480392
0.023529412 0.6343137 0.34705883
0.023529412 0.63725495 0.34705883
0.025 0.6387255 0.34705883
0.027450982 0.6431373 0.34901962
0.030392159 0.6485294 0.3514706
0.033333335 0.6529412 0.3529412
0.040686276 0.65588236 0.3514706
0.05196079 0.65882355 0.3509804
0.06911765 0.6622549 0.35196078
0.09411765 0.6666667 0.35490197
0.1367647 0.6622549 0.35490197
0.18039215 0.6598039 0.35588235
0.22696078 0.66127455 0.35882354
