src/assets/luts/扫街配方/纪实调.cube
LUT_3D_SIZE 5
0.011764706 0.007843138 0.007843138
0.33333334 0.0627451 0.047058824
0.627451 0.16078432 0.12156863
0.84313726 0.28627452 0.22745098
0.98431367 0.42352942 0.36078432
0.039215688 0.19607843 0.0627451
0.18431373 0.21176471 0.07450981
0.5882353 0.27058825 0.06666667
0.83137256 0.25490198 0.13333334
0.9568627 0.3764706 0.24705882
0.019607844 0.45490196 0.21960784
0.08235294 0.4745098 0.21568626
0.42745098 0.49411765 0.23137255
0.7607843 0.5372549 0.20784314
0.9607843 0.5372549 0.19607843
0.019607844 0.6745098 0.4
0.03529412 0.70196074 0.39607844
0.17254902 0.7254902 0.40784314
0.6627451 0.74509805 0.43137252
0.94117653 0.7647059 0.39607844
0.03529412 0.8117647 0.5294118
0.043137256 0.8352942 0.5411765
0.050980393 0.890196 0.5647059
0.24705882 0.92156863 0.5921569
0.8509804 0.94117653 0.6627451
0.13725491 0.07450981 0.25882354
0.36470586 0.10980392 0.23529413
0.6313726 0.21176471 0.27450982
0.827451 0.32941177 0.4
0.98431367 0.44705883 0.48235294
0.039215688 0.22745098 0.25882354
0.22352941 0.25490198 0.25490198
0.6156863 0.28627452 0.25490198
0.84705883 0.34117648 0.32941177
0.99215686 0.45098042 0.42745098
0.015686275 0.4745098 0.34509805
0.09019608 0.49019608 0.34509805
0.45490196 0.5176471 0.3529412
0.7921569 0.5568628 0.34509805
0.9882353 0.56078434 0.3019608
0.023529412 0.68235296 0.46666667
0.03137255 0.71372557 0.47843134
0.21176471 0.7372549 0.5019608
0.67058825 0.7607843 0.5137255
0.9764706 0.7960784 0.5137255
0.03137255 0.8078432 0.5882353
0.043137256 0.8392157 0.59607846
0.07058824 0.90588236 0.6431373
0.27450982 0.94117653 0.6509804
0.86274505 0.94117653 0.69411767
0.23137255 0.14509805 0.46666667
0.42352942 0.1882353 0.4627451
0.6745098 0.2784314 0.4862745
0.86274505 0.4 0.49411765
0.9764706 0.5176471 0.6039216
0.11372549 0.2509804 0.48235294
0.3137255 0.2901961 0.48235294
0.6313726 0.3764706 0.5019608
0.84705883 0.47058827 0.52156866
0.98431367 0.57254905 0.6313726
0.003921569 0.5137255 0.5647059
0.078431375 0.5058824 0.54901963
0.5137255 0.56078434 0.56078434
0.83137256 0.5647059 0.5411765
0.98431367 0.61960787 0.5921569
0.023529412 0.68235296 0.6039216
0.02745098 0.71372557 0.6156863
0.27450982 0.7647059 0.65882355
0.7254902 0.78431374 0.6666667
0.9882353 0.81960785 0.65882355
0.03137255 0.8078432 0.6627451
0.03529412 0.83137256 0.6784314
0.06666667 0.9098039 0.7372549
0.3764706 0.9568627 0.7529412
0.88235295 0.9607843 0.7686274
0.3137255 0.23921567 0.627451
0.47058827 0.27058825 0.63529414
0.67058825 0.34117648 0.6666667
0.8666667 0.4588235 0.70980394
0.9882353 0.59607846 0.7254902
0.23529413 0.2901961 0.69411767
0.4 0.32156864 0.70196074
0.67058825 0.41960785 0.7176471
0.8745099 0.54901963 0.74117655
0.9882353 0.6509804 0.7529412
0.09803922 0.50980395 0.7254902
0.25490198 0.5294118 0.73333335
0.5803922 0.58431375 0.7529412
0.8509804 0.6627451 0.7686274
0.98431367 0.73333335 0.77254903
0.011764706 0.7058824 0.7490196
0.03137255 0.7372549 0.7882353
0.29803923 0.7647059 0.8039216
0.77254903 0.8156863 0.8156863
0.9882353 0.7960784 0.7921569
0.0 0.77254903 0.72156864
0.011764706 0.7882353 0.73333335
0.03529412 0.85882354 0.77254903
0.44313726 0.9647059 0.85490197
0.9372549 0.9647059 0.85882354
0.40784314 0.32941177 0.7803922
0.5411765 0.35686278 0.78431374
0.7058824 0.41176468 0.8039216
0.8509804 0.5019608 0.83137256
0.99215686 0.6313726 0.8784314
0.36078432 0.4 0.8666667
0.49411765 0.41568628 0.86274505
0.70196074 0.4745098 0.8666667
0.8862745 0.5647059 0.88235295
0.99215686 0.6666667 0.90196085
0.34509805 0.5803922 0.9372549
0.3764706 0.5764706 0.9372549
0.6862745 0.62352943 0.9490196
0.9137255 0.70196074 0.9529412
0.99215686 0.7686274 0.9372549
0.22352941 0.74509805 0.94117653
0.24313726 0.74117655 0.94509804
0.41960785 0.75686276 0.9647059
0.8352942 0.81960785 0.9607843
0.99215686 0.8666667 0.9529412
0.0627451 0.84705883 0.8862745
0.058823533 0.84313726 0.8784314
0.0627451 0.84705883 0.8862745
0.32941177 0.92156863 0.9490196
0.99215686 0.99215686 0.99215686
