src/assets/luts/扫街配方/纪实调.cube
LUT_3D_SIZE 9
0.011764706 0.007843138 0.007843138
0.13725491 0.03137255 0.019607844
0.33333334 0.0627451 0.047058824
0.48235294 0.101960786 0.08235294
0.627451 0.16078432 0.12156863
0.7529412 0.22745098 0.1764706
0.84313726 0.28627452 0.22745098
0.9254902 0.35686278 0.29411766
0.98431367 0.42352942 0.36078432
0.03137255 0.08235294 0.02745098
0.08627451 0.08627451 0.023529412
0.29411766 0.1254902 0.023529412
0.5137255 0.105882354 0.039215688
0.64705884 0.16078432 0.07450981
0.7490196 0.21568626 0.13333334
0.84313726 0.2784314 0.19215685
0.92156863 0.34901962 0.25882354
0.98431367 0.41568628 0.34117648
0.039215688 0.19607843 0.0627451
0.08235294 0.19607843 0.0627451
0.18431373 0.21176471 0.07450981
0.37254903 0.25882354 0.06666667
0.5882353 0.27058825 0.06666667
0.7490196 0.24705882 0.050980393
0.83137256 0.25490198 0.13333334
0.89411765 0.3137255 0.1764706
0.9568627 0.3764706 0.24705882
0.011764706 0.32941177 0.14117648
0.03529412 0.32941177 0.13725491
0.12941177 0.34509805 0.13725491
0.28627452 0.35686278 0.14509805
0.48235294 0.3882353 0.14117648
0.6745098 0.40784314 0.12941177
0.8078432 0.4039216 0.11372549
0.90588236 0.38039216 0.09803922
0.9647059 0.37254903 0.1764706
0.019607844 0.45490196 0.21960784
0.023529412 0.4588235 0.21568626
0.08235294 0.4745098 0.21568626
0.24313726 0.47843134 0.21960784
0.42745098 0.49411765 0.23137255
0.6039216 0.5137255 0.23137255
0.7607843 0.5372549 0.20784314
0.8784314 0.5372549 0.18431373
0.9607843 0.5372549 0.19607843
0.019607844 0.5686275 0.29803923
0.023529412 0.5803922 0.29411766
0.043137256 0.5921569 0.29803923
0.15294118 0.59607846 0.30588236
0.35686278 0.6 0.3137255
0.56078434 0.61960787 0.3254902
0.70980394 0.63529414 0.33333334
0.86274505 0.64705884 0.28627452
0.9490196 0.6509804 0.2901961
0.019607844 0.6745098 0.4
0.03137255 0.68235296 0.39607844
0.03529412 0.70196074 0.39607844
0.050980393 0.7176471 0.4
0.17254902 0.7254902 0.40784314
0.43137252 0.73333335 0.42352942
0.6627451 0.74509805 0.43137252
0.827451 0.7647059 0.45098042
0.94117653 0.7647059 0.39607844
0.03137255 0.74509805 0.47058827
0.03529412 0.75686276 0.4745098
0.039215688 0.7803922 0.4862745
0.043137256 0.8078432 0.5019608
0.05490196 0.83137256 0.5058824
0.12941177 0.84313726 0.5137255
0.41568628 0.85882354 0.5411765
0.74509805 0.8784314 0.5686275
0.9098039 0.890196 0.5803922
0.03529412 0.8117647 0.5294118
0.03529412 0.81960785 0.5294118
0.043137256 0.8352942 0.5411765
0.050980393 0.86274505 0.56078434
0.050980393 0.890196 0.5647059
0.09019608 0.9098039 0.5686275
0.24705882 0.92156863 0.5921569
0.56078434 0.9294118 0.6117647
0.8509804 0.94117653 0.6627451
0.0627451 0.03529412 0.11764707
0.1882353 0.047058824 0.105882354
0.32941177 0.07450981 0.11372549
0.46666667 0.12941177 0.17254902
0.61960787 0.1764706 0.20784314
0.74509805 0.23921567 0.24705882
0.8392157 0.3019608 0.29411766
0.9254902 0.37254903 0.34509805
0.9882353 0.4392157 0.4039216
0.047058824 0.105882354 0.12941177
0.101960786 0.101960786 0.101960786
0.29803923 0.1254902 0.11764707
0.47843134 0.13725491 0.13333334
0.6392157 0.17254902 0.1764706
0.74509805 0.23529413 0.20784314
0.8509804 0.3019608 0.26666668
0.93333334 0.37254903 0.31764707
0.9882353 0.43529412 0.3882353
0.03529412 0.21568626 0.14901961
0.08627451 0.21176471 0.13333334
0.2 0.22745098 0.13725491
0.3843137 0.2627451 0.14901961
0.6 0.25882354 0.12156863
0.7647059 0.24705882 0.11764707
0.8509804 0.2784314 0.18431373
0.9137255 0.34509805 0.23529413
0.98431367 0.41176468 0.32156864
0.011764706 0.3372549 0.20392157
0.02745098 0.34509805 0.19215685
0.1254902 0.34901962 0.19215685
0.29803923 0.36862746 0.2
0.48235294 0.39607844 0.2
0.68235296 0.41568628 0.18431373
0.82352936 0.4039216 0.15294118
0.9294118 0.3843137 0.12156863
0.972549 0.39607844 0.23137255
0.015686275 0.4588235 0.2627451
0.019607844 0.4588235 0.25490198
0.09411765 0.47843134 0.25882354
0.26666668 0.4862745 0.26666668
0.44313726 0.49411765 0.2784314
0.61960787 0.5176471 0.28235295
0.7882353 0.5411765 0.2509804
0.90196085 0.54509807 0.21960784
0.98039216 0.53333336 0.21568626
0.019607844 0.5764706 0.33333334
0.023529412 0.5803922 0.33333334
0.047058824 0.59607846 0.34117648
0.16470589 0.6039216 0.34509805
0.36470586 0.6156863 0.35686278
0.56078434 0.62352943 0.35686278
0.71372557 0.6392157 0.36862746
0.8745099 0.65882355 0.32941177
0.9686275 0.65882355 0.30588236
0.023529412 0.6784314 0.42745098
0.023529412 0.6901961 0.41960785
0.03137255 0.70196074 0.42745098
0.058823533 0.7254902 0.4392157
0.1882353 0.73333335 0.44313726
0.4392157 0.7372549 0.45098042
0.67058825 0.7529412 0.4627451
0.8156863 0.7686274 0.4862745
0.9568627 0.7764706 0.42745098
0.03137255 0.7490196 0.49019608
0.03137255 0.7607843 0.49411765
0.03529412 0.7803922 0.50980395
0.047058824 0.8156863 0.5294118
0.05490196 0.8392157 0.5411765
0.14901961 0.8509804 0.5529412
0.4392157 0.87058824 0.57254905
0.75686276 0.88235295 0.59607846
0.92156863 0.89411765 0.6156863
0.039215688 0.8117647 0.5411765
0.039215688 0.81960785 0.54901963
0.043137256 0.8392157 0.5686275
0.047058824 0.87058824 0.5803922
0.0627451 0.8980392 0.59607846
0.105882354 0.917647 0.5921569
0.24313726 0.9294118 0.6117647
0.5686275 0.93333334 0.627451
0.84313726 0.94117653 0.6745098
0.13725491 0.07450981 0.25882354
0.23529413 0.08627451 0.25490198
0.36470586 0.10980392 0.23529413
0.4862745 0.15294118 0.21568626
0.6313726 0.21176471 0.27450982
0.74509805 0.27450982 0.34509805
0.827451 0.32941177 0.4
0.9137255 0.38039216 0.43137252
0.98431367 0.44705883 0.48235294
0.07058824 0.101960786 0.21568626
0.14117648 0.1254902 0.21568626
0.29803923 0.15686275 0.22745098
0.4627451 0.20392157 0.23921567
0.6156863 0.24313726 0.29411766
0.7294117 0.3019608 0.3529412
0.83137256 0.33333334 0.3843137
0.917647 0.3882353 0.41960785
0.98039216 0.45098042 0.4627451
0.039215688 0.22745098 0.25882354
0.07450981 0.22745098 0.23921567
0.22352941 0.25490198 0.25490198
0.43137252 0.27058825 0.26666668
0.6156863 0.28627452 0.25490198
0.74509805 0.32156864 0.30980393
0.84705883 0.34117648 0.32941177
0.93333334 0.3882353 0.37254903
0.99215686 0.45098042 0.42745098
0.007843138 0.37254903 0.3137255
0.011764706 0.34901962 0.28235295
0.14117648 0.37254903 0.28235295
0.3254902 0.38039216 0.28627452
0.52156866 0.41176468 0.28627452
0.7058824 0.41176468 0.2784314
0.8392157 0.41568628 0.27450982
0.9490196 0.41568628 0.2627451
0.98431367 0.42745098 0.3372549
0.015686275 0.4745098 0.34509805
0.015686275 0.4745098 0.3372549
0.09019608 0.49019608 0.34509805
0.28235295 0.5019608 0.34117648
0.45490196 0.5176471 0.3529412
0.627451 0.5372549 0.34509805
0.7921569 0.5568628 0.34509805
0.92156863 0.5686275 0.34117648
0.9882353 0.56078434 0.3019608
0.019607844 0.5882353 0.39607844
0.023529412 0.5921569 0.39607844
0.050980393 0.6 0.39607844
0.2 0.6117647 0.40784314
0.39215687 0.61960787 0.41568628
0.5803922 0.63529414 0.41960785
0.7294117 0.6509804 0.42352942
0.89411765 0.6745098 0.41568628
0.99215686 0.6862745 0.3882353
0.023529412 0.68235296 0.46666667
0.02745098 0.69411767 0.47058827
0.03137255 0.71372557 0.47843134
0.07058824 0.73333335 0.49411765
0.21176471 0.7372549 0.5019608
0.4392157 0.7529412 0.5137255
0.67058825 0.7607843 0.5137255
0.827451 0.7764706 0.53333336
0.9764706 0.7960784 0.5137255
0.03529412 0.7490196 0.5372549
0.03529412 0.7607843 0.54509807
0.039215688 0.78431374 0.54901963
0.047058824 0.81960785 0.5764706
0.0627451 0.85490197 0.59607846
0.1882353 0.8666667 0.6117647
0.47058827 0.8745099 0.61960787
0.77254903 0.8862745 0.6392157
0.9254902 0.90196085 0.65882355
0.03137255 0.8078432 0.5882353
0.039215688 0.8156863 0.58431375
0.043137256 0.8392157 0.59607846
0.043137256 0.87058824 0.61960787
0.07058824 0.90588236 0.6431373
0.14117648 0.9254902 0.6392157
0.27450982 0.94117653 0.6509804
0.60784316 0.94509804 0.6666667
0.86274505 0.94117653 0.69411767
0.19215685 0.11372549 0.38039216
0.28627452 0.1254902 0.36862746
0.4039216 0.15294118 0.36470586
0.53333336 0.19215685 0.35686278
0.6666667 0.2509804 0.35686278
0.7686274 0.30588236 0.3843137
0.84313726 0.36470586 0.44313726
0.92156863 0.41960785 0.5058824
0.9764706 0.47058827 0.5686275
0.11372549 0.12156863 0.34509805
0.2 0.14117648 0.34509805
0.34117648 0.18039216 0.35686278
0.5019608 0.22745098 0.36078432
0.6509804 0.28627452 0.37254903
0.75686276 0.34117648 0.4
0.84705883 0.3843137 0.44705883
0.92156863 0.4392157 0.5176471
0.98039216 0.49411765 0.5764706
0.058823533 0.23137255 0.35686278
0.10980392 0.23137255 0.35686278
0.25490198 0.26666668 0.37254903
0.4392157 0.3137255 0.38039216
0.60784316 0.34901962 0.3843137
0.7294117 0.3843137 0.42745098
0.827451 0.42352942 0.46666667
0.90588236 0.46666667 0.52156866
0.98431367 0.5176471 0.56078434
0.0 0.39607844 0.42745098
0.015686275 0.36862746 0.4039216
0.1254902 0.3764706 0.39607844
0.3529412 0.40784314 0.4039216
0.5647059 0.41960785 0.41176468
0.7254902 0.42352942 0.39607844
0.8352942 0.44705883 0.43137252
0.9254902 0.4745098 0.45098042
0.9882353 0.5294118 0.49411765
0.007843138 0.49411765 0.45490196
0.019607844 0.49019608 0.44313726
0.058823533 0.49411765 0.43529412
0.30980393 0.5137255 0.4392157
0.49019608 0.5254902 0.44705883
0.6627451 0.5529412 0.4392157
0.8156863 0.5568628 0.42745098
0.9294118 0.5686275 0.43137252
0.99215686 0.58431375 0.43529412
0.019607844 0.5803922 0.47058827
0.023529412 0.5882353 0.4745098
0.050980393 0.6039216 0.48235294
0.19215685 0.627451 0.49411765
0.41176468 0.63529414 0.5058824
0.59607846 0.6509804 0.5058824
0.74509805 0.6666667 0.49803925
0.89411765 0.69411767 0.5019608
0.9960785 0.7058824 0.5019608
0.019607844 0.6862745 0.54509807
0.023529412 0.69411767 0.5411765
0.03137255 0.7176471 0.5529412
0.07450981 0.7372549 0.5647059
0.26666668 0.7490196 0.57254905
0.49803925 0.7607843 0.5882353
0.70196074 0.77254903 0.5921569
0.8392157 0.7921569 0.5921569
0.9882353 0.8117647 0.58431375
0.03137255 0.75686276 0.6
0.03137255 0.7647059 0.59607846
0.039215688 0.7960784 0.6117647
0.039215688 0.83137256 0.63529414
0.06666667 0.8666667 0.65882355
0.23137255 0.8745099 0.6666667
0.50980395 0.8862745 0.6745098
0.7882353 0.89411765 0.68235296
0.9372549 0.90588236 0.70196074
0.03137255 0.8117647 0.61960787
0.039215688 0.81960785 0.6313726
0.043137256 0.8392157 0.63529414
0.047058824 0.8745099 0.654902
0.058823533 0.9137255 0.6901961
0.16862746 0.94117653 0.69803923
0.3254902 0.9568627 0.69803923
0.62352943 0.9568627 0.70980394
0.87058824 0.9490196 0.73333335
0.23137255 0.14509805 0.46666667
0.32156864 0.16470589 0.4627451
0.42352942 0.1882353 0.4627451
0.54901963 0.22745098 0.4745098
0.6745098 0.2784314 0.4862745
0.7921569 0.3372549 0.49019608
0.86274505 0.4 0.49411765
0.9372549 0.4588235 0.54509807
0.9764706 0.5176471 0.6039216
0.16862746 0.15294118 0.4745098
0.25490198 0.16862746 0.4745098
0.3843137 0.2 0.48235294
0.52156866 0.24705882 0.48235294
0.6627451 0.31764707 0.49411765
0.77254903 0.36862746 0.49411765
0.85882354 0.42745098 0.5019608
0.93333334 0.47843134 0.5568628
0.98431367 0.5294118 0.60784316
0.11372549 0.2509804 0.48235294
0.1764706 0.26666668 0.47058827
0.3137255 0.2901961 0.48235294
0.46666667 0.3372549 0.49803925
0.6313726 0.3764706 0.5019608
0.7607843 0.41960785 0.5058824
0.84705883 0.47058827 0.52156866
0.9254902 0.50980395 0.5764706
0.98431367 0.57254905 0.6313726
0.019607844 0.38039216 0.5058824
0.058823533 0.3764706 0.49803925
0.1764706 0.38039216 0.5019608
0.3882353 0.41568628 0.5137255
0.57254905 0.45098042 0.52156866
0.72156864 0.49019608 0.52156866
0.827451 0.5137255 0.5568628
0.92156863 0.54509807 0.59607846
0.972549 0.5921569 0.63529414
0.003921569 0.5137255 0.5647059
0.011764706 0.50980395 0.5529412
0.078431375 0.5058824 0.54901963
0.2784314 0.5254902 0.54509807
0.5137255 0.56078434 0.56078434
0.69803923 0.56078434 0.5568628
0.83137256 0.5647059 0.5411765
0.9254902 0.5921569 0.5803922
0.98431367 0.61960787 0.5921569
0.015686275 0.6 0.5686275
0.015686275 0.6039216 0.57254905
0.03529412 0.6156863 0.57254905
0.17254902 0.6313726 0.57254905
0.44705883 0.6509804 0.6
0.627451 0.6627451 0.5921569
0.7764706 0.6862745 0.59607846
0.917647 0.69803923 0.58431375
0.99215686 0.69411767 0.5803922
0.023529412 0.68235296 0.6039216
0.02745098 0.6901961 0.6039216
0.02745098 0.71372557 0.6156863
0.07058824 0.74509805 0.64705884
0.27450982 0.7647059 0.65882355
0.5372549 0.77254903 0.6666667
0.7254902 0.78431374 0.6666667
0.85882354 0.8 0.6627451
0.9882353 0.81960785 0.65882355
0.02745098 0.7686274 0.654902
0.03137255 0.7764706 0.6627451
0.03529412 0.8 0.6745098
0.047058824 0.8352942 0.69411767
0.08627451 0.8666667 0.71372557
0.3254902 0.88235295 0.7254902
0.6 0.8862745 0.7294117
0.81960785 0.8980392 0.7372549
0.9607843 0.9137255 0.7607843
0.03137255 0.8078432 0.6627451
0.03529412 0.8156863 0.67058825
0.03529412 0.83137256 0.6784314
0.043137256 0.8666667 0.69803923
0.06666667 0.9098039 0.7372549
0.2 0.94117653 0.7490196
0.3764706 0.9568627 0.7529412
0.65882355 0.9529412 0.75686276
0.88235295 0.9607843 0.7686274
0.27450982 0.19607843 0.5568628
0.35686278 0.20392157 0.5529412
0.44705883 0.23529413 0.56078434
0.5686275 0.2627451 0.57254905
0.6784314 0.30588236 0.5882353
0.7882353 0.36862746 0.6117647
0.8784314 0.43529412 0.6117647
0.9529412 0.5019608 0.62352943
0.98431367 0.56078434 0.6392157
0.23529413 0.20392157 0.5803922
0.31764707 0.21568626 0.5803922
0.42352942 0.24313726 0.5803922
0.5529412 0.27450982 0.5882353
0.6745098 0.32941177 0.6039216
0.78431374 0.4 0.6156863
0.8784314 0.45490196 0.61960787
0.9490196 0.5254902 0.63529414
0.9882353 0.5803922 0.654902
0.18039216 0.26666668 0.59607846
0.23529413 0.28235295 0.5921569
0.36470586 0.30980393 0.6
0.5019608 0.36078432 0.6156863
0.6431373 0.4039216 0.61960787
0.7647059 0.4588235 0.6313726
0.86274505 0.5058824 0.63529414
0.94509804 0.56078434 0.6431373
0.98431367 0.6117647 0.6666667
0.09019608 0.3843137 0.6117647
0.15294118 0.39215687 0.6117647
0.27450982 0.41176468 0.6117647
0.43137252 0.4392157 0.61960787
0.6 0.47843134 0.63529414
0.74509805 0.52156866 0.6392157
0.8509804 0.5568628 0.6431373
0.93333334 0.6039216 0.6509804
0.9882353 0.63529414 0.6901961
0.019607844 0.5019608 0.6392157
0.050980393 0.5058824 0.6431373
0.14509805 0.5137255 0.63529414
0.31764707 0.52156866 0.6392157
0.5411765 0.5647059 0.654902
0.71372557 0.6039216 0.65882355
0.827451 0.6392157 0.67058825
0.9254902 0.654902 0.6901961
0.98039216 0.6862745 0.7176471
0.011764706 0.60784316 0.6627451
0.011764706 0.61960787 0.67058825
0.05490196 0.627451 0.67058825
0.19215685 0.6392157 0.6784314
0.42352942 0.654902 0.6784314
0.654902 0.68235296 0.6862745
0.8078432 0.6901961 0.69411767
0.9372549 0.69411767 0.6862745
0.9882353 0.71372557 0.7058824
0.023529412 0.69803923 0.6862745
0.023529412 0.70980394 0.69411767
0.03137255 0.7294117 0.70980394
0.0627451 0.7490196 0.72156864
0.25882354 0.7607843 0.7254902
0.5882353 0.7921569 0.74117655
0.7529412 0.7960784 0.73333335
0.890196 0.8117647 0.7294117
0.9960785 0.8117647 0.7176471
0.02745098 0.7529412 0.69803923
0.02745098 0.7647059 0.69803923
0.03137255 0.7921569 0.71372557
0.039215688 0.82352936 0.74117655
0.101960786 0.87058824 0.7803922
0.36470586 0.890196 0.7960784
0.67058825 0.90196085 0.7921569
0.84313726 0.90588236 0.8
0.972549 0.9137255 0.7960784
0.007843139 0.75686276 0.6666667
0.011764706 0.7647059 0.67058825
0.019607844 0.8039216 0.69803923
0.03529412 0.85490197 0.7294117
0.07450981 0.90196085 0.77254903
0.20784314 0.94117653 0.7960784
0.45490196 0.9607843 0.8078432
0.7176471 0.9607843 0.8039216
0.9137255 0.9607843 0.8156863
0.3137255 0.23921567 0.627451
0.3843137 0.24705882 0.627451
0.47058827 0.27058825 0.63529414
0.5764706 0.3019608 0.6431373
0.67058825 0.34117648 0.6666667
0.77254903 0.39215687 0.6862745
0.8666667 0.4588235 0.70980394
0.9568627 0.5372549 0.73333335
0.9882353 0.59607846 0.7254902
0.3019608 0.2509804 0.65882355
0.35686278 0.26666668 0.65882355
0.45490196 0.28627452 0.6627451
0.56078434 0.31764707 0.6745098
0.6784314 0.36078432 0.6901961
0.7764706 0.41960785 0.7058824
0.8666667 0.4862745 0.7294117
0.9607843 0.5686275 0.74117655
0.9882353 0.6117647 0.73333335
0.23529413 0.2901961 0.69411767
0.29411766 0.3019608 0.69411767
0.4 0.32156864 0.70196074
0.53333336 0.35686278 0.71372557
0.67058825 0.41960785 0.7176471
0.7764706 0.49019608 0.73333335
0.8745099 0.54901963 0.74117655
0.9568627 0.6039216 0.74509805
0.9882353 0.6509804 0.7529412
0.1882353 0.41176468 0.7254902
0.25490198 0.42745098 0.7254902
0.3529412 0.44313726 0.72156864
0.4862745 0.4745098 0.7294117
0.6313726 0.5176471 0.74117655
0.75686276 0.5529412 0.7372549
0.8666667 0.6039216 0.7529412
0.9529412 0.6392157 0.7607843
0.9882353 0.6784314 0.75686276
0.09803922 0.50980395 0.7254902
0.14901961 0.5176471 0.7372549
0.25490198 0.5294118 0.73333335
0.41176468 0.54901963 0.74117655
0.5803922 0.58431375 0.7529412
0.74117655 0.627451 0.75686276
0.8509804 0.6627451 0.7686274
0.94509804 0.70196074 0.7764706
0.98431367 0.73333335 0.77254903
0.03529412 0.6117647 0.74117655
0.058823533 0.6156863 0.7529412
0.1254902 0.62352943 0.7529412
0.27450982 0.63529414 0.7647059
0.4588235 0.6509804 0.75686276
0.68235296 0.69411767 0.7764706
0.827451 0.73333335 0.7882353
0.9294118 0.7647059 0.7960784
0.98431367 0.77254903 0.8039216
0.011764706 0.7058824 0.7490196
0.023529412 0.71372557 0.7686274
0.03137255 0.7372549 0.7882353
0.09411765 0.75686276 0.7960784
0.29803923 0.7647059 0.8039216
0.5647059 0.7803922 0.8
0.77254903 0.8156863 0.8156863
0.92156863 0.8117647 0.8117647
0.9882353 0.7960784 0.7921569
0.023529412 0.7607843 0.7607843
0.023529412 0.77254903 0.7607843
0.02745098 0.8 0.7764706
0.039215688 0.8392157 0.8117647
0.101960786 0.87058824 0.8352942
0.32941177 0.88235295 0.84705883
0.7176471 0.9098039 0.86274505
0.8745099 0.9137255 0.85882354
0.9960785 0.92156863 0.84313726
0.0 0.77254903 0.72156864
0.0 0.77254903 0.72156864
0.011764706 0.7882353 0.73333335
0.019607844 0.82352936 0.7529412
0.03529412 0.85882354 0.77254903
0.15686275 0.93333334 0.8352942
0.44313726 0.9647059 0.85490197
0.75686276 0.9647059 0.85490197
0.9372549 0.9647059 0.85882354
0.36078432 0.28235295 0.70196074
0.41176468 0.29411766 0.70196074
0.49803925 0.30980393 0.70980394
0.5882353 0.3372549 0.71372557
0.67058825 0.37254903 0.7372549
0.7686274 0.41568628 0.7529412
0.8509804 0.4745098 0.7764706
0.9490196 0.5529412 0.8117647
0.99215686 0.6156863 0.81960785
0.3529412 0.3019608 0.73333335
0.4 0.3137255 0.73333335
0.4862745 0.33333334 0.73333335
0.5803922 0.35686278 0.74117655
0.68235296 0.4 0.7607843
0.7686274 0.44313726 0.7686274
0.8666667 0.5019608 0.8
0.9607843 0.5803922 0.83137256
0.9882353 0.63529414 0.83137256
0.29411766 0.34117648 0.78431374
0.34117648 0.3529412 0.7882353
0.4392157 0.36078432 0.78431374
0.56078434 0.39215687 0.7921569
0.6745098 0.43137252 0.8
0.78431374 0.49411765 0.8156863
0.8862745 0.57254905 0.84313726
0.9686275 0.63529414 0.85490197
0.9882353 0.68235296 0.85882354
0.24705882 0.42745098 0.83137256
0.29411766 0.42745098 0.83137256
0.4039216 0.44705883 0.8352942
0.5411765 0.4745098 0.8392157
0.6784314 0.52156866 0.84705883
0.7960784 0.5882353 0.84705883
0.8980392 0.6431373 0.86274505
0.972549 0.6862745 0.8666667
0.98039216 0.7176471 0.85490197
0.21960784 0.54509807 0.84313726
0.25882354 0.5529412 0.8509804
0.37254903 0.5803922 0.84313726
0.49411765 0.59607846 0.84313726
0.6509804 0.6313726 0.86274505
0.78431374 0.6666667 0.8666667
0.88235295 0.70196074 0.8666667
0.9647059 0.74509805 0.8784314
0.99215686 0.7607843 0.87058824
0.15686275 0.627451 0.8509804
0.15294118 0.627451 0.8509804
0.2509804 0.6392157 0.85882354
0.38039216 0.64705884 0.85882354
0.54901963 0.6745098 0.86274505
0.7294117 0.71372557 0.86274505
0.8666667 0.75686276 0.88235295
0.9607843 0.7960784 0.890196
0.98039216 0.8156863 0.8862745
0.023529412 0.6862745 0.81960785
0.039215688 0.7058824 0.8352942
0.08235294 0.73333335 0.85882354
0.20392157 0.7490196 0.8784314
0.38039216 0.7647059 0.88235295
0.6 0.7764706 0.88235295
0.8078432 0.8156863 0.890196
0.9372549 0.85490197 0.90588236
0.9882353 0.86274505 0.8980392
0.007843138 0.7490196 0.8
0.011764706 0.7607843 0.8078432
0.023529412 0.78431374 0.82352936
0.043137256 0.81960785 0.8745099
0.13333334 0.86274505 0.90196085
0.36078432 0.890196 0.9137255
0.6666667 0.8980392 0.92156863
0.8980392 0.92156863 0.93333334
0.99215686 0.89411765 0.89411765
0.003921569 0.7921569 0.7960784
0.003921569 0.7960784 0.7960784
0.0039215684 0.7921569 0.7960784
0.011764707 0.81960785 0.8078432
0.043137256 0.85490197 0.8392157
0.13333334 0.90196085 0.8745099
0.3372549 0.9529412 0.9098039
0.8 0.972549 0.9098039
0.9686275 0.972549 0.92156863
0.40784314 0.32941177 0.7803922
0.45098042 0.3372549 0.7803922
0.5411765 0.35686278 0.78431374
0.61960787 0.3843137 0.7921569
0.7058824 0.41176468 0.8039216
0.7764706 0.45490196 0.8156863
0.8509804 0.5019608 0.83137256
0.94509804 0.5686275 0.8666667
0.99215686 0.6313726 0.8784314
0.4039216 0.35686278 0.8078432
0.44313726 0.36862746 0.8078432
0.5372549 0.3843137 0.8117647
0.62352943 0.40784314 0.8156863
0.70980394 0.43529412 0.81960785
0.7803922 0.47058827 0.827451
0.85882354 0.52156866 0.84705883
0.9529412 0.58431375 0.8784314
0.9882353 0.6431373 0.890196
0.36078432 0.4 0.8666667
0.39215687 0.4 0.85490197
0.49411765 0.41568628 0.86274505
0.6039216 0.4392157 0.86274505
0.70196074 0.4745098 0.8666667
0.8 0.5176471 0.87058824
0.8862745 0.5647059 0.88235295
0.9607843 0.61960787 0.90196085
0.99215686 0.6666667 0.90196085
0.33333334 0.4745098 0.9137255
0.3372549 0.47058827 0.9098039
0.42745098 0.4745098 0.917647
0.5764706 0.49411765 0.9098039
0.7058824 0.5372549 0.92156863
0.8117647 0.57254905 0.917647
0.90196085 0.627451 0.9254902
0.9764706 0.6784314 0.93333334
0.9882353 0.70980394 0.9137255
0.34509805 0.5803922 0.9372549
0.34901962 0.5803922 0.93333334
0.3764706 0.5764706 0.9372549
0.52156866 0.5921569 0.9490196
0.6862745 0.62352943 0.9490196
0.82352936 0.65882355 0.94509804
0.9137255 0.70196074 0.9529412
0.9764706 0.7490196 0.9529412
0.99215686 0.7686274 0.9372549
0.30588236 0.6627451 0.94117653
0.31764707 0.6627451 0.94509804
0.30980393 0.6627451 0.94117653
0.41176468 0.6745098 0.9490196
0.6117647 0.70980394 0.9529412
0.7764706 0.74117655 0.9568627
0.8980392 0.7686274 0.9607843
0.972549 0.8 0.9607843
0.9960785 0.8117647 0.9529412
0.22352941 0.74509805 0.94117653
0.23137255 0.74117655 0.9372549
0.24313726 0.74117655 0.94509804
0.24313726 0.74509805 0.94117653
0.41960785 0.75686276 0.9647059
0.64705884 0.7803922 0.9607843
0.8352942 0.81960785 0.9607843
0.9568627 0.84705883 0.972549
0.99215686 0.8666667 0.9529412
0.10196078 0.7960784 0.90196085
0.09411765 0.7882353 0.90196085
0.09803922 0.7960784 0.90196085
0.105882354 0.7960784 0.9098039
0.16470589 0.8156863 0.9294118
0.35686278 0.84313726 0.9647059
0.6509804 0.85882354 0.972549
0.8862745 0.8980392 0.9764706
0.9960785 0.92156863 0.972549
0.0627451 0.84705883 0.8862745
0.06666667 0.84705883 0.8862745
0.058823533 0.84313726 0.8784314
0.0627451 0.84313726 0.8784314
0.0627451 0.84705883 0.8862745
0.16862746 0.8784314 0.9137255
0.32941177 0.92156863 0.9490196
0.6862745 0.9647059 0.9764706
0.99215686 0.99215686 0.99215686
