src/assets/luts/扫街配方/速写调.cube
LUT_3D_SIZE 9
0.003921569 0.0 0.0
0.034313727 0.010784314 0.010784314
0.14117648 0.04019608 0.015686275
0.43676472 0.084803924 0.025
0.63725495 0.12745099 0.047058824
0.74852943 0.1627451 0.073529415
0.81764704 0.20490196 0.091176465
0.8833334 0.25931373 0.12205882
0.90588236 0.3254902 0.15686275
0.023039216 0.053431373 0.042156864
0.03872549 0.054411765 0.035355393
0.13541667 0.07034314 0.021936273
0.40845588 0.11764707 0.035784315
0.6107843 0.16887255 0.04901961
0.7297794 0.21145834 0.077634804
0.80661756 0.24240196 0.10134804
0.87898284 0.30643383 0.12941177
0.9098039 0.3602941 0.16519609
0.073529415 0.16470589 0.14509805
0.08982843 0.1779412 0.14669119
0.14558825 0.18995097 0.07132353
0.38014707 0.1932598 0.064705886
0.59852946 0.25392157 0.066176474
0.718505 0.3142157 0.097426474
0.8031863 0.35392156 0.12450981
0.8754902 0.38321078 0.1514706
0.9284314 0.45098042 0.18431373
0.1872549 0.37696072 0.33186275
0.19166666 0.40753677 0.320527
0.2165441 0.4707108 0.22781862
0.44362745 0.41574755 0.121200986
0.59681374 0.39485297 0.119852945
0.73235303 0.44699755 0.14160539
0.8191176 0.4719363 0.16605392
0.890196 0.51341915 0.203125
0.93088233 0.55098045 0.24656864
0.29607844 0.5529412 0.48039216
0.3122549 0.5857843 0.4620098
0.36470592 0.6357844 0.3936275
0.529902 0.64705884 0.30441177
0.6578432 0.58725494 0.222549
0.7365195 0.5500001 0.21764705
0.8254901 0.579902 0.24313727
0.8950981 0.59313726 0.26004905
0.9333334 0.6333333 0.30784315
0.44019607 0.69215685 0.5558824
0.45373777 0.7117647 0.54129905
0.49730396 0.7348039 0.523652
0.58884805 0.7577206 0.5137255
0.6995098 0.75465685 0.45465687
0.78094363 0.68970585 0.37837008
0.813848 0.65612745 0.35330883
0.87714463 0.68039215 0.37818632
0.9294118 0.7039216 0.4151961
0.55784315 0.7990196 0.61372554
0.5625 0.80122554 0.61556375
0.5870098 0.81029415 0.6120098
0.6522059 0.8344363 0.6167892
0.7352941 0.8392157 0.6068628
0.7991421 0.827451 0.5625
0.84338236 0.7720588 0.50220585
0.8748775 0.7469363 0.47659317
0.9274511 0.7627451 0.5
0.64460784 0.86715686 0.6759804
0.6557598 0.87101716 0.6793505
0.67585784 0.87352943 0.6846814
0.7205882 0.8879289 0.69810045
0.784804 0.8933823 0.71274513
0.8261029 0.8952819 0.68694854
0.86593145 0.8897059 0.6536765
0.89895827 0.8593138 0.6101716
0.925 0.8328431 0.57843137
0.7372549 0.93333334 0.7529412
0.7441177 0.93333334 0.7490196
0.7490196 0.93235296 0.75392157
0.7803922 0.93578434 0.76176476
0.82352936 0.9431373 0.7745098
0.8602941 0.94509804 0.7735294
0.8892157 0.9490196 0.7607843
0.92254907 0.9446079 0.7406864
0.93333334 0.9254902 0.7254902
0.012745098 0.008333334 0.075980395
0.056924023 0.0048406865 0.09129902
0.15661766 0.015686275 0.059191182
0.46200985 0.057291675 0.06985295
0.64093137 0.11617648 0.10441177
0.7627451 0.16685049 0.12365197
0.83161765 0.2160539 0.14375001
0.89454657 0.28045344 0.17297792
0.9098039 0.36862746 0.21078432
0.016176471 0.054411765 0.074264705
0.038671877 0.06384804 0.09172794
0.13319547 0.08262868 0.08835784
0.41848958 0.12316177 0.100306384
0.6318321 0.16632965 0.1101103
0.7407476 0.21539521 0.12689185
0.820052 0.26170343 0.14779413
0.88339454 0.32081804 0.177428
0.9132353 0.39491424 0.22028187
0.051715687 0.15122549 0.15355393
0.08495711 0.1671109 0.16487439
0.14947918 0.1916973 0.15036765
0.37858456 0.22078739 0.12922794
0.6047795 0.27781862 0.13014707
0.72276354 0.32092524 0.14992341
0.80778193 0.36439952 0.16776961
0.8791973 0.40283394 0.18694855
0.9254902 0.4503677 0.22953431
0.17628679 0.3628064 0.34221816
0.20279567 0.36807597 0.34034163
0.24961704 0.4606005 0.30818015
0.43455115 0.4290135 0.18244487
0.59822303 0.41360295 0.17772672
0.7369792 0.46314335 0.19961703
0.8214001 0.49446997 0.23195466
0.883992 0.5239584 0.2520144
0.92107844 0.55012256 0.2825368
0.3017157 0.5387255 0.50220597
0.32512257 0.56875 0.488848
0.38063726 0.6197304 0.44852942
0.5334559 0.64647675 0.3825368
0.6557598 0.5890932 0.28174022
0.7279106 0.56087625 0.27386644
0.823223 0.58615196 0.3130515
0.89050245 0.6049939 0.32077205
0.9272059 0.6433824 0.3710784
0.45759806 0.6863971 0.5796569
0.4650122 0.6973652 0.5650123
0.50951296 0.7289216 0.55415136
0.60199904 0.76155025 0.54573375
0.7068015 0.75128675 0.49445465
0.77707565 0.69512874 0.4265012
0.80943626 0.65808827 0.39379597
0.87425715 0.6838771 0.41908702
0.92579657 0.7037378 0.43762255
0.5617647 0.7925246 0.6204657
0.5630974 0.7947917 0.620481
0.59684443 0.8125919 0.62018996
0.6555147 0.8293811 0.6266238
0.7433211 0.83878684 0.6202206
0.8019149 0.83037686 0.582016
0.8395834 0.77751225 0.53397673
0.8702206 0.74819237 0.49926475
0.9188725 0.77120095 0.53247553
0.6514706 0.8675858 0.68376225
0.6528263 0.8675858 0.6859605
0.6798407 0.8759039 0.68822
0.7252757 0.886106 0.7070007
0.7832108 0.8953124 0.7238359
0.8272978 0.8955269 0.702137
0.870481 0.89041054 0.6649051
0.8972963 0.8558824 0.6236673
0.9320466 0.83976716 0.59227943
0.74117655 0.93333334 0.7534313
0.7425859 0.93333334 0.75686276
0.7519608 0.93235296 0.75637263
0.7772671 0.93351716 0.7648897
0.82352936 0.9448529 0.7803922
0.8570466 0.94509804 0.7786153
0.8942402 0.9490196 0.7677696
0.92242646 0.94203436 0.74638486
0.9338235 0.9220588 0.73382354
0.005882353 0.0009803921 0.21862747
0.036764707 0.00882353 0.23357841
0.1985294 0.0 0.22352941
0.45968133 0.058823533 0.12169119
0.6632353 0.08382353 0.12990198
0.77058816 0.120833345 0.15159315
0.84362745 0.1629902 0.17843139
0.8942402 0.28161767 0.25514707
0.92156863 0.37843138 0.31078434
0.0 0.06642157 0.20637253
0.0015471814 0.05526961 0.23411459
0.16360295 0.06360295 0.25061277
0.44502142 0.106878065 0.1504136
0.64589465 0.12377451 0.15882352
0.7640625 0.16268383 0.1819853
0.83045346 0.24984683 0.23247549
0.8880208 0.34087008 0.28062195
0.9254902 0.4254902 0.3425245
0.016421568 0.13578433 0.18431373
0.042493872 0.153125 0.20802695
0.12763481 0.18480392 0.24773286
0.40045956 0.23504902 0.23814338
0.61041665 0.2824755 0.24166669
0.7341299 0.3421569 0.25612745
0.81164217 0.3928309 0.28468138
0.87864584 0.45772058 0.31841302
0.93235296 0.5112745 0.379902
0.13112745 0.30857843 0.29828432
0.14967832 0.3290288 0.31781557
0.24402575 0.3901348 0.37496933
0.43069854 0.44410232 0.33229166
0.6012255 0.46158087 0.30324757
0.72608757 0.49561888 0.32956493
0.8152879 0.5131128 0.34359682
0.87841606 0.5368873 0.3605239
0.931495 0.5719363 0.40355393
0.2372549 0.50196075 0.49411768
0.28921568 0.5335172 0.51409316
0.41090688 0.5781863 0.514951
0.55851716 0.644424 0.50324756
0.6509804 0.6007353 0.4134804
0.7232843 0.5846814 0.4040441
0.8127451 0.607353 0.42475492
0.87475485 0.63308823 0.44656864
0.9230392 0.65147066 0.4647059
0.45759803 0.65330887 0.59448534
0.48449752 0.6739737 0.59525126
0.51804537 0.7102942 0.5814339
0.6051011 0.7497703 0.58120406
0.70833343 0.75281864 0.56231624
0.7692555 0.70418197 0.50644916
0.8003983 0.6739583 0.48633578
0.8695159 0.69476104 0.49617034
0.9252451 0.72990197 0.5106618
0.5732844 0.78602946 0.6428922
0.5799939 0.7920956 0.64286155
0.6082721 0.8040441 0.6435662
0.65974265 0.8261336 0.6482843
0.75845593 0.8444853 0.66605395
0.7988664 0.8259498 0.62454045
0.8369485 0.7876226 0.5821079
0.86449134 0.76072305 0.5543505
0.92426467 0.78186285 0.567402
0.6555147 0.86715686 0.6979167
0.6665288 0.86847425 0.7026194
0.6865196 0.87322307 0.7043505
0.7328738 0.883992 0.7220282
0.78749996 0.89522064 0.7338848
0.8450214 0.9030944 0.7284007
0.8698223 0.89301467 0.7011948
0.8986214 0.8597886 0.6545803
0.9303922 0.84889704 0.626348
0.73627454 0.9294118 0.76176476
0.7412991 0.9294118 0.7677696
0.75318635 0.9296569 0.7637255
0.7814951 0.93272066 0.7764706
0.83382356 0.9485294 0.7882353
0.86017156 0.94656867 0.7982843
0.8848039 0.94681364 0.78357846
0.93333334 0.9490196 0.76458335
0.9343137 0.92156863 0.7421569
0.02745098 0.010294118 0.4416667
0.025306374 0.007843138 0.44522062
0.1317402 0.0125 0.5063726
0.533701 0.06678922 0.33051473
0.6639706 0.09656863 0.19803922
0.78161764 0.12236519 0.1818015
0.85490197 0.1449755 0.19816175
0.90637255 0.18866421 0.23884802
0.9191177 0.26078433 0.3151961
0.0115808835 0.06893383 0.41121325
0.0108455885 0.056204047 0.41503522
0.10545343 0.07181373 0.48282784
0.51031715 0.10264246 0.35788146
0.6585478 0.13079044 0.2204963
0.77549016 0.15355393 0.21231619
0.8506741 0.18656558 0.24090073
0.9028187 0.23783703 0.2863971
0.9269608 0.35079658 0.3807598
0.05012255 0.1762255 0.37365195
0.056587014 0.18244486 0.4041207
0.09800857 0.17598037 0.45140925
0.45644915 0.21072304 0.4420343
0.6327206 0.2413603 0.31237748
0.75863975 0.2753217 0.31822917
0.8381128 0.32742035 0.346875
0.89402574 0.39114586 0.38665748
0.9343137 0.5264706 0.4957108
0.08535539 0.27702206 0.33241424
0.09899663 0.3029948 0.3694317
0.14087011 0.33812806 0.3994026
0.37173712 0.43284312 0.466368
0.60447305 0.46675858 0.45358458
0.7201671 0.50383735 0.4582031
0.8040901 0.544807 0.48955268
0.8705346 0.57951134 0.50838697
0.92855394 0.60741425 0.5321079
0.1877451 0.4504902 0.4392157
0.19549632 0.46014094 0.45416668
0.24687502 0.49503678 0.49172795
0.4699755 0.57273287 0.5325981
0.62230396 0.61078435 0.53063726
0.70888484 0.6147672 0.51620716
0.79901963 0.6341912 0.52475494
0.8645221 0.64494485 0.53802085
0.9203431 0.6647059 0.55147064
0.29589462 0.59497553 0.57481617
0.33240658 0.6040824 0.5825368
0.4766238 0.6421722 0.6071385
0.5861826 0.71066946 0.614591
0.710723 0.7515932 0.63045347
0.751708 0.71496636 0.58490354
0.79212624 0.7027114 0.5713389
0.85893077 0.72068787 0.57761955
0.92855394 0.7519608 0.5882966
0.5606618 0.7390931 0.6738971
0.5799785 0.757981 0.66816795
0.60637254 0.785815 0.66556376
0.6526961 0.8085478 0.6681066
0.7553308 0.8370711 0.6891544
0.80606616 0.8345282 0.6840687
0.829473 0.7931985 0.6348652
0.8600184 0.77224267 0.61490506
0.9235294 0.7982843 0.62144613
0.6564951 0.8610907 0.724326
0.6609452 0.8610907 0.72100943
0.68572307 0.86968446 0.7240962
0.7336321 0.88123477 0.7370711
0.79267764 0.89396447 0.7528799
0.85199904 0.9050092 0.76121324
0.87899816 0.8955422 0.7418352
0.89933366 0.86344206 0.69674474
0.92806375 0.85134804 0.6711397
0.7441177 0.9269608 0.78137255
0.74509805 0.9294118 0.77677697
0.7558824 0.9284314 0.78002465
0.7828432 0.93088233 0.78731614
0.83063716 0.94509804 0.8078432
0.8636642 0.94791675 0.8160539
0.8944853 0.9490196 0.8115197
0.9310049 0.9490196 0.79197305
0.94509804 0.9372549 0.7764706
0.019607844 0.015686275 0.5882353
0.017892158 0.016176471 0.5887255
0.059803925 0.034313727 0.6186274
0.4904412 0.07450981 0.6458334
0.68823534 0.106862746 0.3754902
0.7803922 0.14117648 0.27230394
0.85735303 0.15 0.24264707
0.9098039 0.18088236 0.27524513
0.917647 0.2529412 0.35098037
0.02132353 0.07083334 0.5708333
0.019638482 0.061825983 0.57086396
0.04840686 0.063174024 0.610723
0.4400429 0.101439945 0.64175856
0.68357843 0.13406864 0.4094363
0.77012867 0.16887255 0.29920346
0.8582108 0.18474264 0.2810049
0.9137255 0.22447917 0.31994486
0.92156863 0.29975492 0.3921569
0.06127451 0.19166666 0.5377451
0.06421569 0.19914216 0.54963243
0.07034314 0.16703433 0.58676475
0.3421569 0.20594363 0.6254289
0.66078436 0.24338238 0.48259807
0.7579044 0.27573532 0.38909316
0.8484069 0.3034314 0.38664216
0.9060049 0.3520221 0.4331495
0.93627447 0.43725494 0.49117646
0.07254902 0.3129902 0.5085784
0.0773897 0.32751226 0.52215075
0.114767164 0.3734069 0.5580883
0.27141547 0.40291053 0.6014706
0.6176471 0.45477942 0.5638481
0.7298714 0.47898284 0.5137255
0.82187504 0.50551474 0.5265932
0.8900735 0.537837 0.5541973
0.9446079 0.57426476 0.5767157
0.13529412 0.422549 0.48431376
0.1517157 0.4468137 0.4960785
0.18235293 0.47843134 0.5181373
0.32634807 0.5328431 0.55502456
0.5725491 0.6019608 0.5965687
0.70931375 0.61875 0.5957108
0.79387265 0.64068633 0.6029412
0.8654412 0.6629902 0.6151961
0.9274511 0.6892157 0.6303922
0.22058824 0.53995097 0.5227941
0.22858456 0.5494792 0.52552086
0.25741422 0.56390935 0.5430147
0.4328738 0.61648285 0.59978557
0.62279415 0.7006128 0.6327206
0.7350184 0.7244792 0.6492034
0.7847427 0.70955884 0.6320466
0.8589767 0.7381741 0.6344057
0.92426467 0.75735295 0.64681375
0.3504902 0.6656863 0.6367647
0.40030637 0.67738974 0.64950985
0.5036765 0.7009804 0.6704657
0.6007966 0.7527574 0.6825368
0.70661765 0.8112746 0.70024514
0.8047181 0.8382966 0.73253685
0.8325981 0.80845594 0.6938726
0.8635416 0.7960171 0.66887254
0.9254902 0.822549 0.6862745
0.59387255 0.8009804 0.7404412
0.61816794 0.8208027 0.7458027
0.66219366 0.8455882 0.7425858
0.70833343 0.8689338 0.7472733
0.77585787 0.88627446 0.7647059
0.85202205 0.9048407 0.7970282
0.8806373 0.8977941 0.7836397
0.899663 0.87585795 0.7460478
0.9272059 0.8629902 0.7134804
0.73333335 0.9235294 0.7941176
0.73897064 0.9252451 0.7941176
0.7509804 0.925 0.7960784
0.7801471 0.9281863 0.8039216
0.8264707 0.9431373 0.8176471
0.86691177 0.9477941 0.8485294
0.9004902 0.9490196 0.8504903
0.9274511 0.9485294 0.82549024
0.9372549 0.9372549 0.80980396
0.028921569 0.040686276 0.67156863
0.028921569 0.04197304 0.67126226
0.030759806 0.04644608 0.6707108
0.23529413 0.078431375 0.7279411
0.7235294 0.0995098 0.61029416
0.7922794 0.14528187 0.4641544
0.85600483 0.17634803 0.3740196
0.9112745 0.20447303 0.37843138
0.92156863 0.24362744 0.4254902
0.032536767 0.083088234 0.65496325
0.034267772 0.08049173 0.65866274
0.033655025 0.08049939 0.6573529
0.21420038 0.11144301 0.71947765
0.7131128 0.13443628 0.6380209
0.7878753 0.17808671 0.4762638
0.86018693 0.2147212 0.41012564
0.9165058 0.24381895 0.40458798
0.9230392 0.2841912 0.44993877
0.06973039 0.1990196 0.62683827
0.06384804 0.19064032 0.62948835
0.0635723 0.16795343 0.6420037
0.15703125 0.18184742 0.70228255
0.65202206 0.2452206 0.6911765
0.7752299 0.30170038 0.53079045
0.84583336 0.33069855 0.4799632
0.91311276 0.35678616 0.4795343
0.93333334 0.40575978 0.514951
0.089215696 0.33670345 0.6018995
0.09602482 0.34881282 0.6145297
0.1369945 0.38432902 0.64788604
0.1921339 0.3745098 0.6707721
0.58069855 0.4423101 0.70349264
0.73596054 0.497932 0.5978631
0.82428 0.5087623 0.56778497
0.89947915 0.51763177 0.5780561
0.9436275 0.5502451 0.6005515
0.11397059 0.4267157 0.5764706
0.124662995 0.44445467 0.5863358
0.16537991 0.48860297 0.60833335
0.30027574 0.54574144 0.6370098
0.54031867 0.59497553 0.68811274
0.70569855 0.62371325 0.6536459
0.80692405 0.6324142 0.6462623
0.8822917 0.63808215 0.64632356
0.9372549 0.6600491 0.66813725
0.17794117 0.5108456 0.5585172
0.18847273 0.5293429 0.57230395
0.22023591 0.56597733 0.5956036
0.3128217 0.600651 0.6169271
0.5432598 0.65042895 0.6575368
0.69232535 0.71199447 0.68858
0.7939799 0.71371025 0.68621325
0.86237746 0.7335248 0.69140625
0.926777 0.7670956 0.71274513
0.2394608 0.598652 0.5742647
0.24719669 0.6091146 0.5824908
0.25968137 0.6248162 0.59935665
0.35280332 0.64924943 0.6285386
0.57273287 0.7082108 0.6818015
0.72840077 0.80053616 0.72236526
0.82135415 0.8133578 0.74552697
0.8628063 0.8022059 0.71626836
0.9269608 0.82990205 0.73651963
0.35508576 0.71948534 0.6750613
0.3971967 0.7314568 0.69531244
0.5060815 0.7605391 0.7343138
0.6044654 0.7931909 0.7561351
0.6972427 0.84898895 0.75839466
0.8197458 0.8924632 0.8025199
0.88572305 0.91320467 0.8450215
0.8999311 0.8795956 0.79003525
0.9294118 0.8745099 0.7643382
0.6504902 0.8661764 0.80833334
0.6691177 0.8716912 0.8112746
0.69669116 0.9006128 0.8068628
0.75036764 0.92003673 0.8148284
0.8056373 0.93406874 0.84142154
0.8542892 0.94509804 0.8533701
0.91825974 0.9501225 0.87438726
0.94154406 0.95116425 0.86427695
0.94509804 0.94264716 0.84607846
0.048039213 0.064705886 0.72450984
0.05012255 0.067892164 0.7276961
0.04754902 0.06740196 0.72426474
0.097181365 0.08492647 0.7703432
0.65000004 0.125 0.81078434
0.82365197 0.14375 0.6207108
0.8740196 0.18088236 0.52156866
0.9240196 0.21188724 0.49644604
0.9421569 0.24019605 0.50980395
0.05269608 0.09485294 0.7199755
0.051853552 0.09278493 0.7196691
0.05490196 0.0966299 0.71914834
0.08792892 0.09771752 0.7660539
0.62218136 0.1507353 0.8186275
0.8192555 0.18063724 0.6447151
0.8772978 0.22297795 0.55459565
0.9294578 0.25435048 0.5247396
0.94252455 0.27683824 0.53308827
0.083333336 0.20563726 0.6965686
0.08210784 0.1964767 0.7010417
0.07665441 0.17585784 0.70888484
0.10716913 0.19313726 0.751777
0.55232847 0.24522057 0.81004894
0.8008885 0.31311274 0.69203436
0.8525736 0.3516544 0.5879902
0.9136336 0.3728248 0.5671569
0.94534314 0.41740194 0.58431375
0.11764707 0.3634804 0.67365193
0.11914829 0.36539522 0.68238366
0.12778799 0.36443013 0.70441175
0.14911152 0.3526042 0.726011
0.4916054 0.43860295 0.7857231
0.7574755 0.48308823 0.7359681
0.8237745 0.5294118 0.6438726
0.89034927 0.5328431 0.62843144
0.94754905 0.55563724 0.64375
0.13431373 0.4632353 0.65637255
0.13290443 0.46323532 0.65839463
0.16727942 0.5069853 0.6953431
0.30337012 0.56280637 0.7276961
0.4683824 0.5705883 0.7676471
0.7086397 0.6105392 0.7671569
0.8061274 0.641299 0.6995098
0.88572305 0.6408701 0.6784314
0.947549 0.64754903 0.6892157
0.16715686 0.514951 0.6289216
0.16507353 0.51334256 0.6287224
0.1912684 0.5567402 0.65986526
0.2831495 0.6051624 0.6873162
0.52408093 0.66862744 0.7370711
0.67689955 0.7062347 0.7697304
0.7925552 0.7153799 0.74221814
0.8777574 0.7224572 0.7405944
0.9409314 0.73517156 0.75674015
0.21372548 0.5818628 0.6245098
0.21351102 0.58572304 0.62405026
0.23333335 0.61868876 0.64748776
0.2816483 0.6485907 0.6692709
0.49264705 0.6997549 0.70698535
0.6538297 0.7466911 0.7454044
0.78204656 0.7958947 0.7683823
0.8680453 0.8070466 0.77257955
0.9250001 0.827696 0.78308827
0.2556373 0.64387256 0.62683827
0.25733763 0.64921874 0.6314798
0.25778186 0.66948533 0.63740814
0.28224576 0.6960938 0.65226716
0.46727943 0.7401961 0.7176471
0.67040443 0.8089001 0.7737899
0.84589463 0.8891238 0.8226103
0.9027727 0.8925398 0.84494483
0.93149513 0.88884795 0.8227941
0.35196075 0.7921568 0.73235303
0.39656866 0.79914224 0.7449755
0.49975494 0.8240196 0.7960784
0.61397064 0.8563726 0.82463235
0.72205883 0.89411765 0.83774513
0.8140932 0.93713236 0.8531863
0.90906864 0.9536764 0.8845588
0.94509804 0.9529412 0.9
0.95392156 0.94509804 0.8784314
0.058823533 0.087254904 0.77401954
0.062806375 0.08982843 0.7770834
0.06176471 0.09276961 0.7802696
0.06421569 0.09362745 0.78823525
0.45416668 0.13014707 0.8928922
0.838603 0.16979167 0.78658086
0.8928921 0.19803922 0.65024513
0.9365196 0.2393995 0.59944856
0.9568627 0.25735295 0.59313726
0.06629902 0.114338234 0.7765319
0.06672794 0.117716 0.77572
0.06757047 0.117340684 0.77421874
0.074716605 0.12504596 0.7907093
0.44178918 0.15756741 0.8852635
0.8270221 0.21194087 0.8092832
0.8922487 0.2513021 0.672549
0.94038 0.28504136 0.6274587
0.95729166 0.31936276 0.6131741
0.09301471 0.22291666 0.75808823
0.09093137 0.210432 0.7633272
0.0889706 0.19911152 0.765625
0.09875919 0.2124081 0.790625
0.39485297 0.283027 0.86360294
0.7846353 0.33587626 0.86994475
0.8824755 0.38492653 0.7079351
0.92060363 0.41680452 0.6612745
0.95392156 0.43455884 0.6453431
0.13235295 0.37334555 0.7421569
0.13141085 0.36687347 0.7444241
0.12748162 0.34929538 0.743122
0.13619027 0.3472733 0.7815028
0.34332108 0.41265315 0.8501532
0.73534775 0.49314493 0.88540125
0.8535999 0.5246936 0.7628524
0.90144765 0.5540365 0.7118796
0.95079654 0.5615809 0.6971813
0.14730392 0.48553923 0.72598034
0.15162379 0.50091916 0.73710185
0.18063727 0.5412378 0.7723652
0.23455884 0.55364585 0.78912383
0.37708333 0.55710787 0.83737737
0.6841606 0.6069547 0.87303925
0.82959557 0.6281863 0.8034314
0.88523287 0.6477941 0.7497856
0.94779414 0.6517157 0.74754906
0.17843136 0.55422795 0.7077206
0.17477788 0.5476103 0.70295656
0.1932598 0.58287376 0.73780644
0.26865044 0.6331649 0.770841
0.5171569 0.68501836 0.8357231
0.61380213 0.68231463 0.8605622
0.8026501 0.7141237 0.83855706
0.8848958 0.7404412 0.8011335
0.9516544 0.7434436 0.8001838
0.19485292 0.578799 0.67401963
0.19716606 0.58071387 0.67663914
0.20995711 0.5975184 0.6821078
0.25297183 0.6502911 0.7316636
0.46727943 0.71476716 0.78707117
0.64162076 0.76874995 0.8297641
0.7814645 0.79950976 0.86207104
0.87539834 0.80919117 0.8369332
0.94730395 0.81789213 0.84362745
0.22800247 0.6432598 0.6829657
0.23138021 0.6428845 0.6807598
0.23169425 0.64555764 0.68604475
0.2454274 0.68954504 0.724977
0.37444854 0.74414825 0.7625305
0.5935509 0.8022212 0.8009575
0.754611 0.8394608 0.8436581
0.87082577 0.8899586 0.865602
0.94117653 0.89895827 0.86856616
0.25490198 0.72156864 0.71470594
0.25833336 0.725 0.7151349
0.25833336 0.723652 0.71421576
0.25962013 0.74264705 0.73308825
0.3034314 0.8002451 0.76078427
0.56844366 0.84969366 0.82647055
0.7834559 0.9161765 0.8748775
0.94773287 0.96384805 0.9211397
0.96029407 0.952451 0.92156863
0.07450981 0.12941177 0.81960785
0.07450981 0.12990198 0.82352936
0.07450981 0.13039216 0.81960785
0.07696079 0.13725491 0.82352936
0.22941178 0.17254902 0.9039216
0.7544119 0.21715686 0.9617647
0.90588236 0.25 0.7803922
0.9416667 0.28235295 0.6779412
0.9686275 0.33333334 0.6666667
0.08186275 0.15980393 0.8161765
0.08186275 0.15992647 0.8156863
0.08602942 0.17120099 0.82034314
0.087254904 0.17628676 0.8208946
0.22303924 0.1990196 0.90196085
0.73792887 0.25980395 0.969424
0.9029412 0.3110294 0.79877454
0.93780637 0.34754905 0.70410544
0.9647059 0.3843137 0.6784314
0.10490196 0.25686276 0.81078434
0.104779415 0.25110295 0.81237745
0.103431374 0.24877453 0.8127451
0.10539216 0.25036767 0.81213236
0.22205882 0.28578433 0.8936274
0.6953431 0.38198525 0.9653187
0.89117646 0.42524514 0.83480394
0.92561275 0.46372554 0.7507353
0.9676471 0.49117646 0.73039216
0.14117648 0.38921568 0.7897059
0.14313725 0.38921568 0.7897059
0.1382353 0.3754902 0.7932598
0.13376226 0.3610907 0.8010417
0.27279413 0.44411764 0.8870098
0.6709559 0.50692403 0.9538603
0.8745099 0.5401961 0.8772059
0.9180146 0.5665442 0.7916054
0.9632354 0.5926471 0.7735294
0.16470589 0.5392157 0.7921569
0.164951 0.52745104 0.7943628
0.1740196 0.53333336 0.81764704
0.19436273 0.53627455 0.84362745
0.31078434 0.5647059 0.8794119
0.6404412 0.62352943 0.9338236
0.8485294 0.6392157 0.9205883
0.90661764 0.6504902 0.83970594
0.95490193 0.6647059 0.8137255
0.18039216 0.5764706 0.77254903
0.19344364 0.599326 0.7849878
0.20906863 0.62303925 0.81936276
0.34583336 0.6745098 0.86519605
0.4968137 0.69142157 0.9071079
0.58633584 0.68284315 0.92518383
0.8074755 0.7180147 0.9431373
0.8911764 0.74350494 0.87389714
0.95490193 0.75735295 0.85637254
0.19509806 0.6068628 0.74607843
0.19583333 0.60600495 0.74583334
0.21078432 0.64362746 0.7710784
0.25661767 0.6862745 0.82034314
0.50686276 0.7529412 0.87794125
0.658701 0.7894607 0.9051471
0.7509804 0.78308827 0.9414216
0.8838235 0.81164217 0.9137255
0.9421569 0.8274509 0.8843137
0.21617645 0.6485294 0.72598034
0.22003675 0.6450368 0.7264093
0.21875 0.6501226 0.72806364
0.22830883 0.6974878 0.7689951
0.39509803 0.75759804 0.819853
0.6174633 0.8259804 0.87303925
0.76703435 0.8704657 0.92095584
0.88167894 0.90324765 0.9273284
0.952451 0.91176474 0.9377451
0.23137255 0.70196074 0.74117655
0.23529413 0.70637256 0.74509805
0.23529413 0.70196074 0.74509805
0.23529413 0.70441175 0.74509805
0.3019608 0.8019608 0.8254901
0.61029416 0.8789216 0.8843137
0.77549016 0.9186274 0.92647064
0.8950981 0.94117653 0.9328431
0.972549 0.9647059 0.94509804
