src/assets/luts/扫街配方/速写调.cube
LUT_3D_SIZE 5
0.003921569 0.0 0.0
0.14117648 0.04019608 0.015686275
0.63725495 0.12745099 0.047058824
0.81764704 0.20490196 0.091176465
0.90588236 0.3254902 0.15686275
0.073529415 0.16470589 0.14509805
0.14558825 0.18995097 0.07132353
0.59852946 0.25392157 0.066176474
0.8031863 0.35392156 0.12450981
0.9284314 0.45098042 0.18431373
0.29607844 0.5529412 0.48039216
0.36470592 0.6357844 0.3936275
0.6578432 0.58725494 0.222549
0.8254901 0.579902 0.24313727
0.9333334 0.6333333 0.30784315
0.55784315 0.7990196 0.61372554
0.5870098 0.81029415 0.6120098
0.7352941 0.8392157 0.6068628
0.84338236 0.7720588 0.50220585
0.9274511 0.7627451 0.5
0.7372549 0.93333334 0.7529412
0.7490196 0.93235296 0.75392157
0.82352936 0.9431373 0.7745098
0.8892157 0.9490196 0.7607843
0.93333334 0.9254902 0.7254902
0.005882353 0.0009803921 0.21862747
0.1985294 0.0 0.22352941
0.6632353 0.08382353 0.12990198
0.84362745 0.1629902 0.17843139
0.92156863 0.37843138 0.31078434
0.016421568 0.13578433 0.18431373
0.12763481 0.18480392 0.24773286
0.61041665 0.2824755 0.24166669
0.81164217 0.3928309 0.28468138
0.93235296 0.5112745 0.379902
0.2372549 0.50196075 0.49411768
0.41090688 0.5781863 0.514951
0.6509804 0.6007353 0.4134804
0.8127451 0.607353 0.42475492
0.9230392 0.65147066 0.4647059
0.5732844 0.78602946 0.6428922
0.6082721 0.8040441 0.6435662
0.75845593 0.8444853 0.66605395
0.8369485 0.7876226 0.5821079
0.92426467 0.78186285 0.567402
0.73627454 0.9294118 0.76176476
0.75318635 0.9296569 0.7637255
0.83382356 0.9485294 0.7882353
0.8848039 0.94681364 0.78357846
0.9343137 0.92156863 0.7421569
0.019607844 0.015686275 0.5882353
0.059803925 0.034313727 0.6186274
0.68823534 0.106862746 0.3754902
0.85735303 0.15 0.24264707
0.917647 0.2529412 0.35098037
0.06127451 0.19166666 0.5377451
0.07034314 0.16703433 0.58676475
0.66078436 0.24338238 0.48259807
0.8484069 0.3034314 0.38664216
0.93627447 0.43725494 0.49117646
0.13529412 0.422549 0.48431376
0.18235293 0.47843134 0.5181373
0.5725491 0.6019608 0.5965687
0.79387265 0.64068633 0.6029412
0.9274511 0.6892157 0.6303922
0.3504902 0.6656863 0.6367647
0.5036765 0.7009804 0.6704657
0.70661765 0.8112746 0.70024514
0.8325981 0.80845594 0.6938726
0.9254902 0.822549 0.6862745
0.73333335 0.9235294 0.7941176
0.7509804 0.925 0.7960784
0.8264707 0.9431373 0.8176471
0.9004902 0.9490196 0.8504903
0.9372549 0.9372549 0.80980396
0.048039213 0.064705886 0.72450984
0.04754902 0.06740196 0.72426474
0.65000004 0.125 0.81078434
0.8740196 0.18088236 0.52156866
0.9421569 0.24019605 0.50980395
0.083333336 0.20563726 0.6965686
0.07665441 0.17585784 0.70888484
0.55232847 0.24522057 0.81004894
0.8525736 0.3516544 0.5879902
0.94534314 0.41740194 0.58431375
0.13431373 0.4632353 0.65637255
0.16727942 0.5069853 0.6953431
0.4683824 0.5705883 0.7676471
0.8061274 0.641299 0.6995098
0.947549 0.64754903 0.6892157
0.21372548 0.5818628 0.6245098
0.23333335 0.61868876 0.64748776
0.49264705 0.6997549 0.70698535
0.78204656 0.7958947 0.7683823
0.9250001 0.827696 0.78308827
0.35196075 0.7921568 0.73235303
0.49975494 0.8240196 0.7960784
0.72205883 0.89411765 0.83774513
0.90906864 0.9536764 0.8845588
0.95392156 0.94509804 0.8784314
0.07450981 0.12941177 0.81960785
0.07450981 0.13039216 0.81960785
0.22941178 0.17254902 0.9039216
0.90588236 0.25 0.7803922
0.9686275 0.33333334 0.6666667
0.10490196 0.25686276 0.81078434
0.103431374 0.24877453 0.8127451
0.22205882 0.28578433 0.8936274
0.89117646 0.42524514 0.83480394
0.9676471 0.49117646 0.73039216
0.16470589 0.5392157 0.7921569
0.1740196 0.53333336 0.81764704
0.31078434 0.5647059 0.8794119
0.8485294 0.6392157 0.9205883
0.95490193 0.6647059 0.8137255
0.19509806 0.6068628 0.74607843
0.21078432 0.64362746 0.7710784
0.50686276 0.7529412 0.87794125
0.7509804 0.78308827 0.9414216
0.9421569 0.8274509 0.8843137
0.23137255 0.70196074 0.74117655
0.23529413 0.70196074 0.74509805
0.3019608 0.8019608 0.8254901
0.77549016 0.9186274 0.92647064
0.972549 0.9647059 0.94509804
