src/assets/luts/扫街配方/速写调.cube
LUT_3D_SIZE 33
0.003921569 0.0 0.0
0.011519607 0.0 0.0
0.019117648 0.0073529417 0.0073529417
0.03137255 0.007843138 0.007843138
0.034313727 0.010784314 0.010784314
0.04914216 0.011764706 0.007230393
0.07156863 0.014950981 0.0053921575
0.10245098 0.028308824 0.016544119
0.14117648 0.04019608 0.015686275
0.20245099 0.054411773 0.02132353
0.27156863 0.060294125 0.023529412
0.3615196 0.07303922 0.026102943
0.43676472 0.084803924 0.025
0.50808823 0.09803922 0.03296569
0.55 0.11250001 0.043137256
0.598652 0.12365197 0.047058824
0.63725495 0.12745099 0.047058824
0.6742647 0.14276962 0.052818626
0.697549 0.15122549 0.058823533
0.718505 0.15931374 0.06200981
0.74852943 0.1627451 0.073529415
0.767402 0.17389706 0.078431375
0.7919118 0.18161765 0.08235294
0.80330884 0.19044119 0.08737745
0.81764704 0.20490196 0.091176465
0.8400735 0.21825981 0.10281863
0.8517157 0.22965686 0.10980392
0.86519605 0.24166666 0.11164216
0.8833334 0.25931373 0.12205882
0.89485294 0.27132353 0.12941177
0.90220594 0.28725493 0.13014707
0.90588236 0.31017157 0.14154412
0.90588236 0.3254902 0.15686275
0.007843138 0.011642157 0.007843138
0.0153186275 0.0116383275 0.0077205887
0.012002145 0.012002145 0.004641544
0.030637255 0.01865043 0.01102941
0.042401962 0.027068013 0.012224265
0.04342831 0.020182293 0.011933211
0.07408854 0.035853248 0.01485141
0.09504443 0.0422258 0.018014707
0.13655025 0.04901961 0.021629903
0.18771063 0.057686124 0.021357996
0.26662073 0.06822151 0.02634804
0.35649896 0.0847235 0.030024512
0.42653188 0.09402574 0.031571694
0.4957108 0.10571002 0.043064494
0.5416897 0.11407783 0.03762255
0.5927773 0.12358687 0.041299023
0.6333946 0.1293505 0.043259807
0.66839004 0.14099649 0.052826285
0.69193476 0.1567785 0.06645987
0.7155408 0.16235448 0.066716455
0.73936886 0.17394301 0.073437504
0.7648706 0.18023132 0.078431375
0.7790825 0.18431373 0.07859222
0.79942167 0.19828431 0.08741192
0.82135415 0.21639092 0.0949755
0.8400735 0.22505361 0.10358072
0.84872854 0.2329427 0.106717214
0.867873 0.25134805 0.114338234
0.8799938 0.25931373 0.12205882
0.89485294 0.27132353 0.12941177
0.90196085 0.29793966 0.13702513
0.90588236 0.31017157 0.141659
0.90588236 0.3254902 0.15686275
0.007843138 0.023284314 0.011764706
0.011757047 0.023399204 0.011772364
0.0117800245 0.023514094 0.011764706
0.030246632 0.030047491 0.012109376
0.035539217 0.025153186 0.011764706
0.045297183 0.03497243 0.011764706
0.06554841 0.0361826 0.014843751
0.09541207 0.050436582 0.021024816
0.13578433 0.05490196 0.019852942
0.19402574 0.06692708 0.0227788
0.26894915 0.075980395 0.026133578
0.34996936 0.08733916 0.023690257
0.41384804 0.09172794 0.025398284
0.48196232 0.10463389 0.03831189
0.5319393 0.11568629 0.029901963
0.57953435 0.12905179 0.03529412
0.6242647 0.13504903 0.039460786
0.66469824 0.148629 0.05670956
0.68956804 0.1580576 0.062714465
0.7124004 0.16899511 0.068259805
0.7375919 0.17778799 0.07196692
0.7585708 0.18181679 0.078431375
0.7800705 0.19296877 0.08080576
0.79817706 0.20581344 0.087446384
0.81580883 0.2165441 0.09503677
0.8417586 0.2307981 0.10549938
0.8519148 0.23696385 0.10980392
0.87017465 0.25902268 0.1112745
0.88630515 0.2703738 0.12552086
0.89483005 0.27894455 0.12941177
0.9051931 0.3013021 0.14025736
0.90588236 0.3178845 0.14557292
0.90955883 0.34387255 0.16421568
0.016053922 0.039215688 0.027818626
0.022227328 0.03885953 0.033635877
0.026325062 0.04276961 0.026593138
0.03103937 0.04535846 0.03026961
0.034895834 0.043137256 0.026363358
0.04020374 0.04669118 0.017850032
0.07060356 0.0502451 0.022863053
0.09154413 0.053389244 0.030637255
0.13912378 0.068872556 0.024234068
0.17706418 0.07277498 0.01887255
0.2521063 0.08641238 0.024640013
0.35380667 0.10184206 0.029285386
0.4209253 0.10742953 0.025888482
0.48241806 0.11701899 0.032337625
0.534061 0.1255668 0.02826287
0.58465457 0.1367647 0.03529412
0.6215687 0.15042892 0.050428923
0.6564223 0.15568705 0.052428
0.6798637 0.16577053 0.060332417
0.7049977 0.17828202 0.06869639
0.7316024 0.19172794 0.07348346
0.7550207 0.1986558 0.07965304
0.7769532 0.20441176 0.08113512
0.7930147 0.21178387 0.08864124
0.81479776 0.22671568 0.0989277
0.83794427 0.24211474 0.10845205
0.84889704 0.24779412 0.10980392
0.8709482 0.2639706 0.118570015
0.88955265 0.2820619 0.12941177
0.8980736 0.3016276 0.13014707
0.90252763 0.31049326 0.13782169
0.90588236 0.32133502 0.14561121
0.9098039 0.3529412 0.16862746
0.023039216 0.053431373 0.042156864
0.030499391 0.053431373 0.042156864
0.038020834 0.057628684 0.042616423
0.0384038 0.057521448 0.041835174
0.03872549 0.054411765 0.035355393
0.048728555 0.054411765 0.03397672
0.063357845 0.05545343 0.0346201
0.0912837 0.06634498 0.03291973
0.13541667 0.07034314 0.021936273
0.18196996 0.08538603 0.0227788
0.25082722 0.09362745 0.03106618
0.33088237 0.1087163 0.03229167
0.40845588 0.11764707 0.035784315
0.47109377 0.12732843 0.040900737
0.52306986 0.13912378 0.04178922
0.5678309 0.1464614 0.042677697
0.6107843 0.16887255 0.04901961
0.6511949 0.17496939 0.053262867
0.6752451 0.18106619 0.062040444
0.7009498 0.1884038 0.06781557
0.7297794 0.21145834 0.077634804
0.7520374 0.21556371 0.08079044
0.76795346 0.21902573 0.08700981
0.78632045 0.22867648 0.09486826
0.80661756 0.24240196 0.10134804
0.8269761 0.2581189 0.10701594
0.8482843 0.26553312 0.11700369
0.86049324 0.27086398 0.11928616
0.87898284 0.30643383 0.12941177
0.8988051 0.3095588 0.13442096
0.90245104 0.32058823 0.14096202
0.9060049 0.32575062 0.14546569
0.9098039 0.3602941 0.16519609
0.03529412 0.07328431 0.06151961
0.034681372 0.07267157 0.060906865
0.03917739 0.08006281 0.06151961
0.038848042 0.08320313 0.054296874
0.04264706 0.080974266 0.04430147
0.051305912 0.08372779 0.039732695
0.06655178 0.078339465 0.04079351
0.09167816 0.07682675 0.03860294
0.12775736 0.08391544 0.031893384
0.17830883 0.09394532 0.029312195
0.25217527 0.103239894 0.033647366
0.32326898 0.12158778 0.036136642
0.4114124 0.13665748 0.04195772
0.4629864 0.14435126 0.043137256
0.51897216 0.15962777 0.05029105
0.5613626 0.16735983 0.046940103
0.6061888 0.18204658 0.05716912
0.641345 0.18970971 0.059110757
0.6705653 0.19622396 0.06053922
0.6981618 0.20991117 0.06985295
0.7249693 0.22463237 0.07804841
0.7489316 0.23046109 0.08205423
0.76466763 0.2402497 0.091421574
0.78210783 0.25085786 0.09803922
0.8001532 0.26188728 0.101960786
0.816188 0.27277115 0.10759804
0.83468133 0.2844363 0.11227022
0.8533357 0.30764017 0.12610295
0.87541366 0.31671265 0.1335478
0.8905637 0.33320314 0.1370098
0.8983609 0.33606005 0.1389323
0.9092103 0.35199904 0.1501034
0.91311276 0.3752451 0.16862746
0.04411765 0.09901961 0.08897059
0.045588233 0.09985447 0.088993564
0.04946385 0.09975489 0.089705884
0.049509805 0.10553003 0.08903953
0.05208334 0.11188726 0.08164829
0.059329048 0.11408548 0.06830576
0.08120404 0.11484376 0.056893382
0.093795955 0.10507047 0.044247855
0.12028187 0.10416668 0.03707108
0.17254137 0.11894914 0.036764707
0.24246325 0.12426472 0.039721202
0.30843294 0.12732844 0.036871936
0.4008272 0.14754903 0.043596815
0.46843597 0.16745557 0.047357537
0.50955886 0.17843139 0.0504902
0.5603937 0.19227941 0.05436581
0.6019608 0.20208333 0.0564951
0.6338159 0.21906403 0.061764706
0.6697917 0.22843137 0.06845895
0.6875919 0.23410693 0.07522978
0.7190564 0.24926472 0.08866422
0.7351563 0.26028648 0.09595588
0.7595588 0.26884192 0.09803922
0.7792509 0.2824219 0.1000383
0.7976716 0.2956495 0.10692402
0.8157169 0.29778647 0.11245404
0.83935356 0.31040135 0.11971508
0.8493949 0.32231924 0.12392004
0.86320466 0.33189338 0.13030025
0.8886336 0.34037226 0.14339767
0.90245104 0.35363048 0.14931066
0.9099035 0.36510414 0.15789676
0.917647 0.39926472 0.17254902
0.055392157 0.12598039 0.10943627
0.060006898 0.13066407 0.11267618
0.06328891 0.12990198 0.113411464
0.06842448 0.13660005 0.112423405
0.06801471 0.14080884 0.110033706
0.06676625 0.13956036 0.09651118
0.07615656 0.14673713 0.07794118
0.0951708 0.1503753 0.067532174
0.1374081 0.14393383 0.055667892
0.16177237 0.13333717 0.052569702
0.22337624 0.13658854 0.049433213
0.31066176 0.1521561 0.051079962
0.38227636 0.167019 0.050735295
0.46090686 0.18123086 0.050980393
0.5116575 0.20049787 0.053079046
0.55250466 0.21446079 0.05490196
0.6058824 0.23817405 0.06776961
0.6362592 0.24783242 0.07529871
0.66875 0.25710785 0.08321078
0.6860103 0.26925936 0.08429458
0.71645224 0.28053004 0.091896445
0.741299 0.28735447 0.097181365
0.75931376 0.28975186 0.09803922
0.7783012 0.30245098 0.10158548
0.7973958 0.31344974 0.10980392
0.8195006 0.32654336 0.12022825
0.843053 0.33756894 0.1254902
0.8544118 0.34632352 0.13345589
0.87049633 0.35709256 0.14214155
0.88815486 0.36716068 0.15502451
0.90758264 0.39319086 0.16309743
0.9177427 0.40612745 0.1679879
0.92156863 0.41617647 0.1764706
0.073529415 0.16470589 0.14509805
0.08226103 0.17040442 0.14803922
0.08419117 0.17132354 0.14889707
0.08786765 0.1679228 0.1489277
0.08982843 0.1779412 0.14669119
0.095404424 0.18753062 0.13697918
0.09479167 0.19522059 0.11703431
0.10692402 0.19206496 0.09506739
0.14558825 0.18995097 0.07132353
0.17889094 0.18342525 0.06176471
0.20422794 0.15539217 0.05772059
0.28259805 0.17539829 0.059160545
0.38014707 0.1932598 0.064705886
0.45177695 0.20879291 0.06473653
0.5044731 0.22493874 0.06378677
0.550674 0.23517157 0.064062506
0.59852946 0.25392157 0.066176474
0.63639706 0.2702206 0.07610294
0.668076 0.28676474 0.08535539
0.6910539 0.3020527 0.09022672
0.718505 0.3142157 0.097426474
0.7468138 0.32481617 0.10523898
0.7686275 0.33609068 0.11390932
0.784804 0.3416667 0.1179228
0.8031863 0.35392156 0.12450981
0.81988364 0.3570466 0.122855395
0.8442401 0.36734065 0.12916668
0.85784316 0.37212008 0.13915442
0.8754902 0.38321078 0.1514706
0.8894914 0.39929536 0.15545343
0.9034315 0.40091914 0.16219364
0.91587013 0.4199755 0.17362133
0.9284314 0.45098042 0.18431373
0.09975489 0.20232843 0.17990196
0.10257353 0.2107307 0.18438265
0.10239737 0.20686272 0.18161765
0.10794654 0.21428078 0.17916666
0.11398592 0.2278799 0.18483455
0.122575834 0.2406365 0.18884802
0.10939032 0.24154411 0.15220588
0.120599724 0.2478018 0.12966835
0.14273898 0.24286155 0.10456495
0.18021217 0.24920726 0.0837163
0.2270144 0.22732843 0.06967679
0.26812577 0.19973193 0.06848193
0.36897975 0.22074142 0.07895221
0.4352482 0.22937346 0.074345134
0.49545035 0.24568781 0.07622549
0.5485026 0.2659735 0.07739737
0.6019608 0.2880515 0.08210784
0.6431373 0.30804613 0.08382353
0.6725567 0.32071844 0.088120416
0.69317555 0.33390778 0.09681372
0.72244185 0.35009193 0.10989583
0.749866 0.36555222 0.114828445
0.772258 0.37171417 0.12218138
0.7888557 0.37959173 0.12579274
0.8094056 0.3883272 0.13308825
0.8283088 0.39582953 0.14069012
0.8506128 0.40036 0.14876685
0.86066175 0.40845206 0.153822
0.8792739 0.41603863 0.15968138
0.8988013 0.43298104 0.16662838
0.90991116 0.44506738 0.17761184
0.9157207 0.4497549 0.18238741
0.93051475 0.46556374 0.19215685
0.12450981 0.24877453 0.222549
0.13100491 0.2634421 0.22663145
0.13072917 0.26806068 0.2250919
0.13457415 0.2747396 0.22538297
0.13719364 0.2779412 0.22184436
0.1467984 0.2894608 0.22297029
0.1419271 0.30643386 0.19021139
0.14928769 0.31411612 0.17083335
0.15710784 0.3190564 0.14920343
0.19421722 0.31492037 0.11798408
0.27282476 0.31694242 0.0945772
0.31466758 0.26793048 0.084244795
0.3627451 0.24393381 0.07974878
0.43052238 0.2622779 0.087239586
0.4940717 0.2769761 0.08776041
0.55187654 0.30321693 0.08880209
0.6031863 0.32904413 0.09093137
0.64031863 0.3358609 0.09476869
0.67622554 0.35441175 0.10220589
0.7039139 0.36778495 0.106747866
0.73382354 0.38658088 0.116207115
0.74842227 0.38645834 0.116628364
0.7700674 0.4006281 0.12625614
0.78674173 0.41316637 0.13678768
0.8150123 0.42475486 0.1523897
0.83331037 0.43115044 0.15500154
0.8528646 0.4366575 0.15902267
0.86420035 0.45145527 0.16554841
0.8839154 0.45686275 0.17395835
0.89510566 0.46396294 0.17561275
0.9115196 0.47213542 0.1862592
0.91645974 0.47372854 0.1884038
0.92671573 0.48357844 0.20122549
0.15796569 0.3185049 0.28063726
0.1604588 0.320998 0.27806374
0.15804994 0.32762715 0.2780714
0.16545266 0.33051854 0.28064492
0.16559437 0.3377451 0.27473962
0.16943169 0.35631895 0.26580882
0.16865043 0.37868413 0.2448836
0.17558977 0.396201 0.22210862
0.18936887 0.40064335 0.18480395
0.22509958 0.39525506 0.1552926
0.29460785 0.39849877 0.12934284
0.36371404 0.38328356 0.10191866
0.4044424 0.3316636 0.08947611
0.43066025 0.30181912 0.09099648
0.49784008 0.32445621 0.09411765
0.54775584 0.3404412 0.098613665
0.59479165 0.3495098 0.099325985
0.6439109 0.37932748 0.10757889
0.6792892 0.3869868 0.11441484
0.69682145 0.39573377 0.114085466
0.732598 0.4152114 0.12599571
0.7569853 0.4242915 0.12852712
0.7779948 0.43370098 0.1449372
0.7994103 0.44793966 0.15341988
0.81565565 0.4501838 0.16075368
0.8367418 0.46254978 0.1689951
0.8572458 0.46838236 0.173292
0.8696615 0.4764744 0.1785386
0.88140327 0.47948837 0.18318014
0.89558816 0.48860675 0.19252834
0.9102941 0.50072765 0.19762564
0.91638327 0.50102633 0.20804992
0.9319853 0.52401966 0.22732843
0.1872549 0.37696072 0.33186275
0.18904717 0.37593445 0.33120406
0.19148284 0.38556987 0.3358456
0.19471507 0.39181986 0.33175552
0.19166666 0.40753677 0.320527
0.19698223 0.41400123 0.31574756
0.19577207 0.45447302 0.2939951
0.20448835 0.4685815 0.2617494
0.2165441 0.4707108 0.22781862
0.2439185 0.4708793 0.19666053
0.30030638 0.46850488 0.1603554
0.38936886 0.46079966 0.13753064
0.44362745 0.41574755 0.121200986
0.48990506 0.39696696 0.106234685
0.51060057 0.3731618 0.10450368
0.5469823 0.37182906 0.11063113
0.59681374 0.39485297 0.119852945
0.64220285 0.4129749 0.121752456
0.6781863 0.428462 0.13336398
0.70049024 0.43305758 0.13795957
0.73235303 0.44699755 0.14160539
0.7658088 0.4617494 0.15134804
0.7793812 0.45925245 0.15101103
0.8039216 0.46757045 0.15888481
0.8191176 0.4719363 0.16605392
0.8431679 0.48664215 0.17617954
0.8615503 0.49197307 0.18357845
0.8761029 0.5113665 0.20554534
0.890196 0.51341915 0.203125
0.89595586 0.519133 0.2060049
0.91023284 0.5250307 0.21537988
0.92061883 0.53676474 0.22230393
0.93088233 0.55098045 0.24656864
0.21642157 0.4257353 0.38186276
0.21326211 0.4324065 0.37483153
0.21507353 0.43958336 0.37132353
0.21838236 0.45049018 0.37220818
0.21845895 0.4563266 0.36527267
0.2209444 0.47387025 0.35402498
0.21786916 0.49877456 0.32071847
0.2306832 0.5171186 0.30112976
0.24929535 0.5224265 0.2735907
0.28313038 0.5278991 0.2384804
0.33886337 0.5288067 0.20293352
0.42482 0.52298176 0.17280178
0.48916975 0.5214614 0.15834865
0.5099801 0.46677005 0.14126456
0.55524665 0.4582491 0.13128829
0.56676626 0.4231388 0.1262255
0.6046569 0.42849267 0.13131128
0.63787913 0.43822378 0.14082032
0.6755285 0.45113355 0.1452206
0.7032552 0.46537223 0.1560049
0.7323529 0.46666667 0.15759805
0.76072687 0.47917432 0.16079198
0.7851717 0.48750767 0.16936275
0.799594 0.49088925 0.17169118
0.8204044 0.49938732 0.1752451
0.8443436 0.5068436 0.18403032
0.8608532 0.5150353 0.18792893
0.8760953 0.53162533 0.2202206
0.88820463 0.5418199 0.22084863
0.9006664 0.55323994 0.2327742
0.91411614 0.55639553 0.24267004
0.92389715 0.5599265 0.24850646
0.9254902 0.5740196 0.2604167
0.23578432 0.47843134 0.41274512
0.238534 0.485049 0.41542587
0.24243261 0.48679534 0.41179535
0.24795498 0.4907629 0.4150735
0.25061277 0.4999081 0.40502453
0.25127912 0.5234758 0.39051777
0.2498162 0.5419118 0.36384806
0.26613817 0.55903035 0.34155944
0.29669118 0.5735907 0.31482846
0.32259497 0.57758886 0.2807445
0.36102942 0.57573533 0.24947917
0.43573838 0.5705576 0.22061121
0.49175858 0.56574756 0.19877452
0.5362362 0.5443704 0.17909008
0.56767774 0.5122396 0.15831801
0.60805 0.49651498 0.14711244
0.62328434 0.4742647 0.14693628
0.6442785 0.469133 0.15321691
0.6740656 0.47699142 0.16127452
0.7041284 0.48815104 0.16911766
0.7342218 0.5004902 0.17322305
0.7604856 0.5088465 0.18056066
0.7847886 0.5106771 0.18416055
0.8035233 0.5241345 0.19507506
0.82640934 0.5300858 0.19840686
0.8417893 0.5285616 0.20259652
0.86136633 0.5332721 0.20867035
0.87539065 0.54867494 0.22234988
0.8872549 0.5560662 0.23556986
0.9000383 0.5634345 0.24158241
0.9124694 0.5790595 0.25427392
0.9254902 0.5869945 0.2678079
0.9254902 0.5926471 0.2767157
0.26691177 0.5139706 0.44914216
0.27272904 0.52223885 0.45116806
0.26888022 0.52046573 0.44178918
0.27492726 0.53343296 0.44583333
0.2804994 0.55272675 0.43809742
0.2896676 0.5614392 0.43337548
0.28825828 0.5829121 0.39901957
0.3037837 0.5925782 0.37827435
0.32487747 0.60533094 0.3625613
0.3584712 0.6124732 0.3344478
0.38872546 0.618796 0.30487135
0.43851104 0.6131319 0.26845896
0.4977022 0.61110604 0.24523592
0.55719596 0.6116651 0.22855394
0.5793965 0.5717831 0.21374083
0.6219363 0.55539984 0.19069394
0.6503064 0.5379902 0.171875
0.6638672 0.5126379 0.16986443
0.68254447 0.5109605 0.17990196
0.70391005 0.51418126 0.18257506
0.73363966 0.52089465 0.19434741
0.7610677 0.5375 0.20345052
0.7846432 0.5401578 0.21225491
0.8071079 0.54818857 0.21402419
0.8234681 0.5533701 0.22585784
0.8417893 0.55567175 0.2285539
0.8612286 0.55728406 0.23032323
0.87536764 0.56597733 0.22757736
0.8893382 0.57516855 0.2418505
0.90196085 0.5883081 0.25522366
0.91398597 0.59105396 0.27270222
0.92162603 0.59247476 0.27482766
0.9254902 0.6159314 0.29644608
0.29607844 0.5529412 0.48039216
0.2981005 0.5647672 0.47849268
0.30355394 0.5721814 0.47463235
0.30373776 0.57824755 0.46703428
0.3122549 0.5857843 0.4620098
0.31899512 0.6030025 0.44705883
0.32634807 0.6161765 0.43051472
0.3366422 0.6215687 0.40716913
0.36470592 0.6357844 0.3936275
0.4031863 0.64540446 0.39577204
0.4324755 0.6509804 0.36372548
0.47346815 0.6522672 0.3380515
0.529902 0.64705884 0.30441177
0.57426476 0.6474265 0.2839461
0.60698533 0.63075984 0.26544118
0.62322307 0.59859073 0.24485296
0.6578432 0.58725494 0.222549
0.6928309 0.56795347 0.20196077
0.699755 0.5484069 0.2
0.7141545 0.5458946 0.20594364
0.7365195 0.5500001 0.21764705
0.7570466 0.5543505 0.22359067
0.78333336 0.56458336 0.23247549
0.80582106 0.5708333 0.24509804
0.8254901 0.579902 0.24313727
0.8398285 0.5742647 0.244424
0.858701 0.5783088 0.24656865
0.8780025 0.58884805 0.25324756
0.8950981 0.59313726 0.26004905
0.90625 0.6056986 0.27077207
0.9161764 0.6084559 0.27303922
0.9255515 0.6216912 0.29436275
0.9333334 0.6333333 0.30784315
0.32708335 0.60183823 0.49779412
0.33046493 0.6054573 0.49540824
0.33259806 0.6107001 0.49016544
0.3421339 0.61853176 0.48767233
0.34734988 0.62277883 0.4782169
0.36217067 0.6326402 0.47340688
0.3655178 0.6478707 0.4542816
0.3785348 0.6506817 0.45187268
0.40554538 0.65781254 0.4489277
0.44369638 0.66906404 0.44840685
0.46952358 0.67545193 0.4262102
0.4970703 0.6800245 0.40068936
0.5320159 0.6775735 0.37299332
0.5804037 0.6789331 0.35158163
0.62009805 0.6778186 0.32848498
0.6416705 0.6552696 0.30687043
0.6666667 0.628125 0.27873775
0.7016008 0.616548 0.254542
0.72452515 0.6018229 0.24263175
0.7322418 0.58223045 0.2344133
0.7414215 0.57406557 0.2352788
0.7620941 0.5780637 0.24613588
0.7801471 0.5832644 0.2632813
0.8054458 0.59210324 0.2729435
0.82306993 0.6004596 0.2698223
0.84086245 0.60101485 0.2716031
0.8569087 0.60117954 0.2767923
0.87279034 0.60775506 0.2797756
0.890196 0.6170956 0.28532475
0.8986022 0.6238473 0.2940219
0.9144608 0.63311124 0.29767925
0.92953426 0.6392081 0.3060547
0.9275735 0.6449755 0.32132354
0.37279412 0.6365196 0.52107847
0.37512255 0.640985 0.5194164
0.3796262 0.64597124 0.5158701
0.38389248 0.6468061 0.51200217
0.38774508 0.65042895 0.5025123
0.39509806 0.6598499 0.5015931
0.40474877 0.67115504 0.49191177
0.42303917 0.6766008 0.48797488
0.44148284 0.6803922 0.4719363
0.46348038 0.6939645 0.4730392
0.49656862 0.70249695 0.46922487
0.52470136 0.7060279 0.4572074
0.5557905 0.70628065 0.43324143
0.5907476 0.7069776 0.4121247
0.6212163 0.7065565 0.39073223
0.66379446 0.7034851 0.36617652
0.6762255 0.6756128 0.34375
0.69490653 0.65253526 0.31178004
0.7254749 0.6402268 0.28949144
0.75572914 0.63296574 0.27740505
0.764614 0.6129289 0.26939338
0.7761489 0.60933673 0.2714461
0.7857384 0.60514706 0.28190872
0.7998698 0.61286 0.29816943
0.8194853 0.6231005 0.30980396
0.8415901 0.62120867 0.30920652
0.8591605 0.62697613 0.31251532
0.8691406 0.63210785 0.3092448
0.884038 0.6377757 0.31617647
0.9023285 0.6482843 0.31601563
0.915579 0.6540901 0.3230392
0.92340684 0.6578432 0.3354473
0.9254902 0.6644608 0.3529412
0.408701 0.6659314 0.53811276
0.41027117 0.66377145 0.53651965
0.4079657 0.6675245 0.52659315
0.4137791 0.6749311 0.52634805
0.42261028 0.6811428 0.52356005
0.4262102 0.69240576 0.51408166
0.44192708 0.69929534 0.5092448
0.45385647 0.7050246 0.5081457
0.46727943 0.7086397 0.5004902
0.4896676 0.7157705 0.49983534
0.527474 0.72854626 0.50500923
0.5522634 0.73266315 0.4974418
0.57616425 0.73636645 0.48509496
0.6022557 0.73622084 0.47113204
0.6366192 0.73317254 0.44686735
0.66875005 0.7341912 0.42781863
0.6930148 0.7209559 0.4033701
0.70098037 0.68967146 0.39064032
0.7236827 0.67773443 0.35629597
0.7560394 0.66941637 0.33315718
0.7814645 0.6581342 0.3121783
0.7867072 0.639771 0.2968712
0.79337466 0.6317249 0.3063649
0.8020412 0.63439417 0.31674325
0.8176164 0.63841915 0.32922795
0.83599114 0.6395259 0.34091225
0.855216 0.6461627 0.3445083
0.87120104 0.65158165 0.34568402
0.8796109 0.65764403 0.34485298
0.89592904 0.6617111 0.35258502
0.9118183 0.6710325 0.35250464
0.91789216 0.675563 0.3620098
0.9294118 0.68553925 0.37181374
0.44019607 0.69215685 0.5558824
0.44387254 0.6935049 0.5558824
0.44427085 0.69883585 0.546875
0.45219058 0.7035233 0.54854476
0.45373777 0.7117647 0.54129905
0.4622396 0.7188419 0.540671
0.4698836 0.71942407 0.5352942
0.47423407 0.7243873 0.5284927
0.49730396 0.7348039 0.523652
0.51818323 0.74702823 0.5275735
0.54154414 0.74905026 0.52585787
0.5706036 0.75845593 0.52501535
0.58884805 0.7577206 0.5137255
0.6159314 0.7601256 0.5046416
0.6505515 0.7567095 0.4885723
0.6742341 0.75464165 0.4705576
0.6995098 0.75465685 0.45465687
0.7219669 0.7332721 0.4400276
0.7382353 0.7118567 0.42898285
0.7611826 0.70186883 0.39525127
0.78094363 0.68970585 0.37837008
0.7969669 0.68082106 0.35363054
0.8020221 0.66200984 0.3422794
0.80542284 0.6514553 0.33883274
0.813848 0.65612745 0.35330883
0.8310815 0.6576134 0.36986828
0.85490197 0.66268384 0.37628677
0.86957717 0.66920954 0.37843138
0.87714463 0.68039215 0.37818632
0.898269 0.68538606 0.38406864
0.90916055 0.6895527 0.38210785
0.92406565 0.69376534 0.39091605
0.9294118 0.7039216 0.4151961
0.4719363 0.7334559 0.5660539
0.4669922 0.7359912 0.56356084
0.46695772 0.7348039 0.5609069
0.47463238 0.73872936 0.56323916
0.4779259 0.73818934 0.55447304
0.48578432 0.7462355 0.5597503
0.50173104 0.75307137 0.5524204
0.50862825 0.7547794 0.5496324
0.5223346 0.7559743 0.54813117
0.5393038 0.7616536 0.5493873
0.5595818 0.7657935 0.549686
0.58735067 0.7713235 0.5501494
0.61260724 0.77896756 0.5513328
0.63690263 0.7781211 0.54552317
0.6610524 0.77401954 0.5287454
0.6839844 0.77526426 0.51444167
0.71636033 0.7752452 0.5014706
0.7396867 0.77283245 0.48892465
0.74914217 0.75634956 0.47765014
0.7634229 0.735409 0.45987672
0.77633274 0.7217831 0.43693322
0.7905905 0.7099265 0.41377914
0.81087625 0.70033705 0.38893232
0.8176356 0.6870213 0.37774202
0.8209865 0.67763484 0.38170955
0.8315679 0.6796071 0.3867647
0.84984684 0.6803845 0.39607078
0.8704849 0.69144076 0.4113626
0.8740962 0.6916667 0.41291362
0.8872511 0.6944815 0.4098116
0.9026042 0.7023208 0.41240808
0.920301 0.71250385 0.42491958
0.9254902 0.7177697 0.4314951
0.49632356 0.74999994 0.577451
0.5015472 0.7553922 0.57768846
0.49901962 0.7552237 0.57483155
0.5053922 0.75784314 0.5748622
0.5091606 0.76053923 0.57607234
0.51551014 0.7615733 0.5735294
0.52351415 0.7669271 0.5669578
0.53414524 0.76926315 0.5705883
0.54656863 0.77322304 0.56960785
0.56701136 0.77706033 0.57044274
0.5826287 0.7865503 0.5710018
0.60148597 0.7897595 0.57580423
0.6335784 0.796538 0.57601106
0.65147823 0.7949679 0.5735294
0.66925555 0.7960171 0.5642617
0.69220287 0.79971653 0.55657935
0.7200981 0.79166675 0.5420344
0.74816173 0.7913373 0.53165597
0.7661305 0.7820619 0.514277
0.7693474 0.76569396 0.5062271
0.77849275 0.7553921 0.49384195
